P2
240 200
65535
55026 52584 58898 52662 63588 59774 55282 58536 62180 65535 53308 60267 58352 55561 65535 58313 60306 54699 56531 57922 56608 56598 53850 56982 57196 56325 56488 58977 54234 58977 56002 56736 55871 59687 59201 56561 55005 63037 58426 52527 56524 56146 59066 55746 53952 65535 49566 51590 54710 54739 56094 56499 60032 0 65535 58679 53834 54539 54849 48729 57942 52650 54642 52704 54447 56623 52039 61848 52075 54796 56450 58714 57276 56649 58239 57805 53107 58525 54209 52451 56133 54692 57294 57464 54318 57530 56208 50720 61821 56388 55868 59384 51486 53982 59652 49681 53379 62165 58464 52934 56557 58974 53607 56446 57606 56535 61745 56797 55863 57194 55080 53582 55593 54167 62891 63947 55128 46678 55187 58808 0 58875 58707 0 55641 53056 65535 52628 54646 61676 55418 60343 57658 51284 56190 54920 4680 0 13250 13233 7525 6472 8827 10168 13563 6942 5684 8785 2027 8502 10444 2316 12070 6772 8243 7977 8424 8834 6844 1992 59525 56051 58335 57336 60730 56404 54643 65535 61770 59540 60680 61390 49103 54608 57041 58672 54231 57031 52853 55503 49603 54919 62064 52076 58662 51919 52752 64620 53397 56063 54957 46850 55766 58790 51806 51862 53376 58053 53200 59293 58813 50022 51602 56129 53199 59245 60631 54272 60153 58993 56756 60331 55324 57979 54437 53500 62237 62602 57417 60650 55607 54505 58810 62105 56874 57365 56789 53699 50199 57146 51981 62406 57328 58862 59592 52974 52755 61590 58381 57056
59453 49408 60351 57353 58219 59200 63920 59212 56510 53795 65535 49819 55752 55715 53212 54072 0 51590 54494 56667 50001 55230 55947 54893 54926 55047 53826 52919 57974 56032 56356 61636 60465 55040 62699 56648 60745 50499 62773 56286 54126 0 48006 52118 53989 61871 56776 55114 60608 57880 54317 53530 50426 55989 48886 59375 50793 56602 60154 53656 56197 63316 54983 60034 59708 50176 57673 52203 57345 57628 60688 56497 65535 57899 64808 57988 63611 54571 53526 59180 54018 0 56609 64393 62754 64717 59601 56399 56384 63811 52936 55096 53542 60801 56681 60066 61498 65535 60091 48558 49474 56121 62176 53667 55614 51862 54639 57860 56525 57337 59916 55953 54053 47062 52703 60916 52113 54359 65535 56293 58481 53771 53287 58470 50943 57506 53674 55705 59258 58860 59881 54094 56506 53843 52758 55127 10005 9193 8726 5274 8936 10274 15416 7542 12480 9270 19583 11851 15397 12183 6270 6291 9350 5778 10508 6972 8367 3657 15905 5297 56412 53888 57568 61370 59595 50776 57839 60380 61428 54846 54675 50440 64779 55819 55384 54406 57070 59395 59872 54935 52651 59834 54386 63459 58911 55223 61793 50736 57121 57547 58263 53439 57361 58827 59880 56392 51613 58414 51991 56394 56230 65535 56035 51700 54939 59478 55154 62872 56999 61132 60414 53575 58217 54446 58095 55917 58456 54679 56819 53372 65535 59829 55102 51943 52116 56038 60519 55785 58060 55760 54850 57521 55740 63352 65535 59429 54905 55679 51389 55055
51637 53040 55407 49559 49389 51281 59786 57606 62546 58874 53782 57727 55242 50750 55788 56837 60929 59935 51862 52845 58142 57363 55535 55956 60238 60043 54607 54809 56019 53024 54270 61630 60426 55852 57026 61718 54285 53266 59273 57618 51824 57918 54419 56075 63835 56710 55000 52451 59081 65535 58869 62293 59283 60542 61348 51009 55396 51735 58847 55632 58068 56732 54119 54392 57875 58719 54578 50148 47998 58433 58405 53351 65535 60711 57331 61182 59288 54342 51871 59510 57418 60915 56701 58903 54406 48863 54985 50212 53802 54772 62115 54531 60783 51001 62800 49515 54398 62801 62071 58128 57409 59580 52705 57888 65535 61835 49749 59329 55213 52946 52620 52755 50898 60302 48490 54567 53125 60438 54178 55959 51359 54750 58390 52073 58168 56108 57561 58007 65535 48064 60742 52100 50889 55521 57605 0 6637 15295 7819 12238 5348 9889 8084 11229 10291 9537 7195 8600 7724 4146 2860 6975 6284 8771 10617 11590 3765 6951 5407 9404 53732 58207 57860 61097 61305 51531 54798 53068 54715 58036 56514 53656 57795 52680 52793 51817 57339 57204 56838 57626 60600 53633 59148 61361 56932 50852 50175 56612 59330 0 56173 57808 60603 52351 58471 55305 54513 57613 60412 53955 51038 56612 52459 52465 52523 53303 58090 55835 55115 56774 54189 55680 61883 56970 55184 56352 58374 57577 55544 56047 54018 63059 58285 59704 55407 58537 52953 52302 62080 59346 54668 48601 58201 0 53886 57779 51800 53348 55362 57670
57855 61605 58184 54666 58321 57176 56263 56610 56128 56350 46071 60372 56602 56316 56690 56567 52927 60482 55399 59159 53830 54265 56680 57886 64211 51113 52429 55620 54796 62214 56055 53169 51624 54726 50646 57534 62867 52613 57604 58887 56505 55907 57946 61259 55310 54207 55561 53345 62516 57348 55744 58096 55747 60484 48602 52450 59615 59459 57672 57164 59415 65535 55182 0 53061 53923 61632 60515 58140 55641 60576 59857 55836 57337 58822 0 55660 51214 53122 57552 58002 52370 56959 55681 61436 57322 53919 57734 61165 55351 56006 58999 53284 59551 52227 58755 55395 56891 51629 55344 53821 52887 0 56562 54774 51258 54554 56006 56792 0 54569 53735 0 61303 52735 49729 52538 52605 53215 62799 59464 0 59262 55434 59401 64525 57714 55713 60625 57586 53692 65535 56416 58784 59239 58926 11845 0 4506 65535 9267 4156 5625 10403 7585 15157 2550 3811 12934 14974 11180 8114 5467 5075 8894 7723 9684 16608 65535 10226 63542 54074 59194 52939 51270 65535 55681 57682 65535 58302 58044 54849 59230 56554 65535 57223 56500 49257 59837 59769 52787 0 47730 60344 59791 54260 58482 62234 54534 52072 54573 60615 59864 56378 54318 60437 51590 55748 54517 60566 60144 52479 61888 61425 57755 0 58067 58846 59587 52398 65535 58730 56510 58447 60918 58195 53992 56384 61884 53607 53920 54847 58998 59449 51952 55617 62503 59046 58829 56461 50417 58366 53303 49460 65535 61672 60838 60006 55546 51878
58748 62016 59038 54035 53262 54500 56327 55664 58070 54650 56904 58036 55242 55907 58880 50969 54209 60607 54143 52890 49015 53716 55397 56522 57823 57381 52989 55668 57990 57287 59547 61609 0 60690 57017 65535 53549 63079 58933 55916 48455 56620 55794 54786 52556 56312 54425 59026 58055 57072 57266 58680 59069 61385 57447 56693 60960 55032 56811 58307 60845 60396 55329 56330 48622 59788 54914 57058 53503 52891 54720 55800 60901 58676 55472 60962 57756 64134 62274 57747 51469 58459 51322 65535 55318 62771 58116 57308 60957 55762 62736 61327 59101 55198 55740 59050 61477 57585 58273 52531 52396 52808 56580 60773 62104 61186 59968 54220 59131 60530 54734 56181 61186 58706 62450 54221 52202 62874 62486 59235 56268 54623 60547 55884 53441 56755 61456 58829 51242 0 59529 58882 51636 53344 53192 57206 9421 9349 3760 9444 11273 13027 10855 7143 8307 7696 9628 8812 5040 10659 11255 4676 5098 13265 8693 7672 4471 6119 8763 47 56815 58051 54226 52635 51310 62935 58057 52183 59005 56578 53223 59291 54040 60991 57707 59130 56597 49922 53124 52719 56760 60948 56603 58257 53938 54704 54044 59035 47334 56522 57427 58391 58775 54747 54021 50853 63755 60010 54052 53399 59306 55243 57091 50705 50732 61314 49947 57042 57990 57720 56274 48975 55071 54351 52501 49995 54613 59739 53703 54343 61335 52451 57804 50458 65535 54808 55330 55496 0 56566 58894 49308 0 54588 57625 57071 56938 60348 56193 56546
54190 54369 58401 54314 57892 54651 59140 53918 57357 60966 54061 51971 62098 56930 55672 62120 55966 56104 59773 55493 50352 56422 55310 56512 59783 55988 54040 53816 51560 55161 53272 56778 57971 60456 50405 56402 54530 57177 54563 56792 63014 56905 54752 63484 58344 54292 65535 52798 60046 59411 56606 63088 58584 58679 62144 65535 55084 57675 45480 59683 0 55390 57831 58345 57010 56844 51411 60696 55901 51612 58731 53220 54805 55295 65179 61574 56742 55144 0 55740 57744 52539 54152 58896 55830 56549 57117 54760 51843 57015 58642 58314 57715 56436 59809 55961 61415 48694 60443 65535 59322 53836 62038 52649 58475 54244 62081 53995 53214 52360 60747 58090 59349 56808 62309 53986 53695 60183 56522 54641 59063 53341 58713 55413 0 58109 64790 58091 58296 54974 58620 58855 58366 61785 54494 59230 10083 15196 7340 13329 9548 4151 14048 7780 9470 7686 8736 6668 5772 6987 10681 0 2593 9011 7993 7035 10490 7198 8312 9559 53804 55223 58780 54199 53411 50218 54700 50128 55143 57740 63422 58246 61542 57288 58712 52208 56312 45266 53206 55855 60219 53088 51780 56891 57813 60117 59477 52643 54716 57466 59304 58606 57005 49222 61610 50401 56371 60279 61612 53243 58644 53708 57078 57452 55014 58132 52265 56089 54065 58734 57877 58034 54544 52465 57397 57719 59217 55848 58626 59421 53430 53634 56295 55527 51815 56396 51194 52638 64183 65535 55559 55728 55935 60617 57114 59450 58507 52517 56351 58064
50954 58547 65535 60322 57299 56591 52827 53561 56164 57845 63667 62296 53686 61031 52198 53139 59420 60882 52719 59070 55520 62670 55561 54693 55909 59027 61136 58021 58971 54681 60932 65535 56884 55283 54633 53998 53998 60837 46846 58851 50382 58952 52298 55833 56481 51354 59972 0 56609 64678 55707 60167 53870 61954 52300 58528 52413 58126 62627 65535 53784 60752 47101 53286 60066 55925 57115 54589 58030 60174 63745 58490 59121 60374 56000 61296 54973 63227 56450 57033 57271 57380 59476 55893 54731 53008 54986 53516 60413 57055 56435 51926 59694 44903 57646 56768 54404 57179 52781 56271 55218 55286 57047 63011 59094 59790 54259 57770 56158 55491 53795 57775 61593 59026 62837 57983 54248 55940 55274 50696 51062 57755 58847 65071 60524 60747 58230 61526 52443 56682 64953 58595 58982 55222 49903 60620 1974 15409 4293 12829 7257 11928 4921 4275 12576 12064 10630 10878 7213 14718 8069 5941 9277 7716 0 2557 14948 7638 16900 7653 56024 0 53409 54248 53851 54309 65535 51266 55052 65535 54142 57353 53357 55862 55454 60220 55871 54756 53806 53187 49541 60173 50874 49531 54275 46670 53459 56602 54595 57969 57430 59468 59083 59883 55487 52947 53876 53118 54855 52468 54973 59727 56220 54731 57092 57719 55965 57558 55538 55785 55637 50837 56299 52971 55229 58023 65535 64812 50946 60451 58376 55678 58714 53345 56759 55397 63005 55991 56582 58428 55103 57701 57930 59391 56902 58262 53490 62456 53959 50959
55077 55950 48139 56547 65535 57494 64300 54151 52766 58918 63182 60623 51796 50940 56527 56167 60377 55719 54531 58034 57760 59801 60871 52461 57535 54820 55175 58591 53290 52015 61689 61657 52229 60253 56139 58517 51577 51882 54696 55725 54774 60345 55934 58601 60815 58622 53886 58419 55860 56041 56481 55745 52665 0 55390 59380 52544 55204 54877 53224 54691 57847 57341 53447 49632 54678 55405 56547 65535 62143 65535 52002 58039 50855 52959 54970 56407 57846 59774 60559 57381 60051 65535 58679 64604 52998 51218 55257 54805 64196 51115 52376 53888 53328 60816 53915 57417 54371 63242 65535 55949 62951 53056 0 55273 57851 56261 56830 59440 57009 63759 48503 58504 60744 48593 51398 53248 65535 49628 59408 51819 54194 55828 65535 55945 53886 56219 55550 60303 52871 59791 54098 62288 50862 55282 57515 5957 5951 7051 7796 10726 9825 0 9871 12564 6343 11105 6590 7465 4798 11938 4567 8730 8040 4652 5867 6670 14728 12255 13062 56554 57484 57073 61734 54316 55206 59859 62797 57420 59255 58719 58818 56686 52092 57349 56276 56518 56860 56594 61982 51167 63210 54967 57621 55420 61215 57523 60608 54651 0 53993 57033 56676 50518 51707 54641 65535 58597 56132 61793 0 53364 53843 61603 55111 59429 62247 59598 58573 57602 56479 65535 54146 56570 52585 60866 55962 57093 55570 55150 58333 57272 64529 65535 60799 53416 51469 58130 55798 58679 53272 53807 49619 61067 61673 52945 57177 63186 57748 56183
55466 58105 59895 58157 52230 55664 57852 49429 57969 49072 55931 59597 55882 55188 59555 55382 63411 52675 54661 59569 49663 57549 55935 54639 52652 55152 58438 53929 54518 60106 59318 60875 62128 56769 54988 54494 52296 56905 61167 57114 52953 56976 59566 58014 54198 56494 57921 58484 65535 53731 60321 63322 58483 51702 57577 56970 57036 55333 55567 54341 57354 57178 60662 53607 58155 58549 53462 58823 54305 59225 0 54900 51802 52422 59229 65535 53346 58777 54684 55861 50430 60997 59415 0 55601 51174 62386 52052 59312 59364 52276 55359 56212 60123 57894 56884 54870 60956 59201 49376 51449 59247 59538 58964 60132 65535 50810 58140 60351 54980 55559 57731 54516 57302 53986 60952 58002 54682 53212 57412 59037 51377 54566 65535 57183 56555 52178 56518 7592 8647 7076 6399 10493 13223 10183 9833 5976 65535 15885 14770 11053 12279 9376 9501 8213 8254 10451 11440 8698 8041 14042 5645 65535 16443 16655 14737 13196 340 14630 8532 61039 58719 59121 58453 56728 58968 49409 50434 59289 60989 56981 53631 58646 59162 54933 53422 57443 58296 58411 56674 59625 53044 56390 60253 59872 55429 57505 52884 63678 56438 54895 60549 54272 60594 55781 65535 57254 58142 56124 54599 56527 65434 57354 65535 54335 50186 52075 56974 53782 52567 55572 58286 56827 55679 60190 54062 55246 63589 52213 60145 52539 60979 55125 54797 53752 55048 59150 49722 54916 53214 56627 54054 52232 52993 54812 56351 54098 61716 57118 65535
53014 56400 60144 53563 59908 58039 58975 60089 58178 51357 65535 51878 56599 56068 55233 58458 53737 55735 52517 53551 57951 56927 56239 48384 56321 55059 53875 54620 56105 54557 54118 54793 57441 55667 53154 55255 56212 55905 57141 57115 55107 56145 60115 54257 59100 56561 60759 0 60772 55818 58289 58052 57811 54751 57524 58088 54849 52994 54057 47749 51443 50458 61018 57419 49182 61246 58018 54577 0 56790 53594 55356 56872 56998 59279 64969 63264 56274 54468 55831 54186 60157 56359 56455 56183 48429 54648 0 56417 65535 59910 57752 53605 56532 55133 60019 56695 64686 53493 54379 56946 57497 57857 53989 53484 60927 58768 54060 60603 57362 50671 53698 63190 55904 53967 59310 63538 56065 50976 58796 52014 52233 56280 54548 56898 57288 55721 54911 9416 9618 10703 9959 3741 5649 7426 13905 8752 0 4421 11324 11321 8789 3793 10677 0 0 10304 13626 11869 7011 9474 5289 3663 7778 10362 3052 4545 0 13348 10186 54514 58304 51700 58047 55563 55725 56225 50325 58218 51635 50426 58134 54253 52066 54528 56413 59547 64415 57107 48005 52472 60222 54317 51763 61768 52425 59245 58809 52928 58917 56456 54283 56609 59181 62082 57196 53668 58863 56966 53672 59937 55263 59096 53965 54915 58194 55386 59096 59139 60863 60973 61571 65535 58011 62265 56148 64512 53690 56608 52135 58418 54920 55198 49824 59728 55396 56314 56095 60922 58101 59727 56219 54254 53957 59071 60216 52593 58189 52900 52609
52174 55393 65535 57080 58142 57521 57141 52017 61306 61796 50820 56186 53386 58260 57610 53751 57751 55539 57293 57850 58778 49724 55389 56383 55032 59776 55480 61927 55606 56352 49626 55750 58868 54848 56037 55533 57912 57626 59129 55325 53101 59563 57988 52677 54971 51442 50532 55235 60245 59951 56226 60152 57156 65294 58770 58405 54135 58560 60272 53078 58580 57445 57535 63513 53262 61106 54521 65535 54962 57157 55381 53803 62090 61710 54409 57371 61577 61951 60513 54326 58312 52393 54408 51404 53217 51014 59354 55732 61515 58217 56989 61222 57860 54216 58304 51436 59893 55231 47749 65535 59915 61145 53642 44119 54536 61260 57637 64945 51508 50790 47981 58491 59244 42972 56642 61444 54009 59214 56179 60470 53188 53080 55677 49289 57411 60427 56785 52196 13651 4020 10419 8796 4211 4272 5298 10622 9987 16208 3707 6989 8369 7988 7484 12854 3972 8273 9848 17242 6234 6199 13983 11204 9453 10694 7765 9413 9783 12453 7322 8300 56770 53023 51149 57304 61625 48091 53407 56567 52385 57038 62844 51468 52660 57119 57032 59401 50687 51464 56434 54229 50308 61835 57128 58254 52886 50402 60136 55235 53930 57785 62624 57595 60916 57214 56439 58284 55613 52179 59783 61414 56390 59060 57054 55441 57650 61103 58189 60281 55228 61851 55381 58745 60024 55032 62050 54888 52335 55767 57357 60191 59911 65535 65258 51234 57805 58948 59016 59784 56386 56352 51714 51967 55949 54267 55638 56222 62508 51788 58711 63123
58197 64396 50068 58713 61938 51911 58983 58085 49348 59142 52720 53369 60995 57683 53009 59311 62314 57503 60301 53815 56817 62845 56955 55525 53574 54327 55582 50925 58267 61354 59268 57497 49726 60269 57279 54051 56032 50832 56801 56990 57771 49322 48355 56538 54782 55477 52140 55414 55389 55749 53435 56492 56430 58587 60153 56425 55670 51800 58108 53955 60806 59807 58564 59078 54618 52584 58869 55039 57735 55629 58584 60319 59157 54550 56688 53031 52632 59527 56343 55878 53259 49333 52242 53649 58689 54275 62466 57432 51549 61381 55604 55748 59971 56104 0 62339 55401 56996 56986 56309 58442 61904 53325 51356 57435 59522 61456 58251 52340 56345 50471 63129 0 56426 60797 52530 57221 57992 46771 55099 56153 56626 57636 56083 61194 50230 55014 55443 8013 7612 2455 7242 8414 9487 11855 12447 11150 12571 8666 7674 7358 2560 12758 14463 8905 11204 9888 8291 9213 7012 12235 8653 8265 9770 14638 8298 4578 5083 13137 7175 64009 65535 59318 48102 65535 62177 53305 52156 60796 56998 51307 63573 57464 55760 57275 59540 51445 57016 60075 57004 56411 54971 61890 58206 54756 55058 50168 52976 57060 54207 64978 57357 57297 62161 56130 53982 49919 60570 51402 55874 59421 58629 62782 65535 60988 58162 65535 61469 52198 57115 57224 59132 57849 54505 56289 52243 64240 54935 59601 59747 62509 59328 47695 53971 59507 53393 61673 0 55380 53560 53818 54560 54942 54981 57609 52554 54723 54906 53750 56455
56605 54493 54804 52402 51028 58957 51482 51645 61914 58897 56044 61138 59922 50895 65535 53362 55733 60576 52382 59898 58616 55018 58962 56370 57980 61063 54581 60943 56771 48060 54380 57910 60353 52042 52586 51185 58689 51877 52730 52680 60078 57160 57658 50211 56839 56738 56080 48290 54144 56647 50723 58127 56122 58260 56406 60379 55493 55057 60571 56694 58909 51947 62964 64001 54917 54502 64617 62552 56550 57070 61162 62609 64987 52923 60494 60494 58388 57008 64243 55120 57755 50353 55741 57370 54593 61064 56851 56662 0 61558 57235 57725 55325 50145 62203 62824 54697 58870 48893 63944 56217 58237 49565 55844 49162 59663 54066 59096 57719 51636 53405 56693 60761 52261 57285 55154 53763 57030 61088 52539 60127 59052 54630 61670 54416 52159 55330 55221 12028 16180 1759 8063 4685 7002 8320 7064 5606 18829 11819 13640 11503 12147 12399 65535 7921 9377 12448 12787 12546 5090 6232 7842 5323 11171 15039 6471 19647 6692 11838 11046 51362 53879 51869 55013 59133 55074 55447 50088 52582 55227 55169 55888 56811 56876 49887 0 58778 63971 51976 57466 51383 60842 57302 65535 61322 55790 54546 57623 57166 58095 51503 55713 62849 52045 54821 53655 49672 58356 57769 58185 54294 50608 52974 57532 57501 57571 48027 57332 51821 60441 60381 60891 59324 57005 52410 55725 58166 54590 55280 57173 56886 52670 54255 65535 57226 58033 56320 51122 58618 55253 56062 54839 0 52880 56983 63700 54996 57096 54050 59397
51637 56292 61331 58894 58468 53768 55322 53109 54460 51102 59549 59346 54144 62751 51221 60668 57010 57481 60656 55616 57612 53155 61317 62102 56331 0 0 57413 57518 63950 55086 62636 48449 55134 56096 54238 58811 61609 62317 60960 51353 48694 57729 51963 48546 59047 57877 56234 53448 59379 55277 59901 55093 56244 65535 63819 55435 57397 48790 59189 58715 59352 56716 52090 60060 55965 53080 49586 57314 54861 60584 53361 61356 55548 56014 47586 56089 51961 51612 57512 50221 54385 47885 57212 59267 57197 58879 54236 53089 57350 51737 59129 55924 55277 55353 56390 53034 47362 59310 57228 54595 55319 56998 57313 56087 60345 55048 55356 59857 58382 54652 53494 53926 54123 57904 57081 55406 57739 55261 56920 54208 57080 54385 49735 58548 59082 60066 54688 5945 9331 8799 10347 14354 7122 12834 1353 16580 2356 9656 8337 8293 8407 8679 6863 6253 15440 5736 4355 8902 4590 5243 11086 6213 14120 7563 9983 7055 12610 9519 8718 58402 53760 59938 57556 57620 57595 52929 65535 56775 58105 55764 54954 60099 55818 55494 58618 59447 61279 58366 56094 57538 56398 57673 55153 57129 56303 62050 61232 55123 60733 53301 51879 56690 54653 53518 0 56624 55563 51928 59147 56949 61135 55760 53547 56531 54194 52140 57268 55346 51643 53458 55762 58236 54342 62206 56488 55395 55680 55526 55712 59077 57598 52595 60882 59790 61652 56990 58405 0 53245 55646 52278 57632 53881 56909 61626 57355 53628 54817 54744
52481 58524 54617 50036 51480 62441 52941 50262 52250 63304 55214 60684 54758 59787 59746 55030 50533 59006 51634 52139 0 53461 56163 52554 58663 50884 54528 55665 61144 53607 56832 60847 65535 65535 59099 54146 55891 55592 51228 59318 61145 52432 56445 58844 53029 58537 57471 52505 54084 54373 56362 58996 58774 55005 52801 54624 55240 62354 55413 60267 52122 56125 54575 60132 57802 51990 51182 51384 58537 56747 53542 56822 0 54457 55217 56806 57220 61683 55623 0 61160 59525 56361 58528 55844 59423 56680 55945 52029 53037 55623 65535 60232 56375 57467 57005 57294 57816 55160 57849 55694 53330 56200 52405 56165 54962 60544 62639 55876 58106 54760 58534 57068 65415 0 58803 62591 51757 54287 58755 51999 53812 56623 55346 52163 55105 65535 0 7073 6925 8681 8048 9107 6419 10826 2679 3033 12441 5465 8549 12552 12507 6308 14433 9614 4180 8153 10304 3824 12985 3179 8407 4205 9544 6120 9158 17372 9846 10704 11227 58184 62830 55424 58223 62239 50845 53408 55660 60806 54713 56560 56416 0 55257 55750 56546 57056 55515 63955 52130 55665 59410 53223 57479 53475 59115 58788 57680 56932 60452 54885 58415 54790 54470 52188 54239 50152 55024 61524 61972 55128 56200 54104 55075 60880 58288 58389 57179 59471 48350 60276 52479 56724 65535 57766 55982 55926 65535 56806 55327 56391 59478 54819 57341 55647 51944 58470 55563 52631 59835 56463 55984 54410 57112 60566 57200 55066 56395 0 54751
61952 59038 58919 55003 53409 60808 54872 55651 59272 48074 54610 56669 55571 62037 56233 54900 54032 59127 54834 55318 56224 54025 54000 53989 51147 55665 52925 60074 55915 56566 55863 59489 52218 53392 55196 57136 56642 54657 55998 54951 56535 55923 59047 54799 54401 57909 50538 62504 61410 50738 61026 65535 57317 60424 54644 58477 56118 49832 52114 57320 61747 54281 50802 55884 58884 54857 52691 65535 52283 54954 58176 50631 55976 52204 55506 59033 57450 59307 58075 59355 53470 57892 52798 47268 54840 60142 52016 59787 55390 55924 63169 60582 56588 52727 59836 58181 58089 52709 53176 61929 58445 54510 47821 52980 57520 61500 57205 56124 50752 59857 57302 57406 56357 55028 53837 52027 59552 54364 54651 55553 64819 57868 59066 57315 55046 55302 57626 59693 12574 6367 12054 0 7606 2411 9677 16578 10999 5903 12287 8355 7183 13905 10344 9878 7325 6134 11513 13030 12712 6552 10578 11400 11605 12789 5954 8357 10556 3928 2485 11188 53567 60501 54390 54406 52457 58776 57032 61560 54858 54937 60177 58407 61306 54657 61447 56524 51542 53189 55420 60720 60424 55473 57071 52492 51939 61175 0 54861 60439 57784 56692 55657 60135 57169 56379 54216 52760 56376 0 58096 48268 47732 55591 53781 56527 56342 60279 58631 59316 64493 55893 54325 49570 59248 54231 57325 57695 62542 48583 50993 58202 56210 55651 60256 54123 64221 56155 60156 55520 56083 58177 60290 49359 57341 61858 57393 47984 54347 57293 51749
54944 61978 60923 58122 65535 59499 59946 52829 55223 48959 48462 54843 61862 57881 58802 56047 53475 50572 59350 50652 64057 61480 50164 48613 60532 54657 53436 56149 56214 55012 59850 55695 57467 65535 56327 59603 60469 57972 54042 55023 63846 57449 59650 57680 50181 63606 57476 55110 59434 53197 54669 58762 55344 56237 53769 52622 58587 53774 57128 58875 56903 57394 59422 59852 54829 0 54909 57400 53345 56259 59008 60345 58704 55253 55262 56888 48149 55956 61398 50599 60441 61392 58619 55448 58180 58192 56620 54743 58980 58385 53361 54461 61953 56075 56196 62086 57457 65535 58074 56209 64227 56269 52784 57748 60812 52849 57143 52970 54046 50627 59121 52758 52979 57772 51475 60560 59681 55074 59488 58686 10042 11313 4804 0 16835 8958 5502 65535 9664 8750 12530 13400 9451 11158 14843 13013 6003 3390 7856 6268 11454 14631 7069 5662 7863 10561 7903 9972 3693 4981 9230 12675 59223 54900 58680 50579 60194 54838 54365 56811 58200 55500 53423 58410 62297 51068 51493 54034 51457 51517 47478 62884 51889 62845 52786 52240 53170 54346 61359 55664 47667 0 55922 60041 58234 58024 59456 52573 60787 53359 53212 50025 53209 63312 54472 59069 55143 53723 55544 57048 56411 56331 58541 49624 60716 61322 56918 57497 56574 48532 59907 57544 60325 56534 49526 55871 57905 56271 54390 56195 54437 53741 56295 52259 53618 55217 62319 51981 54381 61843 63359 56407 61481 62662 54217 56590 51821 47012 62252 60426
57130 61021 52586 53648 61509 51572 54020 55247 55079 55253 57516 53792 58132 60708 55485 52532 58995 55120 63752 63253 53031 59324 54719 58258 60646 63505 52877 60219 50231 53225 59884 62350 58182 62789 60407 54871 54010 56711 54578 52202 55920 55124 56880 56185 55448 56381 56872 56260 52584 59797 56915 57418 54153 49587 54281 61451 56062 55999 65535 53973 53718 48304 0 55107 61741 57565 0 52501 54669 60547 56021 65248 50748 55563 63147 56037 54489 50050 59963 55578 57492 0 52300 55123 56502 65535 59858 61384 54739 61129 51405 52058 59206 53814 53457 55528 55938 61968 53062 47954 52486 60409 60826 59519 56323 61233 52707 63810 56214 54761 56084 60429 62481 58776 62960 59005 55382 56371 59782 47795 10009 6352 5813 5587 8731 4938 11225 13150 7320 6207 7992 8483 9088 6439 12818 10607 11430 12900 13489 11313 12890 16050 10533 12562 7600 6173 960 6170 10592 6640 8463 1907 0 58586 52116 57157 59876 51675 57151 53218 59573 57294 59373 55111 0 49278 55739 56261 55497 56562 54646 62170 55472 58916 53815 57499 54469 51961 56718 53185 60393 55304 45728 53222 59014 52547 58191 53712 57153 53411 49841 58653 60665 57922 58465 60982 55668 57629 61209 55539 49008 57378 65535 60395 56949 56985 57996 57185 62468 57735 58494 52161 55102 58699 55756 61060 54517 51922 56636 55517 50469 54900 59280 58362 53287 57295 57913 53895 59425 51569 57042 56205 64910 57244 56800 58882 64395 57320 60568 54354
51312 54215 60739 58172 49610 57200 51429 56782 63028 46370 56302 55561 62638 61448 53057 58391 58771 61453 58510 60599 52282 53059 60838 54276 58893 57525 60608 65535 50406 57284 59698 53894 50899 52360 55759 57534 58854 54355 60679 61272 52110 59494 60674 62448 52914 62604 58973 59893 53223 51032 62217 64207 55360 60018 53162 55116 61086 57352 60342 61341 55327 57130 54118 53887 53182 52390 56007 61328 55458 53310 58327 55156 56541 60536 57481 54119 52913 58324 57847 58991 49368 58936 60300 60613 53362 56298 60537 60449 56445 52792 65535 58130 52801 55296 59191 52946 60802 56743 59273 58494 61835 59202 55415 59944 57964 61247 0 54917 57365 55969 57021 0 55549 57304 56899 52318 55042 56511 0 58640 4119 5478 15853 9354 5833 8273 6732 11833 7013 13403 7921 5880 12883 9450 11036 4325 7811 9665 6480 14347 13333 12260 7798 9898 13688 9795 10565 4501 10997 12918 7734 10696 61563 50841 55880 58367 60977 65535 63276 52182 55269 52409 0 55947 63244 54832 52340 58725 58796 60490 60073 53650 54694 57590 61505 54288 52284 54314 55807 52524 57163 53819 65535 58195 53324 51581 57099 57482 60687 57804 53200 55473 59922 60743 57257 58479 52024 54745 55479 53783 59776 61937 59728 53581 55149 55704 54344 61494 59669 54661 54902 57307 56322 51850 63617 56823 56454 55294 54586 0 54063 53622 54867 60997 53770 52994 52352 56243 53990 54070 55222 55428 54448 55254 53343 51992 50010 59185 58102 52974
60681 52141 50571 55489 56498 55362 56443 52546 52620 60260 56097 58762 63730 54327 58175 57025 58424 54131 56770 53375 58334 56581 52431 56415 64438 58311 57251 53775 53048 57413 54302 53280 60799 54193 55294 53000 61651 57736 59093 58553 54344 60838 61235 50363 53842 53302 60079 54110 60336 53655 60007 56124 53361 56623 64033 58443 53868 53253 48568 53300 47138 51169 62259 58400 53226 60205 59591 63902 55863 54894 60333 58568 59562 59864 60872 58342 53474 56235 61095 58920 51256 59996 51276 57777 58839 59195 61174 57742 61768 59567 56000 52542 57920 59769 57280 56221 51480 54979 52084 60556 53762 54244 53926 58723 57054 61284 50620 57503 48873 57625 54116 54868 52171 57964 52257 51894 54188 56437 54133 53353 3151 12189 10351 9647 11531 8383 6657 8745 9821 3892 12430 6100 11993 9100 4520 7841 5035 10421 13143 6897 5774 8977 13016 9855 11942 10747 4518 9674 8561 11985 5923 7518 53887 52399 62300 55703 55111 55743 60725 58335 52933 61930 60502 54821 62224 56688 51938 59896 53814 54203 57935 52995 61444 62938 59430 0 65535 58899 52786 52933 58638 58256 51591 56081 57346 60848 57280 52013 61970 58795 57471 59893 57655 53444 54170 48267 57952 56464 60966 54872 59546 51491 60349 55804 54826 55913 53951 57748 56429 57675 52880 62462 50666 58127 54629 56124 61188 56552 50460 56866 59056 52121 59216 58876 59241 60054 59634 58970 55494 54922 65535 57955 55177 0 53793 56128 60130 51373 56843 57045
55945 56547 58998 60057 53065 56996 57491 53932 56397 54662 52488 59713 53793 55144 52673 58714 51912 47713 53155 52884 56314 52163 57648 57515 55471 52899 60317 55311 52363 57910 59795 55744 60122 55967 52777 64517 0 48040 60094 56208 61381 60848 53916 54000 59108 62186 54743 52816 60624 53802 49473 55882 58855 57722 54809 56338 56145 60872 56512 56759 52702 53783 56989 58120 59744 55809 0 54307 54067 54991 55816 55492 57883 51520 61349 53888 0 56263 54949 50420 57025 58184 53783 56833 64507 56598 57685 56202 55866 54460 57767 55771 61723 54763 62838 57048 55097 53278 56185 63018 52939 60114 57065 65535 55584 59218 62863 47895 50753 53178 51853 62139 65535 62875 60321 61516 54337 57324 57511 59967 2168 7733 8865 14662 12235 0 11286 1477 0 12026 9536 8572 14861 11543 10241 4321 0 8524 10810 7330 13786 10792 16748 3950 7100 11753 10128 4406 0 8789 3603 11931 61439 54118 50959 59266 54640 52156 60488 55872 53114 53937 53695 54837 56286 56399 50016 54528 59785 54525 55604 58725 60362 51629 65535 50374 59556 59912 53609 55774 49642 57052 58316 56630 58057 56457 60331 57836 58990 56532 58965 57927 65535 55860 57698 55028 53305 53880 55013 57559 55604 52593 58680 53773 58325 60305 55444 58856 60507 54182 56337 56778 56019 62391 54694 56233 62925 62804 54097 60514 58284 62778 59694 47301 58406 59021 55347 59193 58062 54453 58314 55581 58279 57204 0 58080 58806 60532 62140 65535
61998 56979 59385 55578 61124 59330 62776 58756 49285 61478 58918 52877 59561 57887 52788 56121 56271 55923 65535 56716 64014 51401 54753 56237 52693 58950 56398 53205 58456 55556 58133 53314 59763 57141 54862 61093 59622 61286 52463 59341 59703 54586 57360 51935 55255 54253 59669 56772 62911 57011 57778 53306 65535 53080 57670 57280 57759 56127 54785 60149 52133 51547 50231 58164 59281 59361 58728 59103 59290 57116 57554 63513 54757 55162 50154 56572 60753 52755 49145 57846 53268 52719 52065 58287 59217 65535 60344 54494 48481 52110 63148 57694 57183 54252 59467 58807 59907 61680 55412 57424 59152 54592 54976 59176 56819 58924 60643 54665 63207 59481 60179 50093 57287 47740 55815 56853 60880 56031 65535 54352 6119 8821 10367 10713 7029 7306 10862 3420 9927 6202 10314 2959 6122 5764 11800 8921 4828 8456 8661 14404 6517 5007 4480 5414 10238 14900 8632 9003 7790 9925 8687 7696 64994 58276 54158 59102 54562 58592 57405 63121 62248 58314 54415 57154 54978 58101 60914 65535 56662 56713 56172 53189 53904 59571 59059 55842 51223 59455 61188 55612 56846 58555 54323 57584 56766 59375 57210 54728 58448 61954 59130 0 60695 57950 55127 59559 58469 59271 58039 53719 56395 65535 51813 52561 53955 58687 55414 62757 54992 52974 55172 60818 48716 53349 62377 58714 57750 56954 55340 52262 58988 60650 56575 64789 51906 55756 57247 53619 52648 0 65535 60407 59501 54821 55150 54060 53224 63228 58917 54028
64357 64459 55089 53137 54683 63978 50561 58592 57246 62591 60004 58187 56193 56858 60189 53752 60094 63024 57169 52567 58122 55079 58242 55887 53933 56089 56800 54238 53706 57408 0 55216 55912 58335 0 59043 52771 54370 0 62026 60627 59388 58611 0 0 52483 55625 61171 61752 57130 56187 55616 53481 60748 58826 57774 55970 59806 57187 51619 57233 55524 58813 55923 58247 54899 59785 59625 60550 57008 58499 54134 58884 57823 52875 59571 54045 58588 57321 65234 58014 57104 54880 63618 55392 48505 60746 56065 54973 55200 53721 58464 55827 61715 58103 65535 55993 58181 51063 62325 59691 57672 56334 61157 61774 57606 54269 61981 60149 55238 52352 59632 56177 55908 54738 0 53224 55030 54349 56936 65535 1979 7117 8027 4495 13252 10798 7223 14585 8299 10362 11053 4601 11898 4149 10014 7235 13793 1588 12484 7301 16258 9836 7712 11689 14892 8141 8687 6132 7100 13919 9972 54445 54269 61448 53034 60451 55181 58674 60700 54898 59518 56713 59767 59372 51638 56680 53044 58287 48210 60434 57685 55275 58960 64696 56959 55806 56603 53068 52137 56386 53482 47837 54175 52003 54516 49833 65535 57162 49821 65535 53791 56286 61039 56114 52871 56842 59102 60461 54956 61131 56373 52481 58452 50110 53823 58761 56162 58499 58293 54505 62295 60440 51183 0 55535 52696 61609 54825 55404 51853 56239 51987 54681 56279 53113 57929 57522 52729 58086 58463 55046 59711 56538 50323 54068 58007 58965 51940 53261
58160 62004 55672 57343 57004 52837 60552 58326 60389 59198 55680 59789 53669 56650 58124 57588 55360 58077 51977 54605 59450 55235 59815 51744 56722 0 57384 63676 56675 60890 55168 53048 62938 54964 56416 57425 51740 61172 50257 56613 58015 54317 53069 58476 54878 54099 56703 65535 56790 58836 56175 60597 53362 57539 56835 53731 58454 55914 53524 52429 60861 53983 53816 57852 60179 55392 60126 55589 58262 62116 54090 51934 58598 52701 59858 54060 58350 60496 55261 57846 59670 52538 60711 60355 55738 61132 57067 60199 56773 53587 50437 59579 57314 54477 56344 59851 53562 53371 60058 59513 56641 54676 58001 55806 58648 51880 59132 59506 53420 53909 57398 53864 50104 62809 57864 60953 59308 56349 56077 58221 14792 7784 7644 3419 9425 9345 10294 4790 8428 1654 3289 8437 11303 10419 5663 11675 12463 12206 10516 7470 5336 6780 7456 5138 8223 7575 8143 9544 8726 8408 12482 13133 53150 56119 60441 49978 53567 0 63715 51136 55473 56256 58492 47016 51967 55456 56745 54553 55110 54240 55661 57160 54590 54275 56875 51653 58336 59399 54127 57353 58695 50192 59863 57452 59681 56392 56549 51787 57262 58339 53121 56224 57398 54766 55102 57827 54794 59189 59388 63717 53891 50284 57649 57022 51872 59522 55444 57635 53794 56351 53814 50668 56482 56316 56600 57160 55547 58194 54691 54094 54113 57809 62045 55325 54326 53445 59810 57905 55314 58778 55111 58473 57535 61730 65406 57970 55539 58175 59924 55755
56758 56516 63239 59028 57502 57796 55614 55688 58692 54379 51982 58349 57740 61141 55310 55766 61300 56868 62218 63445 0 56488 58805 57721 56476 53523 56882 46622 59094 53060 54574 52913 58349 60064 56041 59059 53893 56639 60276 52544 55151 59900 58303 60133 59950 54191 53384 58117 52913 53617 56887 54895 64883 57402 58830 54634 58942 55168 57173 54748 60207 50752 57965 57034 0 51618 52482 52217 52329 59814 56281 56185 0 62453 59591 55422 58645 63371 57602 58358 57414 53822 53111 58454 56922 55640 60593 51449 54255 57297 57978 57234 52697 56399 59755 58587 55316 54660 58016 51556 53728 55560 65535 60896 58767 61399 58168 59195 59068 57825 56084 60703 4655 10819 1313 7774 13375 8898 10727 14517 11489 11522 8902 9338 5684 7949 9528 3665 2258 8700 4955 7007 9283 12511 14469 3064 1506 4624 12394 9184 14779 12095 10516 14526 16208 12786 6984 10282 12750 9543 7706 11878 58113 53485 51230 57012 59338 64085 51772 57568 52540 57171 54174 59216 56828 57519 60903 56419 59705 57322 52899 57384 56329 58616 51997 53035 55421 52937 58177 60757 50660 59392 51343 60706 59771 62538 61441 52927 57568 0 57256 65535 60206 56063 59932 54422 57727 55589 53792 57051 52986 47414 64692 58713 53155 58816 49834 54238 54219 59405 62498 63069 63246 57992 52550 64121 58492 55402 57166 61726 53354 0 58412 64502 52745 58191 60360 53787 58760 54138 58248 52483 57100 53680 58669 64044 58019 54651 56279 62497
57701 55133 63153 54176 56586 56098 56835 55320 50924 59221 53527 58865 54090 65535 63297 57798 49700 55751 54472 54705 60314 51616 60420 55889 58998 54523 60547 56394 54089 55579 55716 52076 56375 59752 57565 58272 56422 54808 60610 58775 47557 50489 51238 59946 58318 53347 52933 55941 58907 56797 58969 56287 53425 58930 57212 57175 59194 57654 62733 53410 55539 57357 55220 55926 54298 56103 57622 56182 59260 59615 60515 52677 56689 58128 56980 51852 64646 60905 59191 54839 54193 54657 58944 56863 49382 58754 56969 58915 53573 54393 65535 59332 55196 58893 54009 59605 52001 49915 55351 57281 60390 53422 58611 54957 60548 50770 56044 45074 56823 60101 58192 51064 10680 4370 0 7655 8073 11583 11105 6726 3986 12762 9085 5939 3966 15433 9020 8370 10014 7071 0 10668 10765 23812 4269 9968 15924 11316 0 17345 11365 6747 11245 7942 65535 7802 7784 6761 5808 5550 7735 10974 57116 56745 56972 56461 56052 55468 57403 52654 56634 60154 51285 54199 55478 58865 52642 56331 52886 53652 59739 53218 57837 55556 55491 56252 61163 59232 52391 55502 60734 0 59830 56009 59169 59654 55749 57830 56619 63798 55682 54488 60094 62995 55138 58953 50588 58558 56541 53253 56186 53308 55574 59320 57541 56734 55611 57529 60686 59869 54591 53693 53332 50486 56243 51588 55821 58399 55850 61829 56718 55901 57377 51129 56473 51801 54488 52175 55360 56791 56112 0 58522 57730 59729 58698 54630 52764 57934 56923
55902 54874 56606 60092 47727 59961 51090 50646 61198 55472 48415 56952 58116 55982 52268 0 57109 60431 56578 52914 56558 57139 59287 54120 58333 59979 60163 53990 52050 54204 65535 57704 55067 57318 0 56808 61501 54373 61207 58791 60788 58290 52332 55896 56653 54125 55017 53805 58108 55538 63950 60926 55135 55330 58207 53933 54870 55139 57185 59137 53427 54470 54119 50931 57429 55169 57096 63131 53704 55766 52534 54037 56021 61875 64619 54404 52204 56596 59894 54968 0 55276 53726 55058 65535 58189 57282 56687 55109 54055 55697 60755 51275 54372 56450 59849 55375 54212 53191 61344 63988 63733 57943 49599 60071 57692 60806 56715 56518 59513 52002 57322 11873 13037 6748 2715 8696 9147 5647 14976 13891 0 9399 7851 2774 7881 9509 16721 11177 10161 17436 14090 3706 1382 0 4114 6544 10840 8276 0 8048 8385 8193 5430 13745 12453 9433 13615 5761 8367 9334 13568 58894 53326 58217 57643 57748 58797 55011 57330 53637 58969 54138 59386 49715 59986 64606 58002 59588 52496 62833 58963 50026 50700 59045 59348 55151 49920 63979 54560 55510 53348 58989 58893 57068 58498 57976 57025 56489 47799 58797 59987 61893 52166 57724 55836 65535 63126 53355 61100 55692 54280 56837 57156 56936 56060 56372 52468 54115 57911 56165 60148 55752 0 52804 54172 54350 53722 50035 52730 54155 54712 56053 52671 53377 51507 56160 59951 57101 58105 57700 59119 59552 50272 56759 58752 48275 54688 51903 55822
57465 57003 63638 55505 57619 58670 53490 48418 57743 54528 58941 60205 55670 53563 57618 57772 65535 62637 55147 53377 48127 50497 59726 61050 54194 55584 53128 53652 61486 54355 56699 51134 53985 52856 59656 54061 58619 55536 61970 53000 54468 59965 52119 57527 57829 56552 61321 59096 0 52655 64664 48989 50554 58354 51570 54586 62578 56672 54703 49803 52382 63719 53588 54164 58772 55077 58385 59041 53533 52194 53782 53832 55909 54979 57842 57606 52582 53728 56214 53785 61095 58917 57391 52295 49720 56524 57811 56220 59651 58632 59711 65535 56965 56823 56771 54306 60180 53042 55902 50385 61756 56299 59886 65535 57740 59171 65535 57610 57105 58852 60949 57654 8205 8536 11994 6195 65535 9897 9424 9923 5961 16518 7029 15083 4461 3209 8399 15838 10387 1767 6822 6898 11071 4607 10145 11657 4396 4222 8883 13040 0 5727 13337 14987 5939 12720 9429 5362 65535 8388 9692 9805 56669 52098 58175 57078 53636 53866 53555 56220 59017 53061 55606 60029 54296 61290 59147 54675 57083 53348 51159 55918 58863 58860 51014 50686 53667 0 58460 57362 62192 51618 53528 54702 61890 58728 57142 56843 51591 52824 56558 58339 54332 54408 59559 55516 62960 57018 57112 58423 54783 51288 53256 55547 59936 54094 54313 58613 60591 56566 65535 56683 54756 56412 63557 53505 58706 55979 53286 63701 59831 52537 58515 58147 58838 59517 57284 49242 47279 59169 61821 60520 54185 65535 50058 60746 61368 56834 56572 60138
58489 54336 56276 61451 49092 60395 53618 63445 57062 47780 51579 57507 59138 57320 56838 53079 52919 60376 58589 60494 56385 56954 54237 59041 56730 52680 54800 56297 61874 54830 57838 59611 61057 56518 57069 59863 58084 0 56687 55613 59099 58101 56005 56136 60124 52670 54393 51495 58826 60506 64760 54770 60159 54799 52755 57011 54691 56084 55044 50832 56789 54104 57973 0 55892 55419 60079 52114 55751 56520 54901 60170 48708 57588 58570 57096 0 60128 54778 59579 54961 56263 58728 55470 62460 56679 53563 58093 54966 55186 54486 57979 60317 53533 65535 55024 55969 52793 57596 55736 54830 56542 58213 51186 56193 59932 60751 53361 54891 58749 56245 57774 7087 9551 6469 5148 7942 9788 11954 6002 13270 10096 6299 4875 65535 5082 4390 6484 7965 7316 10167 8160 1132 16172 10872 10845 8160 8206 11754 13130 10649 8790 13163 14313 11522 8438 5087 13932 14520 5377 16491 4658 60471 57474 60820 61572 53217 54142 58563 55848 57982 63082 65535 52666 59492 65535 49884 56910 61629 48485 50296 49102 65535 55881 57378 60106 55676 60925 60991 56368 55003 62799 57219 53720 57037 52093 54464 49345 55952 54614 62166 60553 54708 54796 57111 53028 49680 57081 62195 56642 51465 60950 53442 57819 57732 58704 51525 57272 54567 0 56809 52051 57249 54151 56181 55091 60344 59386 53902 57422 53439 54238 65535 61481 56460 54481 54290 60263 58071 61549 56145 52032 56328 61147 57165 59524 0 55493 55773 51290
54101 55659 57426 50844 58084 62982 55723 65535 0 48836 57879 54127 50624 52442 48812 58649 55806 48629 61902 59075 54068 54548 53813 57934 57102 56414 58298 62550 61564 61205 50558 60306 54039 59041 54953 60514 57186 57901 55976 54909 55414 59324 65535 0 63429 51636 59183 59714 56509 59821 53337 57808 49418 55240 0 58759 55243 61852 58855 52266 56984 55179 59833 56062 56844 58581 56083 59157 47221 55216 50715 50040 53508 53644 50904 55119 58858 48025 54198 56061 55181 56376 53556 60533 56148 52087 62227 59097 50882 60485 55903 55919 57854 52127 55587 51687 54941 58718 59495 52289 51979 62623 55443 53014 58662 59249 60230 55406 54777 53583 60313 57681 7964 508 8074 5355 9006 7930 9093 7299 11187 8215 19283 11132 9282 6256 12236 12732 1772 4351 10380 11562 10883 8659 8206 11444 11258 9704 11003 9585 11471 9544 12739 11983 8010 2728 10812 10618 15798 3518 9886 9649 59728 48487 62165 63222 56882 55036 55382 56906 57566 59055 56919 56449 55843 54035 57211 54968 60584 57114 58756 57690 59067 57310 56964 61587 52388 51821 56805 61090 64153 62967 56518 56045 57473 56181 51994 53562 61329 58500 53181 58055 56846 58905 60512 51928 63648 57383 52217 53158 56338 55706 57010 58172 51693 57104 56310 54830 51387 49878 58982 55960 55345 57643 55486 51480 65437 57336 59324 58912 57350 58450 58151 57044 60332 54951 61734 62558 51951 64872 59081 64372 54798 60497 55264 51072 54264 58472 57927 0
57980 58913 56637 56062 56965 55855 56774 53447 55705 51482 59272 58139 54255 58511 57995 58905 60424 48269 54843 53998 55108 53382 55350 54782 55405 55887 54642 54176 58309 57752 57878 57373 57237 55484 56258 53842 54508 61243 53030 61245 54345 55299 53286 55400 54971 56487 55106 56669 49164 51443 56197 56681 51043 59455 65535 57294 53671 55200 61359 51351 54836 52719 55622 58681 57586 53868 54486 56833 60088 58640 44048 52549 57410 55761 61299 52539 57402 57028 51605 56212 57463 62234 51192 56084 55748 59187 56331 60218 56171 59790 62468 65313 58720 56845 52320 56917 54132 60793 57193 58024 65535 58534 58230 53118 54446 61012 53461 58324 52222 56567 59814 60024 9339 0 8851 9897 2929 6213 10737 7984 65535 15724 13737 7838 12962 7412 10512 5418 13920 12599 11071 3065 16113 19342 4788 3956 4395 9186 11134 5559 14996 13321 7959 9889 3461 8555 6204 10285 5981 9476 5284 6941 57590 48010 55822 58991 60233 52273 58446 0 57600 65535 54831 59060 60518 61167 56687 57420 55480 59712 58842 65535 51208 61255 59083 53788 54358 53423 53370 57536 55634 56268 52922 55201 55809 53612 53353 53577 65535 58962 65535 55534 51752 58925 53969 0 54311 55408 58430 57488 53841 52697 61357 54896 58320 58969 55216 57280 56326 56636 60608 48610 54685 53429 49766 53115 55739 59755 53054 56771 53635 64993 51898 54114 55542 50577 54186 52589 60442 58361 55361 53786 57391 53370 58704 53597 60678 0 54879 62969
52931 51594 58942 56595 60226 61648 62667 51980 56254 57020 57417 56703 55286 58725 54890 57959 54096 54306 54709 56796 59777 53503 55283 64278 62352 50625 49205 57013 57243 58210 62933 51522 57993 53150 53294 63670 60330 61364 53980 61932 60629 58684 60031 56039 61399 62471 59297 58663 52628 59880 55246 0 59290 55997 53411 53254 58486 52199 65535 58944 56373 59677 52572 49282 52284 0 50745 51989 57603 53718 51377 58146 53506 55422 62018 58441 53242 54740 57321 57876 57378 56343 58543 58116 55308 59532 56037 58456 51196 59211 54309 56680 54890 53993 54525 54524 54222 56587 53660 62404 53127 58112 54629 57867 55728 58721 52943 62318 51677 56361 55210 58658 10798 5846 14188 10137 4036 7630 9899 8523 5570 3126 15571 8529 5035 10246 7257 12146 10612 10234 5491 12748 4245 6716 3528 4908 12684 11086 7420 8392 8647 4401 5297 8195 9088 6248 4363 13311 6781 9541 8744 4316 51472 56396 52905 0 57113 56528 55141 65535 52964 55837 56082 62230 0 52445 57895 60196 58440 50509 56918 55263 50633 52231 57293 57128 60508 57560 49964 62190 56175 52819 60460 55192 55736 63331 54138 58767 53715 59643 52960 54773 56914 57034 56188 59496 54058 53939 56219 54529 54973 59562 59704 56597 57096 56700 52593 53674 0 53881 55616 58401 53068 52681 58223 56502 56119 52199 55594 65535 55421 59336 57461 60979 53991 49709 55979 57672 55062 49271 53286 56748 55391 50665 57855 56822 51853 59102 51961 56778
52208 61596 56131 57825 54904 58941 52560 54206 53410 50029 52740 49943 58948 60728 50762 56507 56568 53328 58268 53683 59945 57170 54996 51990 53007 58263 0 54067 52256 60717 59904 55875 48909 59850 54968 51848 60745 56081 57665 58515 65535 60963 56086 56918 61648 52224 52004 54959 59513 48578 58286 53677 62630 58700 50575 47990 57922 62612 51843 53729 55210 51860 51736 60846 48803 60746 56719 55641 60054 52221 59322 55468 55530 58719 52862 55470 54102 60221 55008 52719 54421 0 47693 52388 63661 57128 54579 54115 58415 61859 55634 53947 54608 50618 57200 55733 53094 56727 57493 55204 60479 52990 55520 48213 60308 60746 59789 53405 59150 55839 52955 51022 7841 4057 12260 13720 13705 1631 14175 7254 12949 65535 3593 11218 12662 6059 14678 3450 9936 65535 10067 3929 6671 8225 8364 7682 4963 10148 13251 10090 8225 12351 12266 5010 8381 12081 13943 11822 8868 7330 5843 11160 57160 58312 48412 49668 52885 63012 56516 65535 51820 54344 55298 55174 58210 53872 58172 52086 55547 51913 54754 62117 55019 49747 58974 58287 52734 48642 58590 54279 64088 55663 57370 51776 55980 54410 55882 56980 51987 59306 61217 57749 61248 60423 53625 53593 61532 52503 57509 54678 54259 54700 60193 51613 56922 55279 55173 55200 57629 56480 54250 54941 57350 54673 60681 61618 58391 62714 56631 54973 55436 51496 60570 56177 57483 57321 65494 57444 60266 59846 57149 60304 57399 54930 53960 58321 57366 62606 55568 58106
56548 55012 60679 57568 54782 55359 55209 58901 55161 53888 54883 52611 55982 47314 59433 60355 57704 54563 56979 58125 61159 58535 52152 57887 59766 65535 58706 55991 48545 55870 55591 61622 59896 55747 53537 60445 58224 58747 54779 57716 51046 57552 57944 60507 55202 62762 53731 60779 63922 53430 55258 63491 60899 62138 52746 57911 56804 53910 65535 49235 55134 59252 56520 54268 56706 59440 58334 57074 50847 59801 54310 56335 51162 57242 55701 56889 55363 58723 61406 51146 55795 55039 56628 57523 56696 59242 50408 55080 64495 57963 63744 58707 61119 54453 59723 52602 57232 58302 56251 56845 57012 56483 50451 56226 60053 53498 53212 52504 56577 54571 58463 52631 18624 8968 2976 9055 5957 6017 7288 9789 8229 11539 10859 7183 10771 10704 9684 14053 14649 5539 11225 9718 10712 9914 10263 5646 11987 7501 9818 0 13252 9828 4042 10830 9701 9271 5228 15753 12867 9781 7486 5480 55649 56900 57314 58179 55163 57022 56518 59953 53988 54037 56000 58287 56322 59962 55966 62646 65535 57232 57929 53493 56473 62285 54056 58343 60189 57218 54138 56934 55825 52301 60626 61954 57791 52593 52681 59015 59571 63689 56677 54849 58763 55385 59132 57727 51047 56644 58266 55587 62706 61715 59487 56290 54903 61189 59060 61140 55424 55838 53749 49315 56198 60890 0 54864 53341 54188 58260 58424 53974 55124 55026 63750 55916 55107 57429 49679 51146 50177 58546 64958 0 64983 61024 54762 62496 56819 63259 55914
56929 55807 57783 59539 59232 52356 50838 48103 63707 61371 63347 55229 59305 56324 55630 46875 53296 59912 54027 55015 53296 58583 63156 52169 51879 52332 56359 50119 54249 50206 57948 52768 58681 52501 58313 53059 59787 48837 52786 54433 62914 63745 65535 60559 56411 63042 58001 59988 58672 53216 59715 62574 59931 55712 50913 58176 53855 0 59812 56391 49981 65535 59402 55249 57060 53448 53042 57580 56516 51942 59671 57486 56461 54086 56480 61249 62602 53583 53761 50499 55609 55376 59907 58669 52825 55558 54718 57915 59502 54998 61454 63081 49359 49320 56011 50303 54066 53113 50414 58659 59127 53931 56972 54267 52400 59578 58172 50529 57211 57481 55948 58435 14416 9533 9533 7964 3829 6742 1479 10837 10135 9203 6951 10919 0 6782 7648 10233 15317 12299 11393 7342 7749 12129 3850 14500 13652 10832 11168 14502 10261 13348 7276 3097 6708 13289 13712 10798 6977 6826 5800 13877 55554 59317 55848 59212 61629 57220 65535 58984 52726 59937 60236 56511 51285 56978 50295 53250 58719 53338 45652 52345 54862 55312 53680 60643 58455 56689 50156 55797 54431 65535 65535 56065 60977 55811 55485 50011 54104 53943 55300 55497 56325 53546 59137 59703 60248 49919 56580 54018 57584 55641 59392 60475 56490 53278 61456 50367 62973 55338 55646 59502 58978 55957 58761 58457 55499 63075 58602 57960 55884 57102 62070 47681 56439 0 51494 57503 56631 51535 54941 57889 58748 57489 54781 62064 55447 56104 60573 56034
58801 60745 53106 53139 59375 55900 61958 57284 56792 64917 54309 54549 56490 55063 56714 59506 57175 55065 60883 55085 51953 58883 54628 57135 63725 53893 58435 56584 60061 54450 54497 56168 57023 58796 62128 57835 55913 60009 57223 55747 58494 58192 65535 0 52765 59066 59879 54390 49072 51475 52843 62643 52532 54351 61706 54628 56645 51007 60087 59732 50479 59971 57445 54487 57309 56925 52998 65535 0 57071 53414 53378 55428 57494 65535 50195 53861 51135 54767 56702 51063 51021 54594 59114 59424 56084 56612 61843 55604 52265 56179 51853 61546 58902 55726 53092 56901 61980 55279 57871 58127 53656 56846 61435 55717 52591 58195 55121 56453 54320 56341 57003 14226 12251 6769 9949 6599 4203 11715 11739 2602 7098 11503 9839 4396 5923 6980 4826 12569 11580 6880 5798 9994 15562 9335 10179 10661 6299 9026 6846 7060 7085 15893 7374 11167 11721 4719 7983 6991 9049 4514 8395 53762 60013 56117 55985 53208 64996 54093 55699 57341 58252 57307 57804 57191 53779 54251 61039 59388 55129 54139 57521 57570 55302 52112 60794 54508 59205 55374 53226 60085 52047 54364 53156 60720 56819 52895 57962 54882 54864 52716 60243 51424 60372 59420 57742 57176 58629 50252 60403 58678 56126 55459 61162 56443 58989 55523 60373 64518 55985 62630 55569 57087 59844 63023 55445 55433 61331 62582 56739 54288 58108 56210 55659 58555 54873 58802 56429 52249 57569 65535 57021 54581 59278 56462 53949 54321 62929 63884 57840
52775 54787 63980 55066 54800 56523 56664 58226 55050 55315 57777 59336 55654 57116 54568 54820 55920 59224 58308 53866 55868 52927 61219 65535 63916 60116 58586 51679 57826 59664 60496 53337 59649 58717 55645 62069 51700 52424 59464 59818 52372 53760 48389 55580 53428 58703 58444 57186 53558 61658 62777 55937 55684 51168 53718 56103 48964 52343 50026 51651 53789 54594 58272 58147 56958 55704 53935 59724 57121 55408 53787 55376 60104 55180 51362 51860 50725 59622 57619 49405 60539 53992 54896 62127 56631 59032 62093 55876 61281 53882 60323 56225 55679 57809 53353 56153 56918 55006 53895 58860 60231 59219 50111 58755 54267 51440 58370 51192 57508 58214 62476 49109 9839 3960 8046 8546 9714 9522 7344 8471 13627 3562 6572 5384 9386 14044 2652 6430 10038 8845 2721 10896 4804 13694 16301 922 9989 6855 0 12951 10831 5699 4653 12070 8870 2555 11662 7425 0 11522 4583 7051 58598 54233 56302 60397 52998 61342 54834 65535 57800 57961 57079 59028 46777 62423 49917 59240 56640 61054 51828 57489 56883 50546 54705 59618 65535 58722 58489 61645 59073 57270 60943 49063 54376 54953 59610 57106 55991 53578 53281 53889 65535 52915 54364 56095 57466 62633 54500 62190 51763 65535 58761 49707 58054 0 57421 63340 57522 53475 59776 60790 60401 53769 49389 52666 58370 58791 51473 55658 56031 64260 62188 55386 65535 57077 59049 56100 54985 56966 50960 56615 65535 58824 55515 49012 54240 57587 61019 65053
51994 54254 55241 58454 60082 60446 54310 0 59754 56401 53509 51688 54276 58553 59993 55049 55457 57708 61463 55900 0 53509 56570 56689 55635 59956 59730 51212 54072 59946 0 51912 56709 53629 54707 52431 53922 55317 52814 56018 58872 56899 52277 50974 58214 58683 65535 57069 53470 54849 54967 61343 58660 52253 65535 63280 51037 55575 56312 57656 54926 57357 59154 55404 57574 57009 0 52184 50849 54482 0 62563 47803 50984 54762 61984 61187 59359 61850 57652 52216 56082 54040 53925 59700 60982 50412 59970 54969 55779 59825 54681 54981 51557 59768 57047 53133 59078 55897 57662 50971 61875 58419 58667 57283 54593 60909 52688 60212 52596 0 58103 7225 10123 10167 5621 10077 9990 7052 14598 65535 6580 14749 11963 5655 7762 10306 13158 6965 7061 9847 9892 14585 14978 9204 7046 6597 15636 4994 5905 8851 9738 6155 12717 15214 9392 8356 12959 7935 5622 936 4593 57311 58371 55938 61094 56747 56331 59453 58452 59654 59266 53450 56830 55602 52816 58212 0 59256 61910 62644 59208 57077 61108 54863 62006 63531 56426 61212 60171 60166 62662 56700 56670 56092 54007 56356 53402 59636 53485 55355 60018 61802 52499 56138 48598 54409 56781 55840 55509 61351 61061 50560 52798 50228 60607 52149 55358 62336 55478 50167 55813 55750 50814 54674 55627 54912 60566 57371 51970 55268 56838 54368 54741 55856 61549 0 62579 54999 52094 60365 52329 49393 63240 57268 53351 59706 58923 55579 65535
60641 53242 55897 56467 57686 48267 53400 63099 53205 53837 56375 57756 58320 62000 55836 62641 54963 56564 58232 59173 53656 57492 60742 61435 59950 65535 55511 58846 51003 57599 60219 52667 54219 55915 51602 57671 51053 61059 60407 57864 53585 56384 54404 57814 57005 56267 60352 54863 53263 58306 54345 54516 60770 54277 57279 51992 52029 57503 58276 55516 60073 58765 51341 65372 55631 51980 56993 62807 0 48838 57696 54367 53008 57281 54670 51853 53229 55295 58831 57152 62011 56746 54203 60082 52754 52427 58241 59411 62416 61917 51012 57323 55507 51827 56384 58257 57936 62091 54263 54543 50854 56440 57865 57411 62325 57650 53843 63406 65535 53738 58490 53339 14583 9324 9108 9393 8538 5833 5906 7655 6376 11200 12039 5412 4085 8654 11979 8658 65535 13193 13791 9612 9156 13308 6399 10409 13261 8082 6223 8478 4813 15736 4637 14019 14136 12283 8372 16786 7883 7301 5467 7064 52173 55187 63743 0 59980 51802 59992 56171 59359 58784 65535 59426 52851 55861 56162 56113 60071 55979 57029 45291 55257 55457 53280 59320 57260 56686 64135 50418 51539 55775 53318 49954 57070 61628 57781 60728 50638 54880 54608 54061 50180 59597 58552 56861 65535 59024 57136 57040 54512 58035 57521 49729 52097 56298 52410 55344 55405 57110 52860 56528 51206 54730 50287 56698 60357 50745 58081 65325 52404 54186 53477 53908 51377 0 54516 56466 54673 50564 57435 0 57342 57478 58262 65535 54224 57912 55969 58754
58886 63503 55239 53154 52088 49857 62611 58533 62465 61978 55860 56763 55162 54188 54558 62341 54873 52189 58198 58442 65535 52840 52433 55491 0 58946 56723 54629 51419 55099 49004 55742 54681 50747 51584 53061 52134 52839 63404 55576 56200 52670 62689 53646 54116 59695 54518 59823 51670 62676 58266 56125 62916 58264 54909 60275 63337 52940 61324 56482 60926 60591 55159 55237 65535 56671 53340 56639 54466 58163 56155 58347 61385 56981 56776 58954 58255 60242 58942 60890 51352 54456 60890 54269 55999 57246 59728 53458 53622 62488 53201 51172 57997 60862 49852 58840 51545 56718 58118 51819 56478 58955 54022 52337 58469 62159 62790 60451 46771 59388 51827 50427 6974 9386 14269 5317 6122 0 4379 6899 11933 4668 11163 4792 6876 13586 10058 6364 11695 10832 0 2446 5551 7095 9716 12347 6100 10797 10890 11729 9659 9365 7059 2943 7204 11908 1095 12894 11927 6431 10147 9971 61082 57110 53867 57785 57025 56325 56139 55504 60590 61447 58211 53003 50990 58881 54793 53195 56314 59797 55994 54566 49202 53789 63829 57361 48432 60353 60493 65535 58358 61373 56906 55364 55704 54676 65535 62864 60272 58984 52359 56740 57909 54880 57805 54613 57261 59108 60841 53302 59702 54061 57417 51901 57694 57847 49390 51610 63199 58896 57229 61375 0 60076 60632 64494 55852 53864 58788 61627 57559 55256 53207 0 53280 52592 58372 58050 56371 56385 60586 51552 52242 51838 53602 59063 60625 60047 53742 57732
53578 56552 54385 59850 50116 57912 54360 56742 55126 54820 63860 58537 53037 56248 63185 51184 55756 61601 60465 59587 61763 58760 57228 58752 54861 62959 56649 60692 54567 53702 56220 59052 58960 52721 53859 56667 62095 60697 55741 51215 58489 55351 55138 58496 58095 53392 50825 53115 50823 0 59139 65133 60238 0 52583 53933 55375 59053 52411 57080 58769 51759 64162 59608 58367 56044 56383 55152 55563 55989 56036 54094 6778 10222 5479 2561 8203 8347 5851 6068 11502 9657 11598 9876 7638 11736 9649 0 2221 65535 13151 6864 12019 10356 12249 14530 11449 7402 16795 15014 5580 12815 5461 9126 9095 10580 10206 13503 3142 10838 8070 2269 12206 5624 648 9752 2898 13545 9941 10130 12964 5582 4231 7417 8718 3652 15196 9619 12075 6682 7384 9213 5516 14954 8414 9583 8429 9505 6137 12119 11783 11577 15388 7805 10182 6889 11218 11497 7974 9546 7738 13947 60726 59685 51164 60399 60012 60596 54068 54973 55593 52688 59537 53752 61646 47796 59815 61999 55753 55348 62281 58527 53472 52030 58063 51135 59563 63383 56084 62831 56669 54437 54504 56356 54082 59060 56338 50959 61059 56783 56990 60901 60886 58244 57626 59511 57565 57880 48036 56787 57592 55317 56532 58038 57997 47669 53058 57839 54750 57951 55173 60398 54014 59293 58990 51753 49308 58059 57903 60446 58235 49423 54941 55996 55150 58632 62971 52840 58695 55813 52332 59283 54226 55864 52185 57797 54361 55699 58011 55733
61216 56194 57046 57592 50829 57499 53665 51873 54197 60911 58060 55982 52601 65535 60926 54836 52591 59908 55669 58463 57332 55834 56862 60352 58555 55628 56210 52182 57272 49725 64666 59872 55857 65535 56177 54042 51631 55693 55313 56087 59326 56419 56338 56467 60248 55730 57726 61955 56805 57878 55930 58020 55194 54480 56805 54955 56082 56902 55874 57293 55892 57559 54489 57813 56379 58344 49103 53961 54146 55813 56812 56678 9033 15563 2627 13535 18123 7662 11752 7041 4109 10583 7471 10981 11032 7465 7120 0 17325 3845 9496 10776 9465 14467 10986 8632 13072 9766 4882 10467 13127 4100 9513 12314 6314 9148 9691 7304 11427 8422 6035 11069 8241 7410 6360 4493 9438 10071 16250 10510 11820 17502 12187 18336 9253 9656 0 10958 11291 9059 10837 6084 6589 11687 2725 11978 11099 4543 9781 12594 13023 12444 6147 11513 12643 15093 11010 9979 4220 2348 4608 13426 58637 54592 61889 57180 0 57036 65535 57542 57494 58991 57904 55050 55495 60839 56284 57109 57886 56908 53471 56626 60583 56856 55620 56062 57128 54784 57417 55633 56152 44574 59602 54983 56919 59465 56423 55339 56704 52918 55848 57021 50799 56601 61315 56177 54996 60785 56191 53789 55998 57163 61159 50880 50330 58478 57595 55266 56092 55327 54556 54063 61157 51871 56551 54729 58840 53179 63962 51251 55077 0 50737 65255 55938 55691 51554 51964 64211 57934 58179 56281 59267 57329 56181 56717 55782 56596 0 54762
59859 51538 50438 58287 60183 58120 52618 65535 63169 56766 57432 54927 62692 50829 53243 55733 63540 0 59996 64602 54628 64733 55589 58024 56578 55107 61805 62009 55022 54846 56404 51228 52148 54082 57727 54784 54183 58063 59414 53111 59784 58892 54825 55587 59371 58616 54648 58356 56474 63037 53218 53924 49537 59681 51916 51228 54217 58029 52823 59465 61840 59345 52590 52641 55996 51280 55102 55222 59143 55615 55825 55752 12713 2485 7240 10775 7907 9174 6724 0 13491 1736 14156 8684 65535 9604 8857 10983 14870 9073 7764 11969 17515 65535 3095 14652 14636 8222 65535 12860 16080 5819 8864 0 6838 10255 5139 6968 3754 6090 5921 8573 10132 1400 11380 12772 7211 10212 9160 13371 9960 13157 7671 7643 11296 6555 14594 13686 6664 7953 11533 7441 6024 11734 6436 15061 2642 7685 11660 4700 8177 5642 7149 8362 9089 10277 7842 9761 14945 13750 4619 10424 57548 54065 55843 55430 54400 54353 56484 57185 56881 60935 58510 61754 60279 59079 44065 57309 56507 49555 52186 57931 58249 56765 60617 58120 57016 57385 56488 54941 56406 57115 51693 54634 55925 61470 65535 58444 55427 54318 51248 50516 58052 50028 54253 59429 51081 64821 59999 0 60917 58459 59447 53690 53725 57507 65535 56938 63567 61575 64561 0 56897 60303 54195 54149 65535 53928 60205 55006 58597 59968 57298 58983 54099 57543 58553 57160 61070 53923 59974 65535 51912 59081 51170 63199 56542 57549 56087 57554
57042 62757 56271 54285 59031 52790 52745 53059 55679 53531 50220 55658 58614 56973 58044 52405 49165 59489 60977 55356 59225 54664 53188 65535 60890 61968 52874 53556 51938 65351 56392 55417 54406 63662 60612 57502 57725 65368 59706 57309 50724 55026 58603 51699 43484 62469 65535 58044 56241 61795 47504 61803 51394 50535 56925 0 60709 51635 55961 62925 56899 49014 58441 49464 57396 52459 53207 60281 60874 59145 54690 56437 5320 10893 12279 9897 6522 18589 4123 12846 14866 4288 5895 6679 5674 12527 12827 1657 5853 65535 5271 3133 16107 15912 8722 6726 9560 9240 10082 7858 7519 1492 11876 10006 7168 9128 2946 13471 11995 8841 11270 0 7210 11822 10620 16051 10746 7978 5718 11910 15008 12278 10380 5233 15795 8357 9827 15340 5983 6081 11274 4510 10795 10490 10846 5095 6928 8552 11545 7996 12128 8120 6451 8739 8291 5135 6306 9752 8738 14717 65535 4643 55507 52986 54252 53846 52379 52508 56260 48942 57209 50950 61900 57335 59946 51572 56676 59279 52331 49067 57220 56461 58855 54648 54540 60133 56212 53259 58715 65535 56969 63049 59131 51921 60324 53258 55462 57659 60084 58462 51656 53940 52241 60489 62832 61338 55912 52814 51461 54463 62987 56995 53096 61432 58053 60825 53181 56498 55266 54224 51465 51341 49759 58696 62892 54929 53479 53525 54708 59402 54619 53864 53043 48188 61791 58616 57560 62253 57983 56961 57634 52210 61233 55082 51835 59110 55883 53784 53205 56066
0 58974 61466 65535 54956 54422 56468 53777 54571 58585 59026 59687 58814 57305 59434 56989 55933 61172 53648 62004 59459 59759 57061 58070 55357 57103 57164 53430 60833 56485 53546 56049 55438 56066 53643 54473 54785 57802 55735 60102 57734 58380 50623 56448 50490 57886 56594 52934 53472 49959 53305 56399 56775 59009 55435 54248 65535 56850 55434 59848 62125 0 0 59003 53140 55167 55844 0 51243 58697 55939 54647 1268 65535 6986 11388 15437 6567 0 8822 9856 10045 13478 2217 7449 7469 14123 11628 11905 8664 4296 8511 8901 1644 7981 7103 9471 0 6726 3424 11828 15536 7445 3693 5831 8185 9471 8918 3302 7892 8771 4165 11076 7086 7993 261 7115 6245 9336 13449 7298 10504 6104 2169 13841 7658 11161 5208 7425 12597 9300 12360 7922 12859 12257 6380 782 5019 14998 6722 11853 6380 7363 12444 4512 13551 8780 6954 5976 5656 9191 10864 56998 64556 60659 59640 50588 53914 56264 56287 57609 57450 59202 59909 58742 51505 56786 49920 57583 57044 57893 58164 55040 55238 56337 62758 62360 53602 55762 56979 58407 55897 55031 0 56363 58778 57549 61999 61245 58276 54501 58657 54148 62110 56902 55631 57657 54893 55669 60919 56807 59916 58348 54353 56866 62482 57454 58338 53866 52145 51857 60041 58871 54252 55289 57209 50047 56781 55708 51602 0 61411 61012 58198 65535 56206 50024 65038 57391 53372 57279 59264 55430 65535 55922 48819 65535 58868 59970 59514
47062 53568 55858 58620 53366 60371 64836 55835 51281 57377 57859 55051 58146 55230 57300 53705 58716 55011 58106 53355 59032 55387 50668 55505 61285 55925 54274 50836 65535 62049 56548 53090 61160 53591 58448 60165 61478 58217 58627 53576 54292 57808 61851 54456 55459 53505 63507 59361 52974 52820 58140 57269 52234 56293 60551 53542 53911 54007 53801 65535 51056 61357 60699 54102 53272 54574 54551 63432 47944 56563 60286 49879 9186 13586 12791 4832 10260 6746 8509 14537 9682 7663 65535 9118 0 8590 7872 9481 9539 10055 5500 6644 11295 13233 7968 11183 12794 7877 7914 18894 9006 13719 65535 15116 10065 5644 6815 15309 4306 14288 7124 11477 9349 11956 5985 7300 8114 9091 5815 9222 9687 6586 6314 17543 12434 3482 3227 11350 7878 4380 8933 14787 10925 13628 5759 8158 8237 9216 4469 4223 6240 9605 11256 6478 9058 10751 0 6697 6521 6189 9926 6479 57737 57620 53010 58560 56710 64921 54376 51178 53995 47731 57907 63358 61794 54045 54627 65435 60154 53296 57228 61704 0 57206 51373 0 56932 58379 54543 57411 59735 48400 57229 55385 61046 53585 58865 57640 49117 59895 55721 53208 60216 56834 52666 52387 58135 60197 54543 58882 57728 56468 58835 54722 54712 59572 65535 56010 51648 58942 56519 56085 57723 59428 61884 53048 55068 52666 59672 53419 52944 57056 52967 55658 60483 54262 58763 52560 59847 56234 54044 56555 60653 56851 59933 54434 56069 51006 53334 63274
55700 59697 52532 52077 56590 56639 62976 0 58956 62953 56186 54568 53052 54317 53137 56943 54859 52322 65535 51897 59004 58088 55929 51564 57747 56004 59069 53594 57280 57037 55510 55489 58229 55187 52363 48093 54894 57022 58969 50861 59360 61964 51874 57714 52884 54013 56800 0 54148 59251 51452 51145 59568 0 52925 56275 62588 60084 53587 57579 58748 58718 53122 56358 54953 58741 57646 56781 55676 57155 50084 52900 2520 5422 4430 6324 4944 10828 10699 8604 11435 5717 2387 9218 9494 7921 922 4168 12005 13059 7467 12268 7237 65535 9792 16002 11545 13897 10450 14501 6490 13497 12694 12725 7815 8142 2824 11155 3906 10647 9721 9777 15988 9817 3112 11609 5905 9795 10680 4326 11163 9517 13777 10544 11988 5229 10420 8648 5049 10812 11249 8717 8239 10617 8464 7602 9306 10650 8902 6368 12602 8282 15978 14202 6105 8986 5136 9322 4603 9368 10760 5830 59961 52388 64713 51854 54501 56902 61199 53707 57484 58560 64812 59359 53870 54801 56339 61223 54979 58741 61062 62699 56228 65535 56038 60528 54325 52236 54606 58646 63003 53142 58907 57440 54699 0 56403 56819 57961 55606 50332 60229 53039 56150 53395 61353 56124 55043 51223 54829 55145 58448 0 49506 58505 58206 50782 50003 58134 55911 56931 62062 54516 52568 57781 63145 53314 53766 57008 49678 52717 65535 57756 55342 56145 51084 58400 55008 57536 54685 52548 57374 49782 57728 57648 56142 56448 59687 54307 55439
51673 56801 56050 56681 53510 55265 51200 53351 56040 55759 56031 54978 62702 55169 54961 58515 53347 58375 60451 50031 54848 57385 56596 53668 52035 50565 57763 53589 56430 60662 57033 61342 51073 58772 58131 53077 51979 55000 57710 50061 56429 50488 54933 56935 57102 58544 53457 54826 56601 53165 0 53478 49271 65535 62124 58645 56140 52043 56876 57229 56278 55327 54438 57432 53514 59774 55174 59108 53710 54719 53793 56807 8255 7320 0 14278 6068 8768 8790 9990 9421 14115 9907 4724 12693 12162 12141 13280 8630 13079 5220 12645 0 7752 5482 5034 11824 10128 15136 4877 6446 12600 5410 65535 8449 9163 9616 9822 15608 7832 6653 7666 478 10115 9269 5942 12778 0 7673 5357 8619 8608 11489 11949 5337 10506 8886 10711 0 14404 13266 10082 5844 65535 12901 8816 11075 15613 7334 12369 10729 10104 5942 7464 8187 7517 6180 269 10072 10146 7767 8521 49694 55099 61107 58461 53624 55097 61154 50853 56040 51754 52313 54533 55283 57158 55121 55712 55413 53083 62706 60194 54552 55810 56802 0 59250 52995 61140 61843 56962 49020 59087 57429 55036 54616 55884 52222 61116 58217 54439 55460 57707 62113 56199 53177 58249 58265 54486 47800 57754 56058 64848 55902 51925 61169 54000 54921 65535 54758 51301 51725 61670 49946 60716 65535 50586 59212 51068 55056 55990 58065 60081 53490 63519 59340 57850 59353 57348 56422 52878 56007 58004 57513 55440 54297 55133 61059 63807 54803
55544 58508 53240 55723 57490 55613 56397 53324 52541 52389 63324 53921 58263 55583 53372 48311 56506 57216 57672 48754 59785 55713 54759 55038 57437 48574 55287 62814 58181 58812 56703 58604 13526 7780 3599 8888 11579 11034 6774 12513 11484 8476 7973 8343 8607 11533 2339 7720 11175 5992 3153 13748 11025 10012 6174 10082 9306 10269 15630 8876 13514 5313 5816 17250 10717 5970 7833 11370 17107 5023 6188 13224 10489 10651 6779 5218 4870 7031 10732 11289 7051 10758 6659 2741 9279 5967 5159 4878 6734 10106 8135 6591 10067 13223 8770 4970 3039 7309 3816 14611 9150 13055 9326 16555 7499 8656 9574 5267 8825 19770 9974 7797 7323 5689 7073 10747 10675 7385 9021 0 11577 4672 0 8804 12168 6099 12361 10522 7800 7616 10942 11330 6416 4310 9774 12301 8414 10652 9879 12900 3073 9243 3021 5669 65535 2460 5813 4155 2436 9581 12261 5248 50361 55148 51516 58913 59574 55518 51762 57936 0 58433 56539 65279 55487 55400 50118 61309 65535 51653 53266 56796 52458 57157 55927 57003 56957 57829 56880 57275 59979 46890 53961 57338 55346 55154 0 53075 65535 58328 54735 59811 60687 53652 60614 59622 59780 50907 61203 53910 55564 61861 56448 52982 59921 58907 57765 62978 56409 58066 53899 59225 57033 53709 56367 57864 51313 51743 56559 56806 62012 59502 59011 53225 57415 56893 0 57740 52690 56068 60387 63092 60780 62867 55249 61143 57380 54902 53066 56743
57315 47704 55175 59513 61744 50820 54377 58917 54710 58391 57354 55858 52791 60625 65535 58421 48869 57245 62532 58111 56710 55285 57055 62328 52882 58372 52208 59778 65535 47964 55366 55594 11028 2568 8063 8382 10764 7150 12968 6528 14989 7655 8492 11028 12322 7807 9031 9676 7994 6215 9431 12514 10205 12490 65535 7279 9462 2659 9666 7491 6383 15078 6784 17727 8738 10838 13452 11428 16361 9745 8202 8278 9937 11669 3088 6428 10520 9764 8213 6582 0 9318 11101 13069 15024 65535 8075 14044 8328 5073 10307 65535 10868 7659 8774 5530 11738 6762 11059 8518 8493 0 11633 5961 4528 9426 6148 9414 7754 9345 8759 8771 3960 5811 9549 11488 9687 10881 11031 13530 13329 4144 6562 6253 13761 3541 6833 3781 4040 5805 7272 15036 15710 15119 4216 2460 8434 7096 13297 7965 7501 14112 4317 8825 6458 11130 14961 16562 8481 13198 11106 5053 58289 49522 57090 57634 57367 56198 61272 54468 57065 65535 46939 55689 58112 62172 60094 58856 56789 58739 60037 0 58712 55449 57163 60609 60519 58326 0 58869 56194 54674 54637 56330 59463 59304 62383 55209 59466 57382 45727 59270 62123 51009 62237 55240 54262 54301 56457 58589 56627 57918 51935 51535 53524 61510 54845 59395 57208 65535 58860 59304 60088 56290 55953 59030 56607 57611 57774 57284 59996 52025 54238 53872 55201 59846 60297 56828 56306 59631 50514 52915 53710 56914 56386 55388 63102 56751 55546 52229
56030 58856 52846 59919 55526 58513 51164 57635 62098 60287 59946 56560 53184 65535 55341 55158 54658 55710 60693 53667 56119 57330 63474 57339 57496 58681 57724 60116 54908 58813 57921 52648 14486 9100 6922 6311 11315 2914 4228 9207 6880 14610 5797 7170 7820 11500 2670 7625 6064 8961 13743 13546 0 9967 9795 10351 9310 7572 2514 15605 6767 6933 9573 10518 7095 4325 6291 7897 10452 7618 14986 6905 4128 12425 65535 9676 8899 0 6852 6076 5277 8039 14142 6297 9351 7810 12653 7042 5298 17505 16662 7651 14567 7870 11033 7631 5657 8278 7797 4995 6409 10316 5607 9324 9340 4139 6535 13623 7581 5636 17647 13065 7896 9972 2428 7729 10971 12335 5142 5884 14493 7644 9158 9839 6073 11883 10071 8511 6289 3376 9566 16479 6457 9070 14823 17177 15714 11739 9634 4968 9114 15291 10480 6433 8342 5710 4928 5854 17301 9710 13526 8887 58741 59957 60863 55661 53893 51064 61625 55473 54519 54835 55445 62113 49644 57187 62539 61483 60003 59288 55514 51128 58573 50905 56981 60911 53454 64506 59618 60251 46397 50161 52057 62166 52222 56973 0 53022 55019 58951 57488 59713 56976 52023 60953 55204 59358 56241 57859 61327 54138 62187 54059 53814 62357 57860 63071 57081 55062 52901 58794 58939 51255 0 52799 57436 57536 56735 56068 56192 57009 60820 55753 50030 62131 63274 61163 61095 53152 53034 53528 57493 58582 58900 51463 59563 53499 57727 0 58178
53855 55657 50938 59872 55083 61752 56665 62263 62715 54815 59453 55689 55548 56959 65535 59578 58236 53422 53170 55931 50654 57170 58276 61346 62285 62231 63080 60548 52816 57809 47566 54672 11579 7617 6065 7119 7585 8493 12311 10385 10408 11802 8343 7259 7113 13003 8435 9588 7437 13912 13682 2618 11295 8955 8077 2048 8479 12985 10903 0 8374 9405 14292 6697 6185 15722 10951 5423 9846 12071 9427 9465 12470 7732 5845 12281 9461 4112 9950 7933 8836 7125 8061 12215 12340 6077 11806 8516 6332 13513 8832 19078 11268 9627 4630 9283 8593 1297 12226 9046 12845 7617 8741 3891 65535 8162 8277 10392 10680 15235 6119 9098 8739 10072 10464 6667 4740 10346 10578 10276 2998 11343 8140 10161 12038 10154 10714 13971 9139 7669 5736 6809 10288 9294 11622 13742 10951 65535 18291 12388 8492 11193 9785 8274 8109 11178 11574 9312 13242 10489 11217 1959 59395 55933 61930 54808 65535 62615 52501 57058 54032 52393 62011 57497 56742 51170 53175 54270 59688 57284 61682 62932 59111 58144 57818 55590 57046 59561 61359 54960 60693 54706 60817 63811 56385 56341 57618 50398 61937 58216 55311 51043 54636 62251 52256 53583 55994 58341 64817 59579 55455 55635 60072 56353 57274 55780 0 59990 61231 58266 63612 65535 54669 65535 52233 57523 59413 57212 55711 53752 51154 55710 60923 53911 60209 54886 52523 57334 57472 57409 53125 58987 60989 55702 0 56625 58421 58472 56326 59340
56849 54202 50622 56956 60525 0 51703 54444 54852 54811 54966 56036 58241 56917 56196 48784 54379 62288 52842 53411 59191 55165 57290 60849 54817 65535 57146 59897 57370 57008 56997 64428 7655 4014 4652 8507 5178 10559 5560 10136 11857 6146 13284 14586 12117 10068 13845 9671 4121 11817 11162 14213 3339 10131 7912 16969 11692 11529 9411 7166 8924 9224 14040 9861 14704 12904 6097 5563 0 11132 5054 9797 9425 4889 10267 9616 12930 14893 12122 3886 8741 12391 4524 6383 13284 3753 15613 4834 15493 8335 8749 12370 10615 5386 11064 6660 7889 3130 8156 10371 13491 9743 14502 6209 7676 3359 6347 5711 13797 14556 5313 7353 10656 4598 0 9420 5811 11905 10928 15423 8164 5536 9333 17837 11592 3241 11119 8726 3399 8283 11866 11041 11920 5592 9713 9598 65535 14832 8041 11271 7892 6383 3493 10093 7151 2921 6815 10306 10561 6473 11573 11011 57078 55423 55417 65535 63032 52599 56377 49078 50749 50346 56461 55149 59424 55752 51783 58076 55243 54799 61682 55017 56109 65535 52796 54832 54552 54326 54152 49697 52994 58170 54527 56121 55870 56995 57374 51669 58650 56407 54062 55761 59960 65535 54220 57970 52285 53500 54785 63960 58480 54631 55107 0 60036 52848 54088 58838 55323 51329 51050 56882 59102 54958 57267 55941 53276 56037 56680 60421 62538 0 54093 59881 64492 53860 55868 53216 52966 57342 56777 56951 57031 50509 59282 57536 47259 58010 57878 65535
60297 63630 57522 54792 57691 52984 59263 53098 60369 51338 63518 59023 56387 54067 57452 58831 54969 64244 56180 55520 58170 53993 56891 58691 52860 57616 56542 58727 58490 56485 55895 52437 7517 1856 10734 11878 2009 7213 3290 14342 6569 10843 8720 12948 11710 9319 11442 7743 14663 6614 6204 15578 5028 1665 7314 6400 11510 6658 8631 9917 6843 9711 5755 13540 12484 12608 13636 5371 9965 65535 8310 13812 0 15238 4744 16753 9175 6434 6949 65535 13131 6727 8969 10285 7337 10926 3658 9499 7331 8073 5690 5891 4853 14195 0 8985 8667 2667 8285 8806 10899 17814 9843 11805 9088 4404 13529 6829 15416 8207 6145 9219 11184 9032 5430 6451 7407 13675 13456 3456 19464 9311 10567 12656 9111 14014 11020 7468 10391 8180 7009 8792 14506 13027 7658 10764 8197 7860 15159 15312 13841 113 12646 7507 13980 4859 12974 11301 6540 4277 6950 5927 51302 58883 53530 52102 56396 58537 55914 65535 57796 57990 58220 56906 61057 56425 51141 51491 59136 51585 54799 51553 58568 55678 62594 60613 50269 49635 62545 53364 56374 51521 54736 57627 59852 55146 53946 55027 59592 55825 55660 51190 63029 59736 52427 53398 55326 0 59283 60884 56116 61930 60670 52986 54077 59680 56953 56320 50422 58074 59261 59545 55934 54692 54880 62679 52513 56737 53865 56505 57916 57195 57054 65535 61590 53282 56486 58499 65535 54444 53850 57022 46029 54011 55797 0 55587 57600 56601 60430
61263 55702 56920 55159 58660 54024 54786 58243 55362 52857 54751 57232 59808 58578 61362 58872 57332 64688 55959 52049 58200 49448 57851 61530 54649 58336 56355 50875 58024 53871 53688 59430 11830 12619 10039 5478 9199 10098 6837 9361 9332 7117 7153 5371 6918 4559 9038 8232 12677 7147 6187 7383 12441 7365 7625 11506 5809 15933 7560 3965 8846 8453 11671 6086 6608 9194 6533 8815 7288 18694 9887 5230 65535 4042 5837 7603 10408 6260 13146 7975 7661 3952 2792 10964 11987 4465 740 10216 13924 10502 12551 10281 10956 3953 9742 8026 12474 7290 9647 6963 65535 1164 10486 10551 6005 7816 9546 12165 7724 5640 9142 15312 10586 65535 10118 9338 8674 16898 10723 13483 9337 15873 15904 3056 5147 12057 9445 12553 2523 2959 8811 10479 6645 2902 11314 4880 6549 3838 11904 8962 7361 7771 8028 6889 4769 10834 16845 10728 10771 11687 11411 8379 53720 58825 59888 51005 58610 51739 56726 53325 55878 57859 55102 51136 54494 56150 51832 54164 60868 61005 54986 54522 60196 58994 57248 52380 50405 55856 56357 57303 54528 50255 50777 57417 52476 62711 49789 48819 65535 54335 55536 52068 54148 56154 60229 55908 54611 57957 53241 59836 57267 57802 57837 54204 60595 54975 61678 54076 53239 61649 60600 50534 54829 55675 52837 56127 57231 59011 53579 61269 55209 53656 63550 65535 58921 58515 62066 58353 58093 61997 53080 65535 61034 60312 53859 52451 59074 56104 54676 60381
60904 64037 54396 57765 60967 65535 54946 53859 55280 57486 57351 46956 53364 59339 49796 54291 53425 55556 55849 61789 51206 59496 53526 62241 55147 56843 64970 55340 61339 59010 52575 57275 953 5202 5733 9506 5474 10256 10926 9625 11442 6535 12016 7043 7820 11845 13553 10173 12530 7068 9569 5842 10182 9947 10693 11671 9293 16625 11056 2196 0 0 7784 5939 9709 13861 4850 15657 8710 15581 7443 0 6795 7961 4372 1214 6671 12283 7266 12841 3581 10889 6267 12273 15735 12132 15933 12730 6664 8482 5023 6410 8842 10972 6831 65535 6970 8069 12765 9696 17108 5548 10509 17288 7918 9092 0 13239 3965 6727 5705 15339 17712 11943 9021 9754 8449 12324 8474 9864 6134 0 9761 12145 9196 9818 8890 8441 5493 10486 8963 7334 7424 17186 11364 7217 7472 6483 6756 9758 13783 7348 11564 10188 65535 10670 9122 6990 14184 5311 4966 2958 54034 57406 60419 62320 44517 58373 56079 54920 57782 57439 63257 55785 56572 51726 52818 59735 59551 60259 55454 59637 61951 55147 51532 55382 58963 60066 55898 58440 60334 57458 55909 56504 55600 65535 51563 57681 59811 54841 53926 55435 58281 57166 54331 51189 60227 52169 52137 63000 59771 58305 57986 59743 56958 60330 52937 52655 60055 53828 61622 57168 64291 57396 62671 63396 58617 58671 59240 58164 51281 55316 56341 53222 57776 56626 56913 52878 59862 58450 61642 54536 56006 57404 55616 56210 56222 52968 57981 56139
55691 57835 53705 59514 55707 61336 56807 52415 55527 54708 52993 50618 53890 53593 60390 54985 58461 55691 60125 53632 57931 51641 53752 54753 14561 8561 5038 8558 919 4965 8427 12126 4867 16363 0 15543 7466 12078 12115 7693 977 9362 8712 4624 5306 0 10432 13343 13775 9685 12503 4392 10429 10473 3555 4533 10674 11643 7706 6036 7729 8913 16637 10262 10595 8382 14315 5640 6427 12533 12189 9403 4233 9546 6024 12691 7549 13593 7041 12044 8596 3879 8442 11066 11143 9742 8461 1193 0 12181 9849 11780 6884 11132 7638 14666 5996 8798 7083 7597 7997 10790 10296 9924 10501 14122 6916 6310 10465 13104 9138 0 11894 4736 6763 11691 9814 9479 10132 8353 4628 4912 6079 9713 8816 12567 8781 10021 8080 3051 11932 4639 6412 5821 10175 10696 5641 11175 5884 10540 11410 10269 14184 7808 8010 10875 8831 2614 9062 9462 8234 10067 12036 10208 7105 6083 13911 11635 5631 7937 52142 55659 55298 58580 55573 54943 53096 57798 55017 59359 53931 56691 55862 51427 53562 54093 51680 57757 57942 61042 53549 55205 51713 54781 50054 60654 0 60875 57113 56054 57338 57886 58617 52606 57711 61583 53404 54477 57940 56586 58396 55635 54707 54553 57807 61183 59118 54219 53286 55833 53373 58033 51805 56312 55550 54105 53300 58718 56204 56731 53698 56057 53491 57450 55110 56987 59382 58882 53377 54239 55721 59020 56321 50532 53321 56224 55120 56706 49452 59450
53181 55673 54585 60609 51238 52903 57758 57502 58919 56844 57189 51608 56108 54557 59579 52515 55212 56643 49329 52179 54913 60723 58546 51907 1607 14518 8153 5878 12080 6077 65535 2227 10005 9770 7965 12628 12058 15805 8872 10601 9874 11677 11965 8425 14302 9764 7684 15564 10707 0 10407 65535 11528 7717 11369 7602 5419 9773 12863 7260 7193 10532 8693 1747 16874 7288 12033 5905 10319 13673 11205 1221 0 7303 11773 65535 4865 4998 8932 10520 8911 6935 0 8225 5209 7960 8623 6485 8550 10604 3258 10794 10907 14762 8812 9522 13484 13889 8623 8422 4377 6418 7542 10868 13433 2121 4252 6911 0 9715 8230 5508 5098 11481 6810 0 5847 8335 8876 3911 6996 65535 8471 8520 65535 6790 11869 9336 6590 11427 5529 12874 11228 14270 13256 8580 311 6729 7843 13554 12168 12130 9532 14926 12130 9710 2891 10680 6961 7686 10595 11866 5580 6014 4039 2744 12791 5991 9080 9182 52342 55632 51857 61273 59853 0 51451 53057 56985 60798 0 54587 57661 63172 51983 55065 58155 59504 57012 56317 61654 53287 63280 55028 56825 54250 55409 64784 58160 58352 53121 57395 57306 56944 59556 56278 52335 58620 56729 59927 60719 56749 50116 58736 58602 62595 58307 60895 62598 50129 61856 55402 47873 55664 53418 51777 58288 51407 53524 57591 57846 61583 65535 53985 58994 54396 56793 54983 54522 54596 53714 53210 60186 52001 57440 55741 61113 58972 59179 61275
54368 54018 50926 54576 55777 55176 53159 62888 58219 61936 54215 58727 58497 57379 55449 55820 51878 60935 59505 56580 57072 58900 55863 59202 9908 7636 4029 12421 8555 11144 13306 13786 11397 5134 12254 11544 5239 8304 8628 6308 7115 10464 7868 15192 7681 7264 11317 8088 8170 13280 14774 10679 11501 8976 10415 12380 6207 8613 4325 7973 7924 4320 9232 11211 11824 0 11287 4064 5793 3791 10161 6157 8899 5153 6443 2633 5567 5253 4572 6173 8076 11213 10332 4540 8914 6880 12274 6186 65535 13097 16186 5621 2463 8050 15508 8091 13192 12532 4302 12644 10517 4694 10989 8327 6089 12607 5506 9212 2727 6901 9547 4700 9656 9329 8096 14093 6981 6438 9318 4900 5756 19722 5209 15103 7368 9480 6793 8601 5807 7214 8517 8829 19141 9716 9080 7326 12309 10441 8732 16745 10669 5280 9303 15506 16119 8448 12874 321 9611 6076 7227 12096 11070 15079 8670 14572 6713 12648 13962 10710 58793 58476 55314 55062 54726 0 56124 57228 55964 57144 57150 57961 61287 47842 57331 53206 51220 54150 52409 54766 57740 59624 53834 59907 57763 57405 55326 58795 61244 55173 56250 55304 52986 54559 54101 50858 55834 55975 58060 61124 59087 55858 0 59511 55604 59483 59033 61601 57088 60046 52176 63115 56928 53574 62574 56599 55181 51726 57397 58331 53304 54028 48933 58124 54261 56845 53125 57892 58957 57868 57565 55143 53665 59191 59528 56562 52270 50580 55165 58450
55524 54574 61868 58874 60519 54733 50247 51112 58778 55703 62331 54711 60841 58317 60660 55092 58012 54008 53758 0 63606 53679 54465 57806 4017 8552 0 14767 9858 12251 11795 11293 8832 13242 14264 8795 13011 5469 5279 8619 9829 4527 9983 7270 4529 7382 11514 6290 8313 11068 13742 8902 13158 0 10993 9403 7391 11468 8987 4713 8549 15698 6858 9343 2302 8200 16103 11143 13218 12445 6726 14871 10174 5965 10135 15012 7953 8722 10762 10169 7910 8436 11602 10699 13131 12163 11292 0 6144 9447 4466 8668 8116 4305 12182 10084 11000 9001 4080 11797 2647 12912 14686 5704 11079 8932 8231 13404 10607 9903 14235 14218 8579 8371 7417 6810 10231 9545 11448 6247 10509 0 6313 11922 11356 5906 8358 8734 65535 13470 10697 12998 6296 8247 14151 8054 12988 12038 7399 6827 7981 4899 11535 5735 11379 9010 9259 10866 16181 10040 7918 10605 7747 5293 11930 9630 13040 0 9731 9337 59796 61139 52049 52691 54908 57555 52041 55508 53508 57513 57407 58168 57077 54481 0 53883 59521 52273 57747 58308 60166 57459 56505 58958 52290 62476 52456 61841 57247 65535 63231 56780 62201 51038 60516 55384 60180 52319 56215 56304 55121 62493 52808 57367 51458 49884 58348 56072 51960 54112 59338 53935 49895 58517 65535 58385 60836 60392 60206 55635 55690 52987 56473 57281 57821 58376 60130 53039 57655 53284 55984 55816 59511 51571 54317 61814 57660 53759 49320 54610
56077 52148 55522 50303 48394 60566 55188 54433 56707 52411 57630 60587 55846 56050 54973 0 56875 54998 56215 54873 59564 59037 51465 61370 9937 10374 9631 11289 6299 7791 4661 13708 13316 16627 9535 9202 5642 7767 6205 8874 12383 14703 11693 6989 8484 16523 65535 7795 16537 8416 5572 15325 8867 9898 10814 5072 6209 5103 4408 7059 7636 7908 12472 5114 10096 7804 6504 9963 9228 9581 4835 7834 7938 6677 4861 8472 11041 5656 7381 12922 8181 7762 11323 9331 11991 4074 11595 9044 11864 10017 10326 9950 11175 5835 11222 5415 9430 9807 7507 7934 7571 9184 10869 8687 12736 6759 9832 8872 11821 9342 15907 10335 10885 7764 7513 5796 12910 7947 8025 11946 8961 9221 4530 6230 5245 11538 6478 10535 3 7715 10441 8278 9324 6154 10521 10635 11712 10272 10852 0 15538 6351 0 9189 16716 17346 9744 1977 8886 9224 7588 7192 14029 14923 9496 12928 8809 0 14050 5367 51538 48297 55589 54633 53581 65535 56159 56642 61721 59690 61689 52566 52032 54992 62834 60826 50510 53334 55245 51342 58736 58564 57781 65535 56368 56172 57956 57740 57532 54147 60327 56737 58593 59298 53495 48389 54907 57038 55498 55720 54343 54719 53014 60255 58256 58783 55176 63321 57702 50185 54893 55758 63635 59133 52041 49895 56707 55970 59674 52839 53857 60784 53354 52853 55517 57322 54333 51272 0 59779 0 56785 62694 50775 50428 58634 56151 63142 52983 50774
56189 55062 57951 63935 57474 59676 59110 55134 58317 53220 58848 49395 55069 56683 57549 60715 50837 55865 54999 54833 55532 62370 53263 60988 10436 4189 14434 7985 6766 9855 11885 2128 10889 6446 6590 10852 6546 6596 11922 8875 8097 8520 10288 9004 9857 9884 7704 13160 9992 8964 3584 8292 4542 8168 4301 5362 65535 9337 4145 10535 10184 2637 8043 8903 14010 11932 9997 5952 12869 12775 14413 10708 9928 12055 6199 0 8189 65535 9035 6891 6235 15317 6716 10530 6876 6658 5607 1817 9105 3927 7237 1700 1739 10187 9050 3787 12339 5319 8357 9618 5893 6068 2745 7539 9006 10814 11813 12886 5999 12632 3917 65535 3880 10765 15947 9385 5755 9838 11941 11669 6864 13347 1483 7662 12872 10264 4561 12916 4947 9718 9300 6541 5567 7960 13150 10803 6615 5569 11066 0 12827 15933 5458 8181 7098 4020 8011 0 8641 5263 3492 10852 9128 6540 6100 9076 6708 12221 13550 15670 56610 58532 54351 55008 54480 53882 58824 52560 55720 0 61724 0 56398 65535 51670 59728 50367 60375 57835 61324 60641 62060 59063 59772 53551 58124 51581 56771 48846 56693 58028 57309 54995 60943 58596 57718 61235 55415 53772 57331 61240 52137 58029 61574 58206 52029 53612 56344 60071 61053 61863 56270 52008 59016 53350 60090 56213 54842 57585 55168 57435 53039 55897 53495 56189 56279 61584 50138 58611 55559 56343 56229 53597 54862 53090 58969 48331 58909 60141 56723
64557 58664 61854 54732 54701 51807 53810 52271 56408 56562 59002 59826 59913 53086 58545 59153 55102 51593 57294 59101 54993 52136 58618 61972 4874 4463 8779 12786 9407 9433 7891 5501 13905 10681 8762 6889 2255 5783 13165 9214 14080 5304 9902 10232 13543 3913 7864 7102 15223 5348 6692 10098 7767 9910 10862 7046 10712 10089 8569 12681 8518 1538 7902 8680 10984 8839 8169 2633 10156 8099 6218 5966 8545 7403 12406 15978 8915 8980 3164 11007 8573 9063 9694 7963 6175 4838 7611 12438 10208 3375 6083 10000 10991 5926 12611 6252 2243 8918 7529 10967 10252 5732 65535 1235 3270 9237 10064 9467 8935 9502 12148 11999 6338 7255 8698 7426 12999 12585 4128 7546 5399 4425 6894 10852 65535 12511 6777 10493 6672 6630 3058 9882 10884 10279 17061 2014 8986 9141 10521 16020 9319 15432 7146 7337 12202 19690 8178 999 8869 11802 4374 0 4575 7647 9794 10717 6196 8967 7056 3849 58893 55785 56215 55130 58344 60564 63618 53560 60137 57647 61398 47683 55720 56337 51967 60178 54873 65535 50936 58770 56691 61755 53400 56154 56986 53025 51991 55084 59563 60584 52702 0 59953 50910 58938 60059 56846 54442 62389 57617 57862 62903 56657 57216 53676 58960 51861 57676 58498 54440 54465 53645 51217 59348 58157 54845 56581 54220 48862 54712 62898 54544 56309 60593 53826 58460 65535 49193 59528 57241 56716 56906 56588 50109 57547 53895 51740 54893 59654 55918
47897 59112 55352 56893 55648 54305 58121 56858 55287 65535 58454 53495 55889 58116 53701 56110 52093 55745 56772 58168 60766 48724 57956 61553 11425 2928 10709 12171 5421 11851 5174 65535 16717 10498 14133 5521 7831 887 12269 8336 12022 3512 3413 9740 12390 5359 16323 12448 8967 4000 10978 6685 7789 11647 12858 11259 10815 11367 6283 8819 3133 6192 12616 10680 4696 8421 11165 10264 4403 8513 11496 12998 7386 7551 7317 6335 4174 3919 15366 7707 13532 7894 3894 6043 8754 3776 14427 8281 2511 7027 9675 6368 11354 4694 8651 10841 10564 8488 4381 189 15626 10053 8833 6652 12997 10832 12380 9596 13336 9576 9648 7006 10284 4020 11191 8571 10694 7462 8044 6519 9321 7084 11204 5154 7882 2597 12850 6909 13971 7506 7345 9194 13823 13433 7408 7721 12873 6433 7955 9373 5395 9908 7244 14440 7049 7190 7515 7148 12448 13835 10760 10921 12124 3748 2962 8043 10962 6698 7597 1310 58891 56066 55855 0 0 56618 65535 65535 57048 53686 55627 50553 57598 52243 54115 59133 60347 51642 56173 57694 58618 54482 54354 60362 55801 61202 58244 57965 52729 55843 58375 65535 56935 58281 56362 56194 56638 53705 54461 56816 58057 50039 56786 54243 57039 59826 55620 54484 65535 56865 57848 53775 50716 54223 62710 54822 58694 55390 55191 53590 50300 58494 56121 61039 54591 52276 56678 60681 58455 57982 56980 58153 61823 50624 54562 61116 63166 51970 57366 57155
58567 52080 50854 0 62213 54844 0 52232 8119 6782 14917 4298 10152 6415 9250 8150 1830 12659 8641 11158 6882 7443 13543 10112 9694 10787 8283 12797 1701 65535 9339 8986 3042 5291 10441 8258 9016 3934 13421 10289 4204 10068 7547 9978 12661 11461 3019 8392 7259 7480 9980 9658 16016 5453 10638 9021 6681 9653 15800 4651 11171 6677 8387 16152 5691 8974 8746 5956 5591 12488 1008 19712 2708 13121 13491 12926 6380 5174 10002 6789 9075 6510 8471 10825 4868 14424 9515 15956 13043 8900 11232 8264 9224 7944 7457 65535 6174 5931 11855 8959 6590 10749 4267 6560 10889 7934 3373 10621 11865 12301 9548 6603 6122 11638 10117 9354 8025 11349 4092 2026 8165 2025 9552 11923 14517 443 8476 7831 3769 9727 10592 4819 9696 8505 6861 8618 2236 7029 10856 7172 6765 65535 8236 13272 10017 11530 7696 5540 13282 3998 10924 12144 2035 5973 9600 8787 9175 6326 14007 65535 6293 8592 10462 6083 5423 8900 8445 7963 7855 12289 11605 20328 8997 14612 8561 10589 51489 58303 56365 54266 60152 52559 57581 60121 65535 57000 52824 56278 54380 55286 58748 58268 55574 56800 51334 54468 49837 57210 51693 63599 60322 55949 58342 55129 55908 58008 48772 54614 45833 56356 54484 58401 58830 57522 55221 56693 56325 62438 51261 58977 62730 57222 56904 52622 57326 58574 60330 54602 0 60692 53979 60502 54707 57520 65535 52815 57396 58725 57883 58260
59043 56533 59170 54703 58159 50126 57013 61435 8622 12742 6445 9992 4331 0 16584 1195 5855 6452 11668 11319 11193 9772 11133 4316 15081 6718 9909 11854 4982 5765 1591 4069 10352 9611 14559 10476 3811 8738 1975 11161 9335 11790 5875 9205 7381 10154 16958 11940 6378 13260 4595 16780 6961 8315 0 11704 13811 8885 9546 15791 0 6820 2857 4366 4740 8230 8845 8450 9306 9790 5067 4909 8113 12147 12014 12197 8426 15380 5212 11109 6034 3759 11323 2085 11924 13337 0 8522 65535 5075 5523 3092 2278 13144 7375 7645 8469 4660 0 8400 9392 7015 10426 4286 7144 10276 9703 10054 8454 9918 10653 1739 6874 7510 7700 16898 11028 10022 7135 11122 11639 18659 5154 12545 6465 9816 14460 15579 11907 5838 9894 65535 5422 5461 10353 11535 2567 7942 10696 12487 5594 3554 8366 7235 779 10851 8972 10804 8437 7474 14867 12352 11572 7875 6817 11578 7650 12681 10871 3013 11589 5932 7605 14107 11725 9039 10604 7800 8732 15879 9448 10642 5169 2476 12926 5825 59247 55471 57817 63416 58469 61348 51640 52246 53531 63196 57859 60641 57318 55284 60317 48778 57952 60528 57142 62054 57117 54770 52824 59793 54877 58903 48598 54239 56649 56197 52728 56158 58985 51516 53987 56701 60589 46008 60048 58231 53311 57589 56011 51024 55908 57375 60115 54584 58286 53856 50453 58827 54322 58059 63914 58058 52153 57120 55167 55844 58364 58324 61599 55153
51583 51483 54111 65024 56203 56967 56570 58887 12232 3177 2832 11368 12636 10979 8355 14372 10567 6680 11126 12319 2911 7502 4074 11873 2669 13278 7335 9019 9249 6488 13753 8162 8857 11906 8425 8291 12950 11777 8860 3486 6208 11501 9205 65535 5808 11903 6352 12474 9980 4857 2601 9763 17511 10379 8199 6357 8884 12623 2915 8975 9582 11028 13756 11821 5827 8353 11240 13607 4081 7622 7530 65535 11767 12485 10023 0 10370 14246 9111 8483 9861 11646 11623 10761 12929 5499 8164 8959 9226 12618 10829 8899 7122 15508 3822 7138 12194 11784 10001 11241 7693 9407 8772 9534 6814 5019 11417 5795 0 11326 6453 8055 8322 9005 6561 8065 10534 6010 2403 5251 5503 7557 65535 10348 13121 11735 13750 13725 8857 5603 11701 10978 7544 10009 11294 4302 10171 8639 9861 7386 12215 14890 7799 11940 7358 6592 11794 1359 10871 65535 11219 9050 9245 7310 5893 13199 7022 15955 3367 6497 5205 8242 5427 11246 6867 8063 5240 6719 8873 7931 10810 14325 14069 9763 13329 10982 59230 52158 55124 55382 57257 63565 58191 58523 57202 52434 55959 59117 53087 56030 51696 54920 63014 57822 57816 53007 55153 57095 53274 56787 59276 59514 54184 59408 56433 54719 56033 56152 54850 53218 63455 59907 0 50845 59160 55869 60824 57529 54079 50710 59882 59335 50574 57401 50704 62866 60110 52476 53188 51786 57205 52640 54799 54399 49946 59082 54430 59260 54375 61729
55331 0 55658 51672 59204 61492 58060 54716 11840 8697 6884 11414 8774 9404 8910 9094 10695 15184 7182 8006 0 5544 9285 2301 13921 6587 7600 6590 6704 12280 8823 10913 5115 5663 12006 1756 11298 11738 11961 0 5240 14611 12848 8737 5691 13616 10136 13196 6836 10110 10090 6168 7759 10229 8014 11196 11414 12034 5635 7564 9025 11568 10378 6284 12598 11359 15763 10864 8794 8716 5783 6137 15806 5329 9169 12291 14494 9746 9832 5108 11732 9003 16406 65535 10562 7747 8601 7485 13165 2987 5858 4550 9907 3083 9058 10758 6958 13133 6826 12415 3055 5992 14778 7839 65535 8147 11787 9811 6343 6269 6755 13267 13061 5515 6766 9790 4107 8242 10668 7717 12776 9445 9980 11570 7649 11391 2917 12591 11136 11839 3771 12493 7336 4292 6791 7920 5950 11503 15680 6265 4685 3306 9793 4022 6031 3454 12439 0 11102 7355 7140 7720 5830 12430 8994 11092 10935 4653 11779 6137 14127 14834 9919 11895 4977 7706 8737 4180 4588 10036 8242 12939 5189 0 12024 7833 56701 53396 53536 55202 56506 53423 50686 52201 58470 52621 54461 58101 63613 51450 56295 55587 56013 53792 55236 56156 61153 59574 62121 58786 55484 52855 56608 61870 55391 57790 58547 59346 52522 55900 58307 49817 60950 55758 59392 54312 56259 52709 55839 58081 49125 60861 60556 58109 56788 59552 62649 62959 60680 62854 54853 50339 51983 56714 53619 61230 53730 0 65535 61363
57020 52635 58437 62132 52201 60663 54173 57656 65535 16835 7631 6633 5044 11408 6995 14362 11623 6034 9919 13159 12063 8576 8960 14598 5626 15344 8589 4113 5432 8809 15120 65535 8866 15255 8898 9364 10513 12559 6191 6501 14069 8515 13197 11872 12482 5898 6382 8079 7412 12202 0 7885 7840 1269 11911 15343 0 9506 2327 9281 8115 13568 1376 9324 9303 9850 15910 8400 13224 8438 5726 10704 10900 8340 15450 8244 9212 12751 6706 10421 0 8660 8042 5248 65535 11224 65535 13048 11528 9767 14728 5445 8013 12878 9082 6664 8202 11467 8461 6656 7139 12869 8124 5931 10856 1311 14822 10167 6598 13090 15158 15069 7559 2529 6587 8027 10071 9210 6680 10496 12854 8282 8005 11391 10180 7568 65535 11447 10299 15468 10181 6104 10354 8238 3965 10774 12489 8444 4417 12410 2619 8958 10277 11180 10538 10538 11671 7981 15203 8018 9233 3638 14678 10701 8564 10823 10728 0 8190 65535 0 11118 17142 11521 11427 10869 9555 8928 7232 6384 8035 6084 14192 5196 12835 9477 54295 51189 45722 55887 59608 60268 50420 65052 55134 54572 57764 62166 60367 57272 61701 56510 56336 55599 55831 53258 58437 54310 55466 54789 58051 58019 58103 65535 58627 55047 61688 58803 0 55695 55160 49657 56985 57055 65535 61410 55165 57026 55865 57078 55171 61454 57207 62320 59339 54351 54109 55018 55479 64034 49573 58447 50936 59662 62310 55122 59799 58650 62321 59280
54541 58878 53064 54932 50892 48488 56243 65113 3636 5665 11380 1826 7630 12357 7129 8264 9425 8779 10097 7815 9626 10589 10312 12232 9235 17951 5159 7736 11082 5724 9328 13574 11287 12640 5158 7370 7701 11461 7417 10155 3348 8866 4527 5516 7965 6702 65535 65535 4833 10362 9399 11186 8056 10283 11911 10379 10340 1736 10192 9135 3157 0 3397 8272 6273 6388 586 10617 10825 13430 12793 11498 4495 10819 19695 6087 9952 13841 6415 5507 9903 4515 639 14769 10649 8294 8027 12587 10015 10993 12177 9167 7086 13891 3266 8159 13263 2104 9911 6071 9167 12012 12490 8457 9966 0 7158 1860 0 15326 13108 8354 6300 1689 2470 6374 13181 2919 9148 3181 10075 7252 4559 15448 9603 6842 6193 10559 9032 6648 3988 10051 11747 11713 10114 8486 4478 4941 10534 10454 10932 13093 3662 8847 10718 9865 441 7577 10667 9451 7676 2110 7227 11865 14472 10450 10106 10739 9361 3595 14613 4448 11050 12041 11232 9576 0 14568 9753 4322 11595 6336 6919 7721 11170 7655 49604 58467 59710 52371 53368 53948 52825 52040 56375 57917 59383 62712 61222 47958 58065 62179 57967 61368 60549 53140 51516 52493 53547 61339 57495 52217 56223 54318 58822 60760 50781 54756 56657 52295 51958 54183 61272 63444 50840 59784 61244 60086 58203 60292 58061 57272 53947 53131 59070 53486 60353 55795 53802 57144 60804 55672 64382 54285 58021 54419 58533 59853 57277 54333
57302 55123 56925 57454 61877 55588 56796 56461 10887 2394 10078 4729 7411 6059 12134 65535 7043 11929 8936 8461 15654 4974 0 10782 10917 9369 5461 8779 4785 6036 13640 11204 9940 11737 10443 11400 2889 15813 11559 3504 6836 5129 8237 3865 16210 9694 10847 9170 7713 8514 11656 10090 556 14676 9356 9617 11604 10730 8261 11789 65535 8769 6607 14836 12017 6924 11098 15608 9725 13120 10868 7861 15304 9305 5076 5512 5700 8514 8146 3904 6212 8486 8642 0 9868 13872 11869 8297 8226 11392 9408 3528 11126 7822 7231 0 10898 7892 10325 11059 17374 5734 13108 6969 9897 7005 10226 6706 5217 7389 7558 5371 9034 10774 9598 5646 9399 0 15263 13811 11539 0 12365 10223 12420 5333 12041 11534 9715 9745 9495 13141 8686 8548 11379 13665 5622 4135 1608 9689 10727 1976 7629 14091 10823 8767 13284 0 10419 2307 6768 12376 10941 12575 8476 10976 3578 5737 6258 15175 8775 12978 6137 7807 13301 11112 3895 15479 11813 7378 9715 15610 18499 5161 12328 8047 58751 56690 53304 56262 60862 54082 58597 54981 55231 59505 58478 50181 56254 54657 56482 58404 56569 53713 51641 52084 58181 58409 58888 57929 55492 60576 56061 0 54248 50194 51500 56527 50737 57683 60819 58609 55542 49725 53358 54880 55459 59938 56139 50733 54256 57011 58807 54660 57595 65535 56567 58584 54898 63629 55856 56713 54160 58800 61085 0 59324 56489 56986 57836
59956 58406 60052 50073 56939 57353 58005 56373 13087 10168 5504 498 9068 12004 10226 11956 8632 6806 9141 12453 5408 5942 11084 5340 10744 5953 14382 7133 10779 7637 7497 14178 6883 12350 7313 20701 11548 12911 4863 8520 7293 3873 8084 8106 11464 10724 8642 9387 2630 8609 9300 6201 11687 15295 11683 3178 10531 8797 5793 9284 8449 6067 7949 5898 9806 3883 9081 10936 12844 10856 6945 10373 4138 10647 8470 13377 6445 9663 9358 13697 14151 11412 6488 7733 9094 6629 12568 12672 13242 6060 4954 2922 0 5253 6374 4988 9475 11488 11419 17308 1791 6251 12693 11688 7611 10270 7767 10254 8814 7321 7469 5976 8693 9479 6123 9376 8636 9732 6723 12101 7237 11814 9424 5295 4872 4434 9805 10894 4164 8793 13631 6447 65535 5429 8894 5634 12022 15745 10109 10268 9587 12215 8102 15493 8525 11093 5086 4727 5357 7161 12091 9680 0 7034 11673 5864 10231 6956 15451 7014 12148 10049 7852 9052 8102 12791 10896 13763 65535 3942 8564 8814 10863 11723 0 9388 55366 53861 57170 54567 58501 51655 60337 56805 59288 60083 54748 61147 52447 48908 55162 60939 57066 63734 56094 50951 65535 55417 49751 61828 53864 53180 52964 58788 57265 56553 51904 55053 57358 53961 55055 64967 58711 54043 56020 50574 58622 55402 54160 57790 57437 51237 56037 51347 50725 60907 52622 53936 59352 62019 54371 54941 55034 54274 54383 54372 58358 50554 55004 60314
52246 65535 64393 47358 54366 57512 53480 58168 11745 8103 9013 13221 9503 14960 13183 12095 6523 3505 10337 8921 14083 4398 9930 1204 7547 0 7366 10132 9748 6633 10963 12003 10769 4894 7422 7427 9332 2536 9590 13112 7636 7377 3349 13228 16782 7544 2063 8240 13203 7020 6839 10530 13574 8090 4833 11055 10330 10929 8295 4556 5095 9829 12931 8033 1636 8944 14329 65535 10347 8530 7194 3312 15232 7518 7572 15182 6106 7913 65535 1904 13131 8113 7719 13151 9368 7020 10224 5862 8521 12088 7534 6480 7881 9236 10291 14103 11710 9732 8847 8537 7741 6016 11861 16222 12021 8880 17112 7380 6617 7448 13492 10462 5231 10580 3968 6962 9657 14938 6268 8115 16870 11129 7378 12838 5727 7978 12411 13409 8028 8617 12994 7515 13223 6809 7162 8458 10935 8131 7751 1396 12494 7815 8454 5977 14176 181 11321 7547 8606 8669 9742 9314 9787 6237 12337 8498 11481 6682 10196 9971 12306 11661 3802 7108 9003 10783 4928 5987 7218 12162 15667 11409 9578 9228 8542 5730 12359 1776 9164 5602 4858 3479 9699 4513 55857 59950 60048 59835 56042 59126 54922 54137 49742 60519 54806 54991 55778 51696 51898 54885 56113 60074 54168 63524 53524 53560 55408 54590 50935 55260 55357 58176 57689 58947 60806 43361 59738 0 60566 50995 49914 51369 55410 58075 54561 52089 62208 59792 58397 54550 55661 56296 56953 65535 54081 59905 60409 62687 60216 62115
54708 56334 56080 61975 61877 57008 60576 58335 6106 0 8634 9888 7850 8978 4731 10669 6972 14207 8707 4991 12327 4903 10092 5992 5028 11717 8893 10381 7104 8902 10569 5341 6010 11429 10901 8231 14993 15197 10327 2090 6063 9223 10801 9940 13851 10317 6800 8911 13398 8998 14387 11224 6697 4386 10161 8241 12881 8995 9307 4581 3470 14580 8717 5598 5218 13653 5853 10487 10422 5232 8115 10974 9601 9638 13691 8946 4024 11191 9310 11880 10527 0 5429 6610 6639 4725 8037 3952 7013 8748 8868 10876 3916 9987 9071 8946 11447 8933 5078 17305 16324 5467 9358 0 8872 3639 6613 11288 1249 7644 3970 10730 6063 8079 10461 0 10057 3043 9106 13285 11003 6137 15153 6738 7086 9552 1520 8646 8227 12063 9315 9124 10980 5939 6940 3822 10412 8448 9023 12453 3430 9124 11043 7540 1267 11049 7367 9263 4833 6625 7107 14531 2276 2321 11113 9611 5519 11319 0 13776 12742 10698 8804 10050 4785 8242 6212 3336 7501 7592 1575 0 9092 14283 8872 8942 7537 6291 11426 12340 6957 6554 6548 11248 61835 55206 59921 56071 57138 59956 65535 55987 53673 49083 65390 55100 53089 58527 61418 59874 57139 53491 55430 0 52095 52558 61248 50595 54273 56977 55446 57540 56490 52085 57085 54414 57082 54071 63266 57606 57406 53573 52249 63488 53294 55240 59712 54990 58279 56203 54094 0 52708 60413 65535 63255 53932 54917 54600 57544
59165 50611 58199 65535 57732 54572 55348 55155 12268 4436 7038 15652 10239 9375 4968 13269 10343 11264 11445 7656 8844 8997 4785 4110 7652 13042 9585 0 5500 6963 10610 9193 6701 11205 6845 5339 5792 7766 11132 6396 6344 65535 12921 8472 7506 10430 4908 11014 6390 10762 6864 13081 8057 7982 9702 10713 10300 13937 11188 12314 8444 6594 8279 4361 13420 11660 7206 10724 11835 13519 8751 10666 10587 10268 10647 12129 8602 6655 5705 9809 7494 2551 9857 0 10194 9719 8781 9804 11735 11839 13539 9321 16424 14493 9995 8587 10930 5371 9933 13912 9699 2884 8324 12641 7275 6828 7215 7582 12448 9300 5543 3345 11509 4311 12765 11972 10216 6094 12714 11584 6464 14548 9051 8877 65535 9134 4487 11065 8093 10524 3162 16070 5918 12945 12244 5761 9911 11254 7192 13447 6745 9652 8868 6109 5778 12260 11137 7887 8753 11415 14028 16910 4859 6935 10088 8535 14710 8904 7779 9902 8762 6931 12539 7285 8633 14721 5438 7407 10881 7814 9189 10447 7973 10826 15134 8399 10711 5554 5280 6701 4779 9778 6971 10761 52415 61086 50903 58420 55733 54405 50872 57227 57267 57621 58618 59763 53128 57803 53400 59540 57879 58936 54934 50134 56782 53276 56690 50350 55669 59359 61641 56238 55369 57998 53286 53923 56415 57163 57556 58131 57207 54455 52247 57763 52622 55944 56847 61308 51712 47403 58420 54023 54867 53146 52390 60425 57860 51620 57477 56395
57366 61034 52916 52790 51483 54795 57440 58799 8292 7833 12761 10064 12930 12224 9301 7809 12105 12213 8095 3776 5435 10918 14971 5831 11513 10695 13822 5567 9038 3038 10577 8950 7387 7412 10055 3954 11621 9475 8228 10288 6344 4535 9720 13888 6007 4391 10626 7486 14628 10177 8008 13030 11421 4518 5068 8487 16283 7605 9540 65535 8339 8890 17533 9636 7986 11121 3903 7054 8459 17548 7267 7997 11954 3584 12625 7815 8673 5188 11447 8766 14336 5622 5879 12348 9577 7442 0 0 8399 12863 13783 14554 5157 8581 6618 12577 4194 10989 6329 10550 0 7525 5411 7461 0 10182 5330 7493 9945 13516 7431 4881 5252 6439 7368 11826 10725 10789 9036 6302 13941 10034 5494 8453 4351 7396 11710 9619 11352 5432 7265 5575 11410 5618 11731 13324 9466 4303 5996 11476 9901 11774 9813 4345 13275 14613 11039 3831 9677 8752 10209 10535 8622 10418 6688 11328 15968 7904 13669 7610 8209 65535 10756 13692 11484 7398 6275 9961 9145 11109 9649 1319 9267 7325 8831 4871 12907 10541 12171 1751 12179 7188 14273 2954 56532 55659 59198 52518 57410 59140 60781 56766 58409 56878 58845 49652 56478 53030 57371 54522 56906 54446 57466 65535 56266 50012 56684 54768 62847 58381 59885 53420 53047 57389 51696 54050 60159 53730 54900 59004 54610 62299 54791 56731 54756 58076 54741 53022 56093 58935 56605 53571 57118 51698 57882 55733 59907 60870 52673 54726
61717 57511 54485 53039 55748 57327 64338 59866 9925 13855 0 14929 13207 7553 9259 5288 9640 13120 12251 4493 8727 5401 3656 65535 8673 5106 4119 4720 12434 9743 8125 7084 14692 11355 12024 13516 10524 5871 4167 8544 11152 8607 13453 13403 8461 8838 7274 10028 2154 8067 3905 9490 7155 10666 10898 9116 2561 9169 6332 2649 7800 11646 11972 9146 13424 3107 7764 7860 8655 11620 10727 8493 9464 5547 6705 6534 7496 10378 8051 12357 404 11175 9190 9211 17739 8087 13509 12931 6691 6370 13510 5433 12374 11641 11258 5214 6820 5192 9643 11430 7143 10882 65535 12317 10562 12405 9572 16886 6500 8173 12288 7835 6542 7813 9183 13556 11437 6405 11135 8329 9622 5332 3350 6108 9426 16841 12398 4869 9941 65535 11976 8596 4346 6224 14007 11530 0 5707 4692 8088 8096 7291 17962 9911 11764 6275 12713 9373 12424 10346 275 16234 11649 9051 9260 10605 5447 4577 9334 8929 7289 7490 4645 11690 12343 14614 9749 6595 9302 16005 7565 9576 8023 9261 15481 7454 5025 3973 6083 9303 6746 4267 7565 8435 60420 56412 58173 52662 63201 54370 56251 60254 48768 57371 50251 52671 54041 54220 50889 58939 52900 51766 55039 56313 61782 57093 57023 53513 65535 59491 56833 59025 53397 53374 52225 55246 60938 54397 62554 58472 57776 58346 57264 50436 58857 58338 54260 52641 53297 59532 57653 52197 55615 58543 57996 55765 59716 58280 63275 57569
55858 54854 60777 65535 54833 59976 48134 52889 8089 8574 9593 10213 16264 13982 11728 9840 9027 0 8359 20391 3482 11444 13869 13962 7393 11778 11453 11672 8900 7156 6939 4111 7820 8576 10994 5306 13365 7027 14742 8997 2091 5477 8106 12349 3818 8967 10028 5230 9272 5378 6083 10488 11421 13102 9300 15622 7128 10965 8267 10041 8897 7045 13283 4136 16352 8229 10498 11843 7185 10460 8685 2858 8400 11610 10193 14565 9799 4681 9523 8105 7167 15083 11079 10683 10239 9398 11804 2892 9029 13359 10249 5519 9079 6097 4027 3350 5167 6134 7379 7868 11641 8541 15622 3467 8597 9616 10979 5700 2342 9429 4536 12503 6420 10115 8497 9624 11684 10224 6250 11429 13687 9240 7852 9587 13007 14461 3396 7346 10494 7292 7940 11883 7216 4505 8708 6658 13488 65535 8823 7407 10971 12275 10467 5958 8082 6822 4991 6894 8494 12196 7756 16438 11263 12700 3795 14326 7315 12034 9087 65535 14200 5882 5986 13301 10331 9059 6291 7488 11235 11114 5465 5997 7387 11142 14419 5642 4188 5566 7585 8781 4575 6834 11896 4186 61114 55518 56877 0 56516 46858 62690 57844 65535 58041 52784 53963 63354 54296 58893 58023 54496 55457 59568 53688 62072 59608 59326 57134 59217 58210 58922 55547 58914 54917 57318 54154 51124 60159 64789 53478 58226 59967 53828 52978 53823 53799 53442 59966 51524 57398 54846 55019 62480 54234 62104 59133 60061 47356 64985 55959
47554 59088 57272 54751 62248 57903 54667 53482 7664 14875 10511 6527 7937 8479 7149 236 1213 9532 5747 9697 6784 7083 1905 9148 6129 16982 12111 11167 11260 8134 8905 5812 8124 13615 14425 12311 7230 4343 9392 6355 11209 10948 16725 7941 9534 9110 5100 9137 4642 13436 5684 3353 3338 12527 6785 7963 763 6654 8130 13711 4808 4849 10331 12530 10556 4363 12646 5648 14074 6841 12671 15458 0 8160 8075 9596 13768 8809 12857 4868 15116 6845 7364 9915 8969 9848 15108 3083 1828 3409 11162 12018 13343 6810 6724 6601 11348 12345 14364 10319 12319 9187 13164 5727 6139 15913 8005 4233 9472 8092 5721 17372 11339 7273 8984 11923 9719 3645 14398 8839 11029 13975 2028 9478 12266 10919 8754 11499 6737 3743 9426 0 9679 15103 9562 1715 9171 4234 0 6319 13563 7549 8616 12244 6328 5864 11349 10006 6283 8204 9455 7140 0 15044 65535 7726 7524 9142 6340 5255 9121 13943 7512 10354 8207 11154 5456 6984 10883 11736 10466 10727 15858 10195 4186 11257 9171 14639 13071 10946 6937 65535 15389 9557 58237 59283 57543 58977 49336 53646 60462 55946 55549 53577 56063 54429 58891 61504 55459 58434 60248 56711 59462 56274 53901 55689 59286 49767 59146 55567 54690 59253 57905 50337 65535 56169 53807 58626 51623 50942 57652 57805 53956 53239 57453 54022 56893 50154 56148 61737 53414 51366 61192 54552 58047 58075 52617 52649 60914 55729
60682 59279 56320 59894 60006 57126 53697 62271 13443 6121 6521 9251 10390 8945 8822 6976 8430 5914 5469 1894 4527 11305 4006 3643 8998 0 10909 12011 10071 3906 1847 8844 14918 6284 9711 6943 14417 6204 10351 10967 65535 9757 3593 3709 6775 14787 10648 11025 9915 8593 7920 12935 7001 11422 6776 6323 2190 6639 5991 11110 11201 8633 8692 10841 7062 5178 9802 17353 11354 9213 1896 11078 7095 3988 9667 7761 4604 7938 5868 14292 6657 10383 5486 10418 9265 10203 14903 0 11482 8704 9662 6940 12485 6027 8434 8376 17987 9782 6370 8099 11394 8529 9799 6885 7843 15519 9424 11596 12552 10225 14561 9229 9069 6884 11502 8269 9534 11966 8962 14703 10282 6787 9435 9948 12881 11615 14560 4978 13509 10186 2662 8955 0 12627 6565 6592 2750 6348 7142 3216 0 11322 5868 65535 10350 6723 0 1702 833 11298 9746 8169 7942 7781 12694 14075 9272 8317 1377 6595 11377 9365 11455 16888 10394 9733 7933 65535 8393 10603 11728 14144 9032 3763 9049 8650 12670 15643 2301 9877 11745 7141 7727 12428 53934 60145 57546 58285 49600 54122 59911 54642 58568 60942 59543 55972 56521 55438 54255 52091 57953 56174 52616 54870 63070 47585 59965 61241 57825 54249 54697 59574 57993 56237 56133 53046 52824 65535 53033 56987 56041 55438 59975 65513 51839 49370 45981 55868 47100 53172 55265 53161 54669 54003 55708 53555 51928 65535 50957 58296
8823 5964 7031 7377 8234 10858 5522 5257 13791 11258 11143 13189 12654 9190 8327 8950 3248 14448 9669 8908 12422 10683 10026 14331 11527 9809 4542 5782 9059 9555 6332 7472 3107 5355 7311 9847 5973 9784 7212 12316 2663 10791 10066 1429 12476 10929 11718 11658 9784 5134 9921 9867 6308 0 11327 12136 8584 8598 8882 11122 10422 9773 12352 12080 5744 8990 7389 12188 8472 9678 10744 9214 8990 13910 7198 7484 11379 65535 14032 4061 14814 9561 13542 5231 7559 9251 10873 6642 2314 8366 14125 9270 12869 11322 8737 8559 13063 6063 14085 8156 10362 7488 5765 7730 3226 7541 9711 11984 14449 14333 9183 5753 8801 5674 1056 18405 10915 2101 2147 8697 14469 9425 8967 7500 14973 8650 12645 15021 7460 13523 0 16328 4746 4597 12245 11659 12655 3048 11839 65535 9452 5845 4264 6174 8558 8651 7227 3500 10197 13649 5600 8750 6164 12102 10927 13252 11588 11243 4603 7739 5675 7756 10021 11595 7261 10416 4573 811 11227 8155 6652 5959 10281 4957 10891 12185 6408 13504 19306 11043 10393 12173 65535 5932 9462 16441 14255 8511 11753 9532 10261 6666 56807 54935 59294 54379 59726 57691 60741 54201 56217 53340 59963 59209 58247 55435 59936 56214 55731 57284 55481 55945 51323 55254 57554 53036 50932 57075 0 61367 56237 55509 57501 58169 56590 60754 60608 58783 0 55431 58229 53769 49548 55108 48217 54638 51248 56046 53799 57721
12611 11156 6156 7034 7804 10593 13536 4654 5607 9837 8428 11330 13663 5414 4206 4094 9040 14456 10686 10874 14343 6348 7612 5799 9510 7919 5989 9140 15601 65535 3198 7851 7399 15254 7987 5737 0 13495 7820 9596 15241 5723 13506 2713 7731 5053 9323 7303 0 9633 4491 10273 13968 0 7950 11536 8203 10916 6499 8209 3057 8658 8066 8615 7453 12554 13262 5443 4984 3438 9103 9139 4434 8547 12575 14426 4468 9598 7393 224 11050 8529 8434 16534 6462 4885 6576 8442 65535 8076 14984 2724 4783 9334 11489 10274 11968 6738 13525 8183 6342 15440 0 3675 65535 12211 9555 9525 5966 833 5381 13021 9987 16830 7338 1758 9564 11288 7504 8953 5683 5294 6874 12374 10362 15975 2410 2366 11997 15487 6722 8097 12363 2788 7808 5617 14354 9329 8657 6676 13283 9164 8648 3725 12506 10600 4125 9298 6723 8707 10121 2269 2406 7027 6806 5677 4966 5367 3047 10368 12026 11242 11689 6076 0 4128 11678 12256 4025 6019 0 7549 15765 8136 6565 11437 65535 6959 6088 8055 5088 15191 3178 3506 12346 5398 10538 5179 10263 9236 14085 9298 61363 53250 52140 56754 51982 56312 51664 59421 51683 54492 59635 46713 56732 60852 56951 57176 56324 56871 55535 60528 55742 52492 56783 61311 59549 53016 59142 54728 57410 58372 53126 59013 55046 54584 55617 46882 56039 55349 0 60014 59348 60072 60574 57381 54987 51513 58166 60286
8553 8685 9766 1349 9299 10290 12205 8226 9515 6148 17966 7165 5913 12397 7931 10660 7749 7516 9224 12916 12953 7869 7729 5780 13542 10088 11496 9835 11010 9083 13739 4595 5664 13102 15217 11878 6458 9481 12175 11419 12942 10644 15914 7651 6172 15363 9007 8474 9580 4661 6961 10190 7881 15050 7021 7973 10198 6731 9243 5529 8430 14238 5297 10424 11849 9847 11636 16106 6566 0 14608 2262 11446 7338 13500 5661 12200 9691 4537 7018 5588 8203 9977 10365 12152 11028 12382 11745 9253 2594 10632 4068 10891 11184 8688 12439 11707 10331 14874 11460 6330 13605 12184 6088 13081 10415 11894 8561 15304 4520 11867 9909 3515 9798 6234 3979 10547 4159 7961 7787 8843 9259 5017 11965 2824 12018 8736 12005 794 6517 3773 8472 13556 9343 14030 11068 4495 10882 7150 14437 11159 6954 16993 4245 9515 2826 5740 3188 11795 1565 8059 14141 8130 10163 11142 10947 7618 9975 14581 8232 6961 10150 15199 8938 7968 8934 7607 11906 2466 9149 6883 5526 11834 11396 9485 6780 9458 8782 13377 10224 12655 7248 10496 65535 7058 6479 5484 10934 5973 11960 9474 4380 64454 52713 55721 52455 51098 56688 50808 58225 57611 58713 62770 57253 55366 59141 53429 54100 58189 61063 56699 56998 53832 58010 56060 51522 54276 54384 55472 62357 62248 59298 56089 57347 0 52450 64307 58660 55533 56616 60304 58877 59228 56646 53892 55976 58097 58289 62153 55871
7753 11104 65535 11798 9461 7908 4218 65535 14786 13138 7622 8046 6355 7099 8306 8363 9725 7462 10759 6636 6568 0 12111 9792 2584 1004 10599 7303 6870 7278 13695 8097 11271 4220 5719 4511 2038 4455 10573 7475 11023 8256 12628 12045 10858 6025 9446 13602 16774 12277 7280 8414 11818 15248 16400 5302 11476 9334 9683 9830 11327 3211 4649 10232 13668 6864 6523 5450 11470 12321 5858 15855 9664 0 17586 11996 8490 8813 13306 5585 2380 9985 9958 18602 19227 15867 12933 10151 8476 7638 7540 8344 9844 8510 6935 8686 5724 12108 2895 9428 9432 5179 11982 8216 10132 6249 13238 10893 2811 15238 10369 8631 4223 13600 13393 11385 8554 5189 8895 9516 8175 8752 10887 8894 5700 3787 8835 8592 8943 8624 7858 4970 8588 10489 9439 8810 13335 9389 4818 9251 14603 10547 13257 13289 8121 9465 4145 9448 9244 5803 12712 7087 0 8218 9006 7154 9117 10816 6461 7817 7056 11756 10520 12450 7321 6778 7926 12848 8751 4980 5674 7957 7295 6769 8660 12487 8655 2586 6652 8234 7375 7985 0 10696 65535 4065 12008 11507 9568 12235 9028 8293 64879 55551 55066 50935 60730 62126 61365 54216 50729 50390 61086 55237 62987 61117 57551 51597 58773 56813 62225 0 59875 60564 54387 59743 55316 56715 57215 51607 59691 54988 56516 52901 56046 51968 59028 56665 58675 56940 55644 56978 54047 54506 58012 57774 56857 58367 53477 54376
12897 8090 6096 6110 10613 7204 1530 12577 6405 8134 7968 10281 8805 10404 6988 11564 6116 13203 4659 8558 10559 6437 9888 6470 8305 14426 1992 16921 11226 8374 4939 5592 3873 9045 7956 8396 7218 7205 4439 2098 10609 10980 11015 10431 4665 12826 8305 6666 13271 7167 15311 7514 5365 12603 12545 5832 7633 9933 5998 6066 9654 4948 11587 7990 5710 8154 15884 7377 11169 2565 7110 12649 3470 11163 14126 6256 10081 0 13697 10490 5979 14932 2153 8052 6203 11106 10465 5901 12202 13053 6338 7159 7505 9352 9014 1730 11861 14435 1182 6104 11868 14063 10616 8065 10279 65535 14390 4353 9336 16227 10294 8572 10725 8129 5835 65535 14133 9147 0 12117 8082 10954 10886 13722 4318 7406 5836 12246 10904 11284 2063 10011 12616 13184 6642 3099 6787 9968 8545 10068 12052 4565 787 12022 4793 12129 6676 11604 8701 9356 8729 7972 5131 11965 4653 8890 5686 10646 8236 12261 6958 12484 11611 9650 7436 6552 8278 3419 6988 9051 9528 830 15873 7070 9237 9539 11468 6603 13256 9976 6410 9305 8282 0 8376 10782 3298 15791 16572 8911 5332 9175 57489 51824 55268 59780 56963 55545 56001 56846 54347 62087 52965 55888 65535 58043 56926 53216 56344 58710 53986 56398 56091 52409 52889 60829 57715 55973 59558 55401 56120 57082 61430 56253 49341 58983 59816 50467 55838 58262 53260 57003 53053 55230 53274 55080 55614 57998 52704 51854
9774 11046 3539 5105 15665 6303 10211 3977 8006 4796 11503 7169 15489 7027 10649 12593 545 5082 13363 9072 0 13891 12206 8845 10814 5281 7029 8976 7619 7620 12565 7954 12363 0 13617 10979 9454 7893 9373 15198 6219 9355 7682 6534 10368 10773 4901 11474 6239 5148 6284 7599 9135 7793 10299 7374 15161 11595 12360 11398 65535 7114 11226 10784 65535 9168 8459 13062 11607 11141 4588 4681 6140 8439 9084 8262 4411 5269 5579 12352 0 11036 10945 15764 15357 12038 4500 3783 9951 12069 11350 7584 6693 11231 646 11607 0 10619 5437 15603 3649 5023 14793 10902 11422 5939 9173 8134 6492 9640 8110 10873 9784 10940 9646 9105 9571 19837 11604 11899 7811 6023 14138 7705 9779 11717 9269 10289 9295 12036 8197 13204 8318 10819 3548 8074 8423 7696 7768 10630 13455 7867 6984 10544 14917 8334 8145 2588 8008 6794 8676 3102 12831 12709 65535 17645 8886 7183 4996 12958 6117 7596 5994 9344 5004 10981 15048 4603 10588 14634 10345 8305 7482 10938 11080 12158 12206 13485 8410 12846 9789 8195 3194 65535 7441 8015 15976 5331 11758 9149 1852 3329 56541 53768 62532 59612 52307 0 54202 50591 58446 57964 55944 52859 55020 56770 59712 58732 58974 57263 51489 48062 61468 57303 65535 51939 54360 60807 57387 59744 55216 58620 60047 57988 58238 55053 53413 55212 55477 52747 61357 58701 51946 57066 54801 63150 52704 63006 52216 54119
8283 6947 14608 9717 8244 7051 4453 13925 4050 11247 11105 5788 8090 7528 6155 10447 11442 6646 930 13459 8964 2646 12230 7332 12515 11453 7923 8116 5804 14373 7731 12354 749 12572 10695 4878 11211 11215 2757 4982 5724 5755 6438 0 7310 1342 8992 7478 10595 8917 6858 10937 5993 6801 6207 6174 11932 3177 7658 6530 10351 6498 13278 6746 5039 8865 9010 3455 9969 7277 3135 2995 8821 9131 5749 7210 8350 8436 16331 5724 7574 10473 13301 7996 10224 11400 1736 8635 10203 10091 0 11778 7533 3114 12748 12249 5389 12638 15398 7330 11575 12646 12398 15736 10082 10215 6812 11478 10666 7336 13804 6203 15463 10190 9080 21077 4673 4583 9014 7146 65535 4214 9103 3160 9430 13137 8507 9255 11214 7515 12318 11818 12670 8664 9443 12125 4886 6357 8741 9123 9983 11453 7608 10900 5673 5373 5415 9740 10836 6219 10787 12008 3811 8189 6144 4197 6150 13188 9097 3512 12107 65535 12932 3567 14791 15796 12157 6459 15311 9728 0 5508 13373 13108 11540 9643 6880 10024 14240 12538 14799 8022 7793 10462 12798 2708 8774 11978 6354 6571 6360 4737 51459 58885 54485 55538 55945 49633 57521 51858 58823 56310 0 49240 57096 54302 53422 60348 61488 63585 62997 52821 55858 56881 53397 60340 55839 52451 53854 51411 64269 57811 62328 63938 56462 57433 58827 53068 56836 58676 57293 57414 65535 57195 54609 52507 60496 56820 50910 56209
2851 13776 11550 12203 13048 12940 8562 4579 11390 8432 13356 6427 10779 14091 713 4552 13085 5654 11971 2480 9635 5937 0 9053 14696 11077 19461 6661 7796 0 15811 16439 9584 4562 6665 13635 12631 2640 9627 12237 6241 7667 7816 2341 5959 8656 11836 8964 10590 12183 7790 8022 2899 9557 13215 11256 9151 7928 65535 6947 12985 11427 11811 11286 9215 13242 11939 7076 3864 8578 2710 11715 5388 8531 13130 5888 8439 9126 7303 10685 14346 4489 7250 5020 15421 991 5840 65535 7247 4990 8693 1838 5212 10729 14123 9615 11280 15213 3091 12265 8108 8185 5697 8284 2238 10783 11655 5598 12308 18098 11355 4398 7883 12933 6679 12173 5767 12792 12668 2885 11511 6661 4159 11996 8968 12529 9131 9469 13507 8425 7531 9868 10523 7276 10242 6640 2898 12517 9474 11315 6466 15536 8209 3940 7646 8683 3003 7180 65535 6605 11879 14408 13064 9070 3438 10108 8519 12633 9757 11324 10421 10841 11257 5905 10680 9235 9322 15138 11157 5959 4836 6295 5340 7588 12009 12362 10683 8902 12347 6029 8659 6131 5095 12885 7304 13598 6173 9900 7736 6162 10872 5546 56707 55330 58407 51363 53143 51783 55433 56464 59366 54065 51403 65535 57416 54871 56165 54401 53762 58055 58129 56091 59628 49451 53409 61984 55134 52926 56970 56330 60794 59777 61142 52621 57645 54174 57602 54035 56922 60633 58515 53687 56935 59868 53392 54161 52898 60684 51625 56981
15890 6756 18140 9004 14004 10207 8380 10383 7041 12428 17980 4248 8161 9289 11479 10817 10226 14014 4500 5879 9628 8944 1320 6405 8536 4241 8674 10008 7226 1154 12679 9151 10243 6439 5872 8030 14512 10075 2984 10686 10452 8869 11993 11490 11613 8586 13216 7723 13885 6488 9134 12122 9389 3558 7408 9378 7671 10966 9568 9340 3760 7500 12438 9797 9639 6661 10613 1928 6639 8067 10984 9793 1400 1401 9683 12465 12516 6875 9640 10755 11619 8361 9589 13818 9668 7714 12472 17370 6254 9118 17585 16873 16915 14701 4351 11506 9402 8852 9229 65535 11108 6522 16712 14974 11270 8285 3722 10929 14438 5820 5011 6917 8147 16596 8336 4570 7167 11595 11131 7919 7926 14176 17260 8633 9144 8425 8537 6970 10643 12931 12656 8900 16670 11835 13620 6023 12592 9231 4363 65535 2390 2061 12931 15581 11104 10366 289 15698 5896 14384 11469 4430 13788 7517 14807 15445 9070 13408 5719 10132 10705 7437 0 15969 9760 15563 17267 10186 7179 6497 0 1409 12233 13736 10913 14447 12616 16451 10082 65535 12834 11986 12804 8657 4158 2410 1366 10751 6739 5766 9234 4817 12339 9075 3014 5966 11454 11201 10924 10194 53350 49985 54138 52617 49434 51405 59762 56475 61148 56876 53098 58428 54863 60214 60431 56892 51137 55904 60825 55242 57435 57143 52906 51303 57640 57655 55732 54790 55794 58040 59008 59237 57097 52557 57131 58130 58352 54650 51970 65305
2684 14311 6264 21255 10808 6949 5748 11261 5327 4485 6532 5764 3565 5262 9579 13559 0 16153 7821 6097 9521 8619 8318 7790 8800 8549 9772 8131 2983 4745 6157 13246 8871 3898 6092 4663 10931 13317 2744 12731 13705 4036 12386 5177 6295 10279 6779 8081 10269 12043 14230 7591 9962 11361 13638 9268 6472 9686 8766 12872 3836 6105 0 14455 10262 8634 4861 8742 8222 8545 8733 8490 5585 6643 4535 10164 7858 8466 8796 4912 8090 9605 10210 12474 10464 14373 11492 6182 4532 15610 8731 11667 11005 4938 5164 12746 11630 15973 5744 8937 3793 11758 1619 10018 5756 12788 6382 9020 3378 13584 10046 2757 12587 7404 1507 13323 20393 4724 7521 12763 8530 13003 11567 13701 16124 9432 13491 5485 8557 12915 7408 5866 11597 12451 12944 13688 8212 9525 9621 10333 8968 13837 65535 3077 9139 6143 12497 12911 11817 15300 9847 9484 4882 8665 13661 12337 18861 10857 7252 9824 7724 8210 7409 14960 5447 6625 8307 7109 10077 0 5119 5166 2004 9680 8248 9372 732 7402 11324 10983 2835 7682 10219 6069 7075 2829 7227 3369 13284 12873 4805 2611 12353 12096 10140 8534 5336 9304 7423 65535 60028 55370 60910 57979 53830 49866 56616 53812 58297 59739 54780 56443 61918 49407 58988 52896 63060 58163 54257 56117 52465 55723 0 56569 54755 57399 55568 54129 57222 55459 54883 56647 0 54848 61886 52648 56853 55065 52570 54465
11664 5137 9104 8273 7665 8034 8001 9221 5241 0 10644 5349 3839 13367 12239 13627 16550 8799 6523 16250 13285 12563 11620 5735 11283 13066 2619 12108 10256 12114 9081 10096 6974 5848 7031 11405 17111 4769 11758 9417 13056 10358 11259 11128 7372 7894 6966 7755 11449 9969 8872 11967 12576 11963 11516 15070 12123 11252 9153 7182 11143 13863 12862 8972 6912 12029 9523 10017 7886 11439 9250 10346 6540 9300 11235 7700 5957 14552 5542 9444 7017 12012 15088 8771 13173 5495 6593 7821 1751 8405 3409 12959 5942 9627 15873 9790 6413 14450 9894 13675 4700 10409 10069 8332 12253 0 9879 6510 9816 11958 10809 9940 9314 6734 10498 3858 5377 9654 1773 6489 2331 8838 7017 10721 7485 13962 3439 9565 14079 12581 14032 9238 7228 9202 8467 8123 5260 11497 6711 11797 12817 2003 10612 11639 14955 13602 6885 0 8354 14420 8738 12381 7663 6362 9862 12230 5575 9490 9533 11734 3649 16915 65535 10833 8696 15206 5856 9307 11187 4911 7530 9900 11583 11596 7153 65535 7023 7013 10636 12727 6779 9800 4093 10640 8693 14086 9487 11312 65535 9016 3914 6340 14829 6342 7908 65535 7472 10438 5487 6247 49416 55603 62283 55439 54574 53822 59636 55414 57365 61499 56979 50675 65535 54191 60330 57762 53266 63464 56298 52656 54365 59321 53695 55982 59268 51707 60951 58617 49354 62750 52254 58056 52557 57054 52652 54832 55333 58123 60087 55412
11755 9776 14484 12730 4499 0 17515 11395 11377 14518 11394 14075 5529 13838 16311 11681 10562 13910 6422 4326 9546 3963 11310 1532 12145 3500 11464 14417 7215 10505 5123 12036 10757 8189 1760 12329 7988 13408 3364 6188 8928 12054 5461 5912 5727 5387 3135 14253 8983 12399 12120 3589 11357 8790 11374 7340 8727 12153 8999 9223 10715 4110 10956 6337 6757 10024 8528 13561 10666 9935 8659 9736 7722 6269 14888 6119 65535 9089 4695 11683 15157 10312 5061 11880 8154 7210 11331 1263 6132 7234 9687 3829 6661 8168 8013 2913 7679 8970 10459 11419 4805 10381 12229 7121 12413 7490 5400 12217 65535 2438 13648 2733 16037 4544 10718 3804 10522 5894 7226 7630 65535 6873 5307 12478 7572 4524 10245 13541 10094 1577 9529 5225 12431 9404 8919 14413 7892 2482 5005 10732 7658 6792 9361 6215 8373 4824 13496 8407 7032 13730 12234 12501 9613 10205 9603 8106 9079 8837 8278 11677 7826 10322 17802 15116 7635 12655 0 11885 15465 10349 4115 9233 6269 8876 11718 8266 13933 12103 10989 12985 12143 11364 0 7688 0 7209 13810 9451 8183 9052 9920 9643 5739 6167 12737 4255 12345 4010 10866 7450 59107 54378 57999 61939 56979 53110 55207 54260 53410 57182 62648 53409 48138 57625 62468 59994 57818 55053 54440 53102 58529 65535 59406 62261 52263 63118 56984 55912 57637 62953 55092 54040 65535 59126 58830 58400 53731 52100 53977 60396
5676 13021 3083 11212 5012 65535 5683 65535 11492 10466 12815 10335 10132 5721 10513 5038 8182 10604 8068 8786 13784 10068 7699 6352 10954 8231 6134 10885 4001 9098 11112 12820 8481 16383 13980 15739 0 9440 0 5319 65535 8073 10342 11822 7128 9619 6705 12137 9806 9105 6075 8788 12226 13292 8951 18067 11770 10136 14051 11223 10132 9249 3680 4253 2621 2761 14367 3886 10652 13806 10470 6494 14156 8826 10593 12317 9482 7187 8555 13383 10289 14320 9364 7305 5746 10859 7385 6623 10624 5312 7483 9768 10712 14886 6000 3992 10389 1285 12785 16513 0 5207 4837 10640 7473 6189 4260 12282 4437 5763 10375 16737 0 10411 13223 0 9686 9328 7695 11848 17045 7286 9135 11880 13171 7772 4678 10145 9965 3333 11353 5268 6081 6247 6555 6036 11977 8636 7704 13170 12450 6271 13001 10237 11029 12279 6069 5820 4704 4560 5398 10894 13438 3121 4524 3720 8777 5937 1654 12051 12916 7737 13165 8447 13797 11769 7325 6547 13129 4668 9924 11379 10445 12113 10057 3431 11035 11104 6540 8914 2817 7316 8618 3499 65535 14165 9474 7531 8515 8711 5103 5282 11918 4502 5147 5066 5793 9265 12118 16007 58652 65535 64255 54631 59088 49941 58568 58007 49994 50604 60184 54532 58355 52656 61210 57830 53543 65535 59889 58196 60788 65535 52385 65535 52128 53268 56728 58213 58698 58385 50570 58431 57815 51184 59469 61856 52175 63234 58476 53146
10659 9731 0 4155 9446 8642 18635 16264 10298 9263 9679 8219 8425 5592 14825 9424 11734 10931 6564 10778 79 4255 15665 12839 11244 8088 7199 5668 7548 4068 65535 11315 4674 8986 6645 6369 65535 7726 4844 4743 6807 13504 11828 10474 11065 9461 10864 8761 9297 2913 10394 7493 15305 6103 8676 6364 7748 7746 10146 3581 11296 10011 14245 8000 5036 13517 9863 16356 9543 9995 11676 7750 6742 10640 10452 8314 6712 6438 13013 65535 12688 5880 5329 1679 4401 7778 7327 8324 7933 8179 11727 13802 5786 0 10023 9979 12451 2431 7740 12726 0 8136 7720 14630 6887 10865 10822 9492 6288 11174 9991 0 9160 7774 6131 6068 8829 7453 12112 6748 2002 8621 12778 8860 13549 9699 11317 9738 5540 14007 11262 11553 6541 0 8356 7417 13049 3874 8133 5378 2263 10392 6156 7506 8664 5663 13706 10100 8617 2893 9905 3152 4275 7569 5600 13037 5709 6226 15090 7292 8895 8147 9359 7481 12237 7584 13316 7328 4830 6794 15969 11522 11538 7442 5546 8526 8617 6618 0 6100 16249 8101 7010 9223 10252 9458 10934 9179 8823 13614 11958 11237 7253 4578 8757 10071 5491 7101 8772 11683 53349 55667 57368 56944 59652 62859 54575 53055 49031 54747 54626 51337 58184 53540 54443 55322 65535 57525 51340 58894 53798 50429 57170 56354 56090 54212 55256 52300 59417 58060 59801 58749 53431 58597 57600 57860 55196 56255 48490 58473
13656 4390 5299 4978 7804 9865 6306 9433 7686 6616 2756 9088 11544 9141 12662 8518 4101 13969 11832 4989 8088 8280 0 9993 10494 4411 10570 7407 5439 7415 7795 10905 65535 11796 1917 9452 11335 10999 4421 10318 9587 6363 5899 10814 12946 3799 11394 7769 6093 12149 0 8846 9421 10112 0 9250 6725 6024 11755 1419 6676 10229 5036 9602 7946 10750 5512 10580 872 11342 6495 10956 4382 16860 10905 7418 10509 10486 5789 11765 14741 12865 12778 0 7934 11469 10872 3901 7490 17471 10921 10643 0 11632 0 5944 7617 0 6186 8376 3987 7885 8894 12555 3173 11478 12444 7706 9481 10998 3877 10930 12562 5780 65535 8099 7432 7039 10465 0 5057 10181 7977 6385 4541 8229 5249 12885 15534 7179 65535 12243 7407 12891 9961 16593 6272 13240 11952 8269 10496 6489 12400 9971 4525 8146 8259 65535 6535 9280 16115 12836 5903 6656 16377 7665 13970 9731 8376 0 17865 11442 11015 5633 13085 16076 9487 8592 8379 10012 2978 12464 10989 9136 8930 8156 10363 6800 12045 6362 8674 8516 8230 6331 13295 5118 7168 11277 2799 9083 10947 8602 9259 7238 6143 15929 4201 7948 13112 8313 55876 59919 60262 56757 60988 61043 61567 60851 60883 56456 54399 47721 65535 56377 57707 56838 62814 0 60211 54312 60480 63639 58726 63054 53908 50412 55240 53970 55359 62045 56136 47054 59428 59673 56653 57788 61315 48655 65535 52877
5087 14733 10107 11143 8319 7086 5421 11268 6575 7296 8848 6947 13909 13644 8258 8472 7315 4679 9539 8744 8148 9642 7780 8948 14059 12367 4794 11725 15058 8606 12893 8033 12345 9554 11802 10085 14217 7839 9293 9390 8279 9201 7964 10594 6559 4835 7019 8069 3663 6962 15993 10586 5763 0 8366 7898 10452 8824 4871 11475 9342 11708 12633 9456 9333 7320 13603 10319 5580 2402 4081 11282 0 12722 5136 16551 8593 6696 7728 11885 8195 8859 7315 8214 11744 3679 8282 5501 8929 8020 7792 10715 4368 12299 12930 13673 2739 14645 10740 14150 4201 6449 9164 7104 10758 16935 11535 11622 10226 9212 6546 8443 3261 0 10696 7430 11259 12081 11262 15355 15606 2337 10045 8915 9776 13329 3767 8595 14782 13195 8899 11735 8487 15111 5940 11087 8109 10670 12387 8527 10120 6449 11853 8062 8728 13277 8075 8043 4412 7266 0 6965 6283 3428 7783 7991 9591 1991 11100 9261 8567 12897 12190 9096 9164 4926 13522 3582 5162 10855 9131 10072 11584 12981 9169 13720 9884 2585 14014 12038 8096 2149 13190 8379 9709 5424 12540 6343 9503 10861 4845 14620 7042 9602 10506 16150 8338 13496 6537 5276 53453 55920 59014 55553 53402 55232 58392 57074 55082 53154 56136 52226 56488 59387 50466 56753 58032 55748 55836 53328 57409 52927 57690 57632 57945 55496 53306 55756 58227 63728 50295 54981 58132 53350 57280 58849 55690 55103 60441 60442
6941 8307 9534 12477 12457 10141 12146 761 5773 8038 11320 9427 4715 5346 9945 65535 9390 6494 9005 10343 14474 9641 9904 9965 7655 10102 6319 16035 9111 9657 13839 8357 7594 18480 10517 13121 11077 12194 15910 2079 10556 9638 8233 8139 13645 14340 5076 7751 7840 11467 5345 11438 5523 8560 5545 4146 14585 6784 9964 10185 11949 8135 5539 14309 11400 6816 13215 14727 8411 5633 10407 6746 9470 6400 7674 3225 6565 10175 7357 13080 13316 4450 9546 9953 9707 5167 8943 65535 12534 10456 5608 13940 6954 14355 12327 7334 4870 7539 13529 8333 13370 8504 12871 7945 9695 4015 6428 8754 7312 5654 9065 9291 10056 9527 8705 11770 6590 9314 13963 10850 11315 7628 9395 11608 9185 6463 13628 3667 9311 6701 9743 1669 5722 13039 7347 7683 4366 6829 5280 7628 10417 12636 12906 7771 4205 14844 10781 13990 6385 8543 7769 13552 8688 2568 11462 8971 8684 10057 3603 5001 8847 14463 18840 9184 17028 9860 13559 11017 7504 7796 5695 13460 8869 10041 8114 6049 9378 12856 7412 7940 10067 5820 13787 11588 10649 7014 9462 7850 7687 12817 6558 12900 12854 8683 12921 10981 11321 10397 8266 12107 57707 55591 51107 62643 57261 55820 54886 56709 61920 58154 65535 54665 0 62030 58527 59357 59708 59050 60358 56898 52726 56024 58525 57616 50477 59344 55382 57231 52039 54235 62535 58350 56727 58575 53009 55177 59118 58049 54168 48257
6572 15243 7694 7178 10139 13055 6664 15644 7050 8852 6514 9118 10720 0 65535 11523 7989 1248 2707 5175 4106 7360 12638 0 9194 5253 0 7089 8295 11084 8526 10187 9140 6017 0 13212 15360 4459 6627 0 12936 6825 65535 6493 5569 12841 12266 19739 11712 10429 3234 9821 5290 7159 12613 6288 11457 7856 13508 11626 11745 10825 5812 8194 2734 8527 9473 10442 9210 10892 9901 5568 3794 8493 6913 7470 4098 13833 13700 12181 11211 6816 4515 8396 6075 9594 10132 9911 9007 10968 6061 9510 13799 15402 10322 0 0 10597 8981 10655 10621 7786 13451 7400 3255 4001 5493 12447 9438 12035 4536 11557 11237 5431 7924 6333 9798 5524 8698 8314 8888 8272 8798 8191 9529 6896 8572 8867 10489 9935 8543 3846 6722 3922 5484 7320 13442 6395 3275 11875 12125 7367 13709 6968 6140 12717 4392 65535 8493 9487 7827 15976 3951 5830 1399 1884 6977 9388 9461 4065 8072 6106 13349 2751 9917 5842 8020 1667 5466 12986 4888 11428 3387 14957 18820 7268 8540 7759 4560 14632 5333 9860 14367 4344 12234 9909 10572 7148 9936 7301 14799 9738 12723 7901 8007 7873 6285 10984 15314 2243 54734 56097 58735 53348 54408 65535 54291 58058 56372 60865 58835 47182 53516 60275 57712 51624 61804 56161 61652 61114 56451 54330 56222 55500 48985 60982 55670 54493 52003 55844 54810 54575 49764 57863 57589 48137 55261 0 53017 55347
9580 10410 10231 6095 11464 5958 9099 8617 7445 5579 13923 6704 9836 3271 7903 8283 4214 12331 12005 7726 8859 6660 7750 10460 10242 6831 13038 2055 7095 7463 11651 9820 14525 5577 6863 5526 6223 9744 2547 10799 11171 9173 1297 2994 8793 14871 9220 11439 6087 10967 14267 12311 7593 7391 3130 6746 7838 13340 7159 0 10300 7365 6890 2453 9725 9805 4744 8980 7526 10269 14389 15543 5481 7345 0 5331 3344 8569 6569 5723 7998 5171 4851 16355 6805 9122 9088 555 5763 12857 8876 9639 10998 10152 12938 8893 10418 12739 5418 5129 3078 10293 4845 7273 8245 10591 12423 930 0 12264 12416 11266 6295 17167 10290 14092 8070 15489 11696 7430 8573 4820 4066 10717 5289 10304 6048 8941 4922 12093 9240 5223 7417 9397 7801 4218 4258 6287 13720 6441 12274 6586 0 14478 8617 6447 8582 3908 8857 9284 3653 12016 6634 1423 15785 7706 11282 0 13037 14333 10637 9384 4355 13949 14068 6160 1476 8235 11778 11144 7828 1837 10359 8962 19348 11267 9311 9928 4699 12765 10566 6856 3518 9733 4230 7324 13059 2875 13644 11052 5271 9547 10636 2106 11697 10041 3422 11931 13468 6166 61825 51650 57563 59031 59800 60732 58977 55906 55198 57488 58711 60627 51156 54995 54565 57935 54894 52717 55873 52133 58240 52725 65535 50721 56491 53365 53069 55304 50721 59070 60173 54737 52970 50161 57818 60225 56888 50495 53048 54685
12077 10557 3305 65535 5399 7828 8491 9674 8824 7152 9512 7189 7902 10093 1318 8867 6109 11072 7582 9163 7206 11501 8990 12848 6652 19487 7398 10848 11378 6943 10404 2974 4457 6637 8379 13208 8683 9055 14695 7636 2394 13088 13307 13060 13524 6221 16190 8117 10785 7862 8313 2668 11246 6730 12219 5625 2224 10875 10700 8365 8536 7658 6654 10191 9253 12938 6901 9582 8211 7550 6955 7073 11807 7465 12123 6049 7954 11958 7009 17960 8894 9199 7602 9382 13165 5690 16739 5144 14953 5334 12767 9890 8725 0 11852 8664 16221 11486 14628 65535 8259 11204 13509 12456 7111 4672 6018 7515 8987 0 9099 5228 9582 11112 9419 16053 13007 17224 11690 9262 12473 9908 10410 12524 3201 12830 5914 8529 8051 16609 3234 13621 12382 13455 8740 9340 12828 8804 4563 7608 12032 10044 6863 9013 5007 8365 11365 13226 9911 8684 16789 8083 10936 11313 9838 6760 0 10535 6989 6447 8187 12133 12729 11500 13118 3212 11461 6998 10572 11250 4500 10169 9153 7943 0 1483 11147 8800 9267 9134 12848 12441 13295 9290 8351 11296 12866 12352 14092 8404 10292 7848 5176 5681 13362 9614 9731 11151 12667 4399 53501 56250 55541 51663 56339 48982 56896 56065 57886 54724 58076 54679 57524 52725 48448 54499 58406 60712 59320 55609 62865 58352 64445 51268 54944 54915 49067 56422 64837 57482 51591 58751 57260 52662 54643 54420 55582 58913 63034 54991
7462 10532 7847 7126 7228 5156 11029 10414 9784 6473 6432 10057 9018 0 4245 7528 9834 2568 10364 6108 6914 0 12918 12445 7584 14305 12368 9295 9769 8784 12424 12412 7559 7508 13552 0 4282 9361 13553 11678 0 9425 5511 4648 2963 11343 11868 11528 3647 14128 12045 8497 12434 8977 11722 65535 9220 930 13375 7663 4679 11975 10794 11957 9840 65535 13849 10595 8685 4298 6661 6395 9333 10244 17181 9541 9997 2005 12267 13680 7077 3383 9878 11566 3583 11307 4745 8719 5146 8871 4825 12927 11390 5707 11635 8187 15390 12157 4455 7513 8572 6090 4704 8035 5004 5020 11406 8987 9192 8608 12082 12616 5375 9396 10291 10780 11369 6476 11135 13061 8740 7766 7635 4039 0 8713 6845 6988 0 9001 10615 14212 9581 65535 8280 14161 7867 9076 13855 65535 9593 10671 9416 7926 10555 14017 12708 5470 11252 5635 10294 7135 12204 7736 11569 10364 7724 12996 8885 11894 11626 14597 8436 7796 11489 16208 6913 8574 4978 11204 9661 12822 7540 10700 11410 11049 7256 8646 6998 6299 8742 10501 11558 12535 3870 9754 12309 16490 9842 6590 11191 6737 9759 4576 5141 606 6990 9993 10691 7609 57601 55487 59713 53548 52818 59885 55041 60114 49145 53670 62825 52912 60987 58781 61801 61689 61106 56302 53122 57125 52240 60846 54855 57913 52504 46956 56606 50509 61083 53801 65013 60932 55493 0 57314 52223 65535 55673 65217 50727
12376 9874 9377 5145 7605 8083 5401 11539 11783 1319 7666 5412 10520 8076 0 3944 10009 7257 6835 8833 5009 11502 10671 10846 8775 7492 65535 9959 6723 10207 11279 4181 9735 8486 13166 7692 6531 2997 65535 3520 11841 11236 18207 65535 12460 6801 11246 7542 10549 9452 10791 9010 8937 6250 9110 5103 9074 12785 13750 8201 10422 10527 5922 5397 2992 3798 11356 8772 4487 11721 6827 11727 2377 8666 17334 15272 10841 14610 13628 10567 5483 9591 11186 9601 3647 10010 6685 14454 9167 0 10942 7566 6631 8555 14016 8725 11171 13907 6898 4915 8543 13414 7287 3300 7823 6623 6211 16233 3841 9862 10237 8847 10270 7738 10815 10948 0 8419 8924 7451 10269 14957 11400 10477 6956 10895 5428 4646 9343 240 14370 12508 6273 6904 8710 8434 8122 6322 14789 16444 14937 14907 10224 8838 4835 6192 13096 7165 4405 10508 15319 15915 79 6649 11646 6567 12352 9202 184 8131 3658 3424 8733 3696 10209 7815 14328 8817 4407 9469 10575 10464 8297 11560 6706 10181 9655 9920 11511 11684 5248 6271 10396 10403 7246 9377 0 6769 10320 8569 65535 6401 7950 6034 2567 15928 8098 7765 13249 3253 56067 53410 57643 57489 55738 62326 53101 63339 53625 57938 60479 52935 59138 52402 58452 60327 56460 56700 60659 59287 54603 56516 55509 59633 49504 59459 65535 55694 53257 52396 59271 53110 56702 58475 58101 57013 59968 54701 0 54630
5508 7906 8077 3586 3574 10829 8138 7361 4150 10932 7890 10387 7298 7478 12611 8458 10018 8009 6833 6507 10071 11386 11194 13177 13457 14113 10014 7583 4260 11698 6277 6375 13447 11377 5448 5603 7332 9984 12398 4650 10952 2887 8355 6760 5228 7895 9430 2657 8819 13605 7265 14676 17828 6011 4954 11522 8512 16345 5987 7919 3056 4820 8313 14460 8899 10929 3763 5046 8790 9349 5783 7895 5017 4952 4286 7028 7840 7812 11063 5438 4854 8836 6082 11132 6784 11078 6021 6941 11283 9180 9224 1290 7710 4404 7769 14461 2205 12201 7833 11935 13300 0 12870 11870 6987 13430 13440 11516 10396 11238 11450 9741 9569 7899 9424 10192 5760 13891 5426 11447 6697 13032 7776 11916 7608 13626 4699 6448 7574 10022 8769 10574 12172 10137 8147 11693 8619 15037 12813 8867 8553 9710 11018 8564 10776 9966 9669 8883 9418 7142 9578 9306 8085 5739 7230 8521 6881 11136 10340 1711 13213 1598 6549 5379 65535 5136 9051 10327 8788 9104 11040 12002 0 10431 10114 11527 14446 14355 5910 8347 12552 11079 0 6437 7570 65535 13445 6839 8331 7002 4215 3962 8011 9987 12196 9625 7686 9347 9065 16642 59995 57945 57263 59029 55108 53890 63003 55578 55586 48175 56152 58609 53240 51591 52473 60033 57791 55202 52314 55815 56768 53623 50143 59872 64948 59405 54086 51057 57388 57090 60783 54396 51196 51744 63700 54449 54221 52159 65535 60873
14921 6707 5721 8670 8945 10442 5776 8168 9618 10750 9758 7954 5836 12250 10635 65535 11283 0 9368 6408 7139 6089 4850 9975 12935 6050 13956 13907 9325 7427 12106 7225 7102 6372 14894 8971 4040 10870 10846 7454 8520 7842 8664 11852 14752 10784 1263 9073 10139 5403 7664 13296 14732 8951 8266 5825 8880 5986 8274 9476 6370 8881 11669 5592 18438 16605 7291 10347 7000 2109 3141 5380 9517 13814 6831 13296 9719 11463 8284 4887 9023 10277 18257 8713 7459 6183 9845 6384 6291 9071 8915 7717 11595 3849 0 7212 16175 6914 7981 11386 9695 13815 9878 4131 5615 9518 2037 3483 4514 18105 4178 12984 8080 9008 6156 9683 0 6121 8613 13857 10107 15184 11438 12539 4532 6306 8198 5354 7618 6672 11290 7176 10416 9651 5166 7028 3104 11173 4974 7462 9275 8074 7478 10344 12363 4976 4401 8283 7171 8761 8701 10519 6552 9440 10276 1604 4307 7304 10337 7131 5480 8022 8400 12733 11304 11286 12787 8815 8418 13949 8525 65535 7766 4596 10365 12765 12719 10642 12914 0 5065 2612 13321 6919 12040 4574 13978 12760 8445 8358 8764 9376 13845 9171 8391 6811 9897 9268 7132 0 56807 65535 61441 55528 58624 54966 53177 59805 59553 57052 53073 53943 54417 61153 56301 57140 55663 59436 53580 59114 56987 53435 54539 56981 52030 56178 54761 56015 56148 54725 55542 0 55745 62323 55515 51773 56962 55995 56509 55709
57433 57432 57241 57504 63316 53228 65535 57253 6780 1412 3542 7978 0 8463 9378 6612 0 8625 10173 6616 6709 5086 11551 3005 10246 16347 6027 11616 6496 14538 7202 7984 7311 8166 9665 4693 5263 5333 10358 7145 8317 13220 12107 6896 1673 2605 9922 4791 5842 3422 7921 8128 7481 14557 0 6052 5051 4626 5718 3368 6881 12717 7072 8361 9638 16377 16303 736 11735 12713 10400 7367 6578 7800 6850 14332 6617 5405 5173 6674 7645 8689 8719 8693 12404 0 11416 44 7376 10601 9779 6795 10213 7903 7079 7093 11323 10015 7978 4839 9520 12719 11205 7491 2228 7911 14250 11000 6808 11488 9124 9324 10906 12812 5663 11347 4460 14846 1046 11240 11263 10701 15566 6081 12230 6726 10110 9925 9926 5499 12835 6615 7971 9119 10639 7297 8926 5550 9417 4062 4703 9244 9292 7936 11455 4528 7418 9438 13469 8200 10248 10353 7861 9358 9053 9219 11583 10430 14059 3611 10993 7239 5128 10637 7846 8972 15576 10464 3182 4080 2485 8598 6803 10009 10768 13127 11315 7488 9414 5426 9940 2333 14580 10628 65535 9462 8582 2851 10670 11738 4231 8048 4870 16798 6617 7346 11498 5538 10047 2366 9660 11650 12215 10451 6673 4215 3859 8049 56620 56853 57234 57021 55186 0 53614 58056 59578 59381 56248 65535 64126 53826 57324 55914 55129 56190 54860 56990 53271 57572 57459 53851 57766 65535 58342 54271 55629 55131 60536 57576
58155 56497 57398 58889 55674 61396 54850 53761 15815 10977 9516 10014 8206 12571 11143 6156 10276 8489 10124 8805 7270 7292 7312 9074 11885 7942 6038 7580 6599 10917 12152 10741 7579 11929 8073 1376 14166 10157 9936 15305 11183 6618 15937 5820 11345 9107 2644 4433 9013 9883 7687 8610 2101 9846 11091 11913 14289 4226 9590 8186 11199 13991 8088 9445 8257 9914 12474 13498 10168 9829 5583 12453 12868 11427 7649 10656 7915 6673 13732 5439 13660 5578 8952 10548 13664 4372 5727 5726 11773 7706 4341 5403 10415 12738 11023 7677 12164 11986 13163 8041 7773 11874 6324 71 11810 6646 10979 7636 12400 5318 12598 8163 15907 1293 6196 5399 13529 6161 9335 5459 6991 6296 8142 5564 8350 11682 15323 17318 2679 13358 11361 13243 7286 7188 9669 8258 8596 9171 8528 10850 10620 9295 14166 10424 8566 6891 7309 10162 11884 11560 8299 1136 10436 11065 11831 8850 5309 7423 15443 8511 6511 10028 5092 4766 14021 10102 6074 6169 10264 14046 12872 10497 11090 9040 9665 5799 3341 2695 12445 10325 7193 15649 10344 7227 14876 14141 14263 15433 6001 10003 8969 9524 13564 5113 18225 12793 65535 13106 8828 13085 11867 9081 8167 11157 5021 5768 13804 0 54308 55731 63433 57837 0 53146 52996 61156 55122 54802 58547 54025 65535 52629 54707 59216 60593 58724 62927 54010 60137 53437 55685 59365 54039 56056 56943 58743 55523 54788 58765 60577
60987 55750 51889 60086 62336 48411 65535 59967 6724 13945 3216 8546 10528 6276 3106 11345 2445 9052 11810 3204 5842 0 11691 13001 6649 15059 15495 7929 14551 2137 4565 9057 9187 8733 7395 9412 3144 11103 9572 9757 4274 11694 6484 18742 6660 7980 8059 5162 9456 6875 10286 15867 6898 10596 7327 12633 10990 5956 10000 5907 8281 10412 4491 12903 6987 10482 3552 7656 10419 6328 4866 7707 2084 5872 11021 12209 2870 15962 7049 16145 8718 12858 5400 6208 10749 13767 13854 9846 11068 4869 7277 866 8210 8537 14255 5625 6457 10505 11055 8619 3517 11788 5572 5872 7965 8464 11790 15683 5004 9137 11715 12299 10884 8466 8691 11715 6077 9041 8083 7092 9702 0 0 7381 4435 9717 7329 5749 2173 13360 12708 7493 8132 3652 3735 8047 6935 14201 5995 4296 9460 12070 10291 12325 8716 10326 9126 8052 4762 8443 8085 5310 9104 12369 8059 12281 8085 6910 8954 3538 4385 3745 4952 10237 10766 826 5084 13310 5635 11150 8994 12101 4244 7476 9784 4949 7981 6548 12004 6910 3496 2833 10762 5746 8543 1686 5528 10993 13400 16144 17122 13075 8250 13380 9048 10380 12842 12854 8999 9418 11668 65535 65535 7787 8999 7379 9918 502 59485 65535 53752 51948 56324 58169 50179 56759 52032 52119 56097 50670 45214 65535 59472 58180 53482 59319 53388 52733 56343 52409 54138 57436 61474 60570 58936 50659 57092 58289 56816 55272
53333 51576 59084 56637 62824 60359 48373 59448 15713 10647 12192 5732 7182 2551 2698 5571 7525 7063 7807 13437 10362 8192 10595 7966 10462 8838 8887 11101 11941 6771 7548 7354 9463 5168 6046 9159 9874 7979 6881 9022 7589 11765 8315 14614 4523 10423 13518 13963 6148 8177 4157 3916 8777 6870 12547 9728 11890 10752 8795 9900 7843 7034 5279 8677 8654 16582 6798 10521 8137 7091 8040 12602 10040 6174 11289 8477 11885 0 12445 9576 3606 9453 3509 12409 10482 11215 2761 2911 11374 12921 8717 5214 6197 8952 18782 6068 11264 8288 12888 9160 11076 4938 9004 10902 13217 11781 7057 8157 9248 7565 7246 8449 12687 6859 6267 9948 3235 13981 11089 6456 5362 391 6595 192 11209 9371 5166 18095 12209 3944 10028 65535 6962 8722 6372 5163 6405 10639 10675 7932 8629 4456 12821 8093 10472 4810 7442 7521 3862 13393 3106 5984 6482 11217 12211 8014 0 0 10985 1663 1592 5512 11393 3900 15384 10100 5749 7900 13454 12531 0 6282 11674 2121 9267 3748 11926 4682 11350 9789 6270 11398 16824 10629 7594 2710 6842 5645 17539 7776 12719 9127 9443 7652 7055 2520 8364 13488 8093 10441 12205 5899 13215 4419 9639 4564 65535 5109 53210 56039 51223 52669 57788 54599 54844 48274 58630 55316 59918 56206 54341 57144 59168 50813 57852 58873 56612 55313 60136 63162 55208 55001 59213 57422 63544 58146 54392 52438 53964 55100
57355 58196 56536 50442 52614 57856 55591 53872 9706 6186 4106 9772 8793 10907 11320 9122 3308 4595 7263 5637 3134 3339 5904 9832 3330 11081 9439 8168 8229 12127 10851 11097 15505 13561 13001 16485 7579 9681 0 10907 9369 8599 14950 11920 4783 8514 7027 8270 8370 15187 10354 6833 9128 13076 10143 12603 10282 11773 11640 11619 8167 13213 6626 10334 9688 1247 8037 10302 6090 13134 11756 10147 9625 17385 9539 7594 12967 0 7289 10948 7991 9749 2434 4398 8835 11730 7690 7161 7721 11164 10899 9354 11737 0 6722 10000 12903 13418 9041 12567 10602 15875 4487 8002 12426 12373 12855 5082 12250 4960 8061 1916 4508 9042 6768 596 9971 9828 6367 4092 65535 7607 8617 10072 9378 5442 10688 17428 4445 16734 13095 5868 6777 7589 11345 65535 5779 11096 10257 1026 4020 5353 5162 8095 7215 9099 10486 6487 10785 10299 15075 7101 0 8986 8329 9793 8887 7341 10976 11948 9830 14156 10845 8520 14233 842 3767 8546 5667 7309 4632 9687 11056 12065 9062 9037 9686 8869 10236 16011 7540 8954 9424 11223 14484 7667 8039 9465 8623 7990 9606 8795 3811 10806 11786 9997 0 7891 7115 0 9001 8005 14481 10354 10050 5970 7176 6221 49765 60489 56174 61932 52311 57173 60112 55671 60637 53595 58658 61366 53206 57544 55799 52184 56378 55692 59318 56326 58119 55655 56369 50011 57447 50925 47125 62214 54045 63266 55980 58953
60053 58250 51213 65535 59862 55083 56092 57903 7524 7102 10798 199 12757 3049 11649 9493 9046 12488 13499 2527 0 13165 0 9117 1239 3500 3478 6818 7277 597 7456 7000 11250 8635 15371 11305 2545 12465 13631 12997 7062 6914 12304 7013 9828 11675 3725 3621 7089 9879 9401 7121 7852 7248 4586 7728 3868 5462 4327 17102 15380 11386 7998 13045 14585 10543 8333 8560 7254 5396 15555 9141 15253 7053 14880 6228 10002 12054 11017 3029 11806 13552 10133 9395 8963 6280 10996 6809 10293 9884 13659 11544 12223 3701 7414 5593 9256 8209 8570 9564 7402 13116 12682 7464 10381 4857 9646 0 8918 6766 6184 5059 12211 13974 10229 9163 14178 13211 11565 9389 9978 11133 8746 13211 11925 8823 15915 7967 9347 16761 5893 8067 6694 4213 8887 3922 12673 4950 13499 7297 5826 3835 8013 9185 9821 8537 13339 11993 8438 7865 10393 5062 0 8534 12228 15284 5269 3770 18613 12721 12243 6695 11329 8671 9989 6784 9694 8687 5655 6279 3187 5841 2612 6645 0 10590 7821 7989 8585 12798 14420 5677 10631 11455 11590 9452 10543 16732 12506 8171 7994 9488 5129 0 13694 13252 7162 7252 8529 9342 65535 13203 10014 4412 9935 6743 10566 6955 63746 60785 58227 59254 59329 64308 58517 65535 57943 58850 53510 58556 56242 54815 54441 58776 55483 57407 57855 56925 53284 53110 60728 51689 57249 56433 51530 51011 52476 62573 55700 56373
53646 55311 57929 54547 51282 50468 52583 62011 8413 7659 10677 8765 9864 8790 10892 13651 3157 16491 8642 5836 9766 14589 11876 3495 12396 9312 10087 9016 14600 12836 7046 12003 11519 12767 14597 15264 65535 5499 7437 8465 3489 12840 10214 10281 9221 65535 9722 65535 10153 4303 8254 65535 4184 8928 6317 5249 11110 5737 6310 13823 10653 2799 11219 7579 11296 8310 5503 3526 5085 5247 15863 16459 8405 11760 10167 0 9634 9291 11538 14202 5590 4038 10776 10706 7008 10605 8755 15157 11548 6909 6474 13717 13093 10453 6026 9418 13905 7732 11212 65535 14581 7492 11937 7727 10898 7102 10457 11657 10524 1539 6925 11024 4216 9713 8816 4075 5927 6526 8692 9696 11119 10551 9443 0 12264 7684 13277 9273 7455 12689 7427 1128 7211 9707 9016 6843 6235 11150 10473 9048 15577 9943 5202 7188 4622 11730 8504 0 575 10620 6908 11601 11710 14143 3767 12374 4925 4492 11743 6883 11784 10477 3465 6828 4622 7307 11359 5050 8905 16678 12186 8009 0 10908 12164 4166 6089 9840 6724 3749 12727 12784 14213 7437 13053 5730 0 11131 10814 1675 6332 15457 12377 14142 14776 15224 9257 9336 10735 8256 9516 5521 11806 10598 5817 7059 15068 12367 57958 57770 53140 55414 62027 54668 60999 54831 55712 60716 51878 56452 62181 59470 57922 50275 59905 56117 61277 52013 58546 50311 58622 59628 54627 53275 48539 53132 57279 54185 53449 52252
54554 0 57690 55956 58398 53740 56741 57554 6555 14415 1199 8221 6451 5455 8074 8906 7991 797 9426 9478 16476 1464 65535 7542 2408 10802 7469 10214 5428 11743 6993 9858 11275 8392 7446 10921 7840 11213 6868 12642 14660 0 9800 11426 12907 8923 7791 7966 3518 10412 8234 6562 11875 8112 2740 9091 12476 11870 8052 10102 9301 12653 8190 12898 12499 5105 8962 9304 6901 3838 65535 13347 4846 1782 7886 4226 9283 7418 5495 9527 0 7147 876 11131 8954 65535 6509 9697 8662 3601 7001 6138 12051 65535 8895 9738 7179 10819 15990 10022 5267 17706 5214 7924 11661 11305 8912 5475 11731 16569 8935 9207 7367 9382 11789 3829 11471 8157 7641 10435 8532 7960 9817 7945 4990 9632 11647 10584 12167 16602 12441 2779 0 11702 4985 10918 10478 7533 8571 7137 9086 9632 6906 13581 9694 7268 15583 0 4304 13786 11399 8439 11016 963 4504 9996 0 7463 7397 16141 16536 12085 7625 9068 11170 8672 10479 17480 10192 9727 8180 14005 5376 7162 8204 8090 6629 6931 8429 5970 11247 8287 4942 8270 6704 12841 13896 8976 6695 11327 10874 16570 8072 10440 10431 5042 9920 14235 6290 10508 12579 9825 11897 5930 5078 13196 14985 12244 51209 60140 57909 56708 52634 55500 57171 50555 56756 55989 52467 55333 54673 57021 62875 55639 60824 62533 53552 65535 52488 60623 52715 58389 65535 47741 52605 51673 59726 52750 54790 58582
56599 52581 57313 54953 60724 50337 62197 61450 55738 57831 54012 61420 56707 60373 56177 57712 51359 58578 52578 59238 60956 57936 56750 57187 11806 65535 8636 13150 11884 3791 5734 11773 7888 15391 9066 7791 4032 7165 6168 12507 2766 9705 8608 7050 3607 5622 6315 12233 11950 5405 13904 9634 11510 0 11382 2071 9161 13227 0 12207 65535 7881 7263 8126 11051 11888 9343 10949 7689 11919 12068 6380 13838 4954 11823 7847 10877 6805 9843 10698 14634 5982 0 1592 13365 6020 11386 8489 11529 12217 4782 15424 11225 9457 9515 1449 11449 9174 12979 4808 5640 6542 9983 65535 10868 8157 65535 6285 14661 13633 9035 9005 8558 7307 4334 65535 11690 5202 8455 7880 10596 7334 9654 9128 218 9953 9243 7415 3059 7086 12039 7201 11441 7387 757 11639 7063 8888 2342 13254 13730 5787 8568 7679 16313 6511 12240 8471 6418 12269 6504 9245 6980 11362 8185 821 8577 7763 11932 6423 7154 5888 10819 6930 11635 6243 16007 7138 10944 0 10682 11579 5811 6537 9821 7392 8240 10372 12360 4667 9594 6598 5126 6451 3236 13197 8263 13817 8477 5844 9557 11102 13764 12476 65535 8119 2959 7713 17915 13034 7902 9282 4104 8571 7498 7222 13810 2980 12628 3718 8633 6405 6129 5424 5415 13210 57664 52903 54191 57610 59735 64307 53107 56847 58735 59224 56005 57554 53595 57469 55275 60531 54819 56670 56326 55845 54803 0 65535 53525
52711 65535 59122 52528 53520 62549 56620 54710 55410 55512 58674 53655 58099 55596 53981 55494 57663 65535 55216 54466 54975 57318 52695 55058 0 10167 12733 8928 9029 6667 17051 7602 6750 11707 4159 4614 7576 8142 12719 5987 14053 11773 65535 11444 9578 10806 8211 12497 11931 12842 3119 4355 16338 8531 5192 6654 7283 9241 13426 17689 5289 9532 7115 7960 9806 12396 11902 2555 14639 13752 3934 8427 7905 1503 5855 11745 9625 6140 13068 5300 5678 15394 9554 9761 13272 11621 11436 4920 7708 4382 65535 14741 2720 7507 7694 11439 9210 9741 7793 6587 6546 7744 10006 0 8612 9051 7182 13426 7252 14981 4997 9378 10750 6617 223 15031 2339 11732 7402 11586 12701 4700 6986 7925 8792 9958 11666 7810 10001 12329 11536 10630 8057 9700 1257 3722 6327 6406 8656 13880 9679 14788 10000 65535 13997 5080 11851 2345 11188 5591 12018 5348 3315 7649 1490 7664 5654 65535 8259 13439 3372 6968 65535 5158 11870 4549 6478 11012 10623 7618 4921 10263 2577 8153 5340 6172 7477 9309 15865 5957 12235 10212 4520 8812 4512 14029 11406 14575 9338 15271 9860 14235 7979 65535 8064 11059 9671 6474 8125 6304 11303 0 5821 12523 1914 10165 8665 11894 5168 2741 3421 8421 8579 8113 5744 8987 56785 56313 59427 58684 63937 53917 55151 55512 58828 58563 57020 51148 59877 59909 62581 56882 56221 53393 59636 52582 61841 61854 57287 54125
55967 54519 55791 57489 54791 57674 56199 55563 63397 58286 55616 54216 65535 51183 57747 60474 58723 54930 58288 55393 51931 53939 56401 54320 18417 9588 6971 1452 1902 1920 5665 3061 6311 8291 6867 4682 7312 0 1452 9985 10646 2263 10291 15008 13795 10100 7321 10297 12144 0 7617 11064 11059 9866 6818 12434 0 10983 13649 6602 9350 8347 8180 8544 3508 2822 15416 7418 6973 9144 9846 10613 4558 11669 7719 7115 15738 7872 12162 5147 9789 10024 9669 8037 7296 0 5504 8249 7487 8323 12984 11425 7572 6455 10836 5418 10730 11390 9977 5426 11405 9292 6563 5986 7234 11402 6735 9846 9490 10889 8912 9436 8816 7111 10396 16468 5650 4962 12305 4291 12795 12574 11441 3212 0 2430 10731 7345 9274 9053 8302 8755 10586 11188 8188 12006 9288 4392 4870 12516 4727 9631 6859 10328 65535 4254 12747 3871 8705 6606 13729 1991 13905 8639 12731 6908 12758 5858 12815 9352 3086 10454 9947 9145 7365 9558 12372 10041 10699 8113 12245 10155 11729 7767 15810 6068 9322 7279 3343 6436 12216 6675 16819 5963 827 6516 10813 7426 9191 8202 8447 8885 5622 10137 10487 9116 12075 12454 3727 9198 9362 8419 65535 11156 8043 6478 11161 13171 17113 3526 10183 6841 10561 15222 8760 10759 55266 59707 55188 49483 61255 57026 58361 58939 59503 53592 54230 56399 50871 59618 54435 53516 54801 56988 55212 51794 0 60413 58682 56274
50390 59865 57444 60462 52181 58966 57567 56674 55828 60270 58128 58730 54506 58800 65535 59596 55842 60030 50802 54468 55457 62867 58662 57315 2190 4491 7918 8501 12754 7890 9468 7189 6600 10334 9211 10972 8779 15204 11193 16434 10915 5980 10866 9967 7388 14267 9785 6732 8945 12279 10502 12361 7467 9419 6419 8671 11593 9700 13066 13679 65535 9211 3124 7393 4617 8892 19326 10270 7073 6878 11220 5115 12726 5751 5301 8670 5648 12282 11362 7675 8286 11159 9375 11720 4734 9330 3963 4008 10175 7302 3032 14449 8510 0 8823 10896 12728 7266 4146 13389 5300 16049 4481 7047 9957 7788 6865 7607 4306 16054 6689 8694 9418 6647 9362 1680 10884 12508 4627 7226 9175 10319 7622 3989 11199 14603 8858 8338 5593 12145 8052 6702 8475 10933 7204 14370 7552 5817 8754 8281 8381 13230 6587 15118 7321 8040 10797 11103 7424 10434 13055 8952 12492 9870 8228 8429 4409 13753 0 7639 8198 11228 4158 6969 5779 8401 8616 7260 11367 9733 11140 8576 4858 7911 7011 8505 8988 8931 8935 12757 10433 15936 9554 10133 7344 6230 7578 10900 7623 12626 9449 6797 7616 1511 10782 2670 3395 9369 6956 13458 7729 7362 9909 7297 0 9077 6188 4494 11224 10364 13616 10740 6077 14956 6792 14095 57439 51912 54331 55183 55991 62104 56424 55145 56919 61682 60464 58919 60433 50331 59647 54711 58685 55532 55510 58616 52725 57526 59464 58651
53799 0 56518 59530 54076 54423 57872 59443 55890 63040 53311 58503 53489 54701 55992 56653 59706 60855 60299 53433 53485 50858 57308 59350 16580 10084 9902 14137 11020 14749 9888 7972 6294 8202 8066 5636 0 3448 16701 10830 1514 10160 10729 3571 8568 9010 8207 11335 9483 5285 11791 8299 13690 957 5513 3371 0 4320 4060 12416 16352 7501 10541 8044 9725 104 11713 11329 6744 3996 6988 4057 14638 12964 10179 6389 9068 16257 8783 9586 9532 15260 65535 8286 5498 9096 7485 10215 7964 8377 8187 8975 16386 7565 10055 6937 8958 6602 10981 10755 7301 10093 7927 11060 12040 10190 10471 1635 6144 8521 11919 7064 7018 1632 7775 9338 15390 8370 10474 5546 7416 908 13525 4600 17309 7405 15047 10896 10975 7742 10081 16188 6222 13681 9113 863 6445 8840 7858 10703 9441 9090 9040 9904 12197 9461 11142 8363 7351 4573 6558 13358 11147 1763 0 12127 8489 11292 14630 6643 12616 9934 7328 14355 11294 10838 9964 12506 0 14177 3455 10871 9051 6943 9962 9236 5771 0 4818 8666 14759 6473 7148 10730 14870 9964 10687 10888 7137 11488 1512 6350 7020 5554 15932 9265 5079 0 10542 7485 6472 8990 14302 6637 7387 3432 11635 8767 2251 10524 2934 4898 11108 5518 10954 13970 55700 57321 57061 59599 59826 49855 56382 53654 60820 52021 53153 53719 53213 60761 57715 53860 57401 54702 54484 53097 55465 65535 0 58886
56091 61659 50678 53572 53085 59103 58163 56507 58596 58044 60461 61475 57124 54209 59389 59183 56731 54805 58430 56677 53306 56800 51039 0 9093 10766 10161 6650 2692 4512 7117 5121 11099 15776 12408 9213 9429 7242 3974 12230 9099 8403 6424 1062 9653 11766 14305 11950 8317 12065 7334 0 8186 10761 12875 7476 10990 12304 6742 8338 2034 4003 7062 4029 11756 7354 13868 5085 17699 2918 6318 15119 6187 10156 8086 12609 6710 12411 9566 9750 4930 7797 7341 11473 9964 11685 9065 10047 0 3943 10584 5025 9606 9150 13457 7292 12654 12288 9771 10439 14685 10590 6601 12797 8952 16763 8003 6036 14854 12981 15053 2502 13068 7837 5351 5083 2743 3369 7976 7751 65535 6627 16298 6378 11700 0 7493 14348 11171 7213 8693 14590 6847 11820 8315 8017 0 3019 7348 9383 12718 13407 11779 9558 11280 1075 5953 0 8923 7872 7210 8295 12205 3634 14550 10526 5614 11308 11134 13250 8130 5485 12132 9208 13559 0 12766 5854 7996 0 5389 11123 8873 16012 10300 14618 6266 8266 6258 4680 4458 6504 13942 9141 3261 8082 8085 7906 8675 17112 12657 8844 8989 7169 10380 2233 10066 1902 10990 10535 9615 8946 1555 11690 5302 4344 16316 5900 10625 9041 11925 10948 15189 12418 8193 6989 55499 64899 57490 57046 56290 52405 55734 59945 53533 60629 60760 52984 58979 59742 51490 57344 63512 53941 60825 53313 54898 53546 49115 51337
57218 54904 61088 59362 61359 57258 54649 53491 54421 53295 54543 57487 55560 50822 63007 56606 57184 59010 51539 55966 64653 59450 59795 53876 5170 6248 1623 9938 6860 5586 8769 4467 15140 7886 6790 8135 7503 9023 2672 763 11222 13478 12528 12660 0 12119 5313 6682 9122 14698 7370 13348 14850 10575 7370 65535 13572 9492 0 10392 6672 10394 12150 6257 7811 13255 10290 16166 14304 13549 13508 5125 10152 8951 7655 5386 13106 9841 7414 8032 2173 13571 11151 9561 7839 13567 4844 15602 10656 12546 9182 9764 13832 10772 13552 8609 0 886 8642 6991 7019 12129 9031 9497 8304 8377 7964 0 5420 10696 7863 12701 6617 14064 7296 8608 5763 5996 5909 11062 8001 4723 12735 4667 12392 9673 7194 12452 6441 14069 10821 10307 10667 10566 12597 4735 9352 10698 8911 3105 3771 11896 7991 4911 5299 7161 11134 7195 16590 10691 5886 6159 8103 8216 4340 11115 8266 10996 5124 1647 8613 5366 7157 14481 12682 6605 7682 6976 5749 8407 11029 9445 13452 7195 10821 7544 8025 11250 8295 4270 12794 8416 11187 10810 13874 12854 9007 9853 14487 8624 5130 7844 10054 10445 10715 5361 4331 9280 1159 9750 14735 9611 12235 10557 10736 13532 8703 11060 11731 8108 9493 8684 8599 9242 7667 9516 52893 49960 58831 65535 49040 59976 54009 54203 54259 56815 54277 53921 52849 56826 51651 56650 59737 53810 58341 56039 55113 56167 51789 54413
58271 58545 54307 58101 57763 52814 51934 59346 53129 55594 57599 53327 61106 54418 61450 57067 49208 50245 54165 52531 60441 54341 51073 61349 13570 9890 9041 8767 9311 8154 9643 5254 0 6470 8407 11980 8861 0 9683 7475 9100 3552 7975 6973 15036 14304 10644 12964 1934 4776 11547 9670 0 9109 11477 11103 0 18983 6510 0 10230 7847 433 7995 5439 0 6414 4672 10271 8710 8361 7617 5776 8381 12816 9099 7332 12165 14847 7799 12740 3040 11331 11125 2480 4292 6129 8603 9055 12084 8011 13069 8526 7499 2947 11886 13064 4214 9905 9013 4295 8783 2835 3518 5601 6184 3974 8569 20609 5128 12353 10658 5224 0 9152 5578 20166 6684 6514 9260 9721 10431 8216 6996 8319 9764 10864 15436 4126 8339 10583 8227 7448 10159 14303 3547 3829 4495 8359 10236 9670 10002 2984 4379 8822 8483 7880 7084 7442 12787 6258 8875 13198 10745 12797 5444 388 10529 4644 7299 10880 10576 8465 7738 10078 2502 3065 8823 10939 11369 10555 5352 6079 5456 7130 10058 4256 10574 4547 9076 12243 7040 8903 9167 10099 11184 5527 7505 6079 4586 2772 7044 7292 8645 11252 17307 65535 11903 9977 12588 12244 7329 3864 13087 5804 1732 15953 9446 3968 17245 4228 11221 10912 10130 8441 9654 65304 55065 57118 58843 59696 50365 57957 58589 55263 58217 57815 56554 56630 56967 54998 52699 51412 56817 51540 50729 57370 59534 56647 56837
53209 52100 56489 58752 58900 56923 58139 55011 55545 54171 51690 50321 57466 54581 51383 58153 58794 56833 55787 56904 57032 50699 63569 60332 52777 55988 55426 59608 58884 53168 57430 52712 56546 49529 58065 55434 0 52062 63188 56171 11074 8418 8834 10874 10242 4939 11153 3565 7912 8930 5222 9113 9606 970 3287 10434 855 5016 7391 6329 6603 9741 8389 9237 6827 5129 6527 10452 1788 8589 7543 7873 3296 9986 7392 15426 6521 13264 8856 7856 4906 14091 0 11449 16278 0 14635 10186 8398 6166 16835 14542 8690 12879 3665 12444 13664 13044 8680 13229 5973 12662 5520 0 12447 2942 7671 5208 12984 6922 7936 14069 13726 5822 8517 13929 6893 6897 6445 10113 9627 5831 10344 7294 6928 5507 8182 6675 65535 8944 12662 6963 16731 11551 11185 11634 9350 16138 65535 10170 11505 9540 9921 10379 11337 9120 10900 5848 10403 4277 8272 5142 7685 1139 65535 12900 12810 5973 65535 10290 3326 8373 11952 9026 6764 3439 5643 14349 12016 4501 11852 6854 4668 8534 9602 5922 9561 13850 7397 14448 2009 2567 3736 8049 5711 7573 12168 9913 12918 12609 9108 11585 12154 10138 12359 7460 6226 4609 8939 3054 10380 7830 9042 4092 8752 8135 10904 6724 4971 9400 4373 9175 12877 12044 10277 3816 53508 59968 59414 65535 52224 64735 59663 56632 60566 52549 53704 51348 54475 57662 53733 59936 61994 57939 60391 58941 49148 55885 60094 53061
58633 59006 60060 50837 58972 51563 48657 55994 58071 54609 54084 54332 53229 60035 57766 65278 61466 57988 53481 57809 62667 54549 53691 58418 62223 60864 65535 54875 56620 53189 58232 60012 51709 58090 56801 57713 51291 56707 61440 56734 9297 7671 7123 10325 5708 8544 7994 6401 14154 10246 8500 10083 7269 7686 2333 12836 10936 9623 8443 6508 7135 11574 12369 5712 0 5272 9576 10911 14255 11153 12710 3919 12592 12138 9022 10969 12641 11604 14760 4574 10098 6580 11585 9522 7411 9180 6612 9892 16222 5264 15000 9142 7535 14455 2800 8406 7430 10367 1808 6789 5229 4372 7748 2755 7379 14810 10156 13059 11531 7596 14686 11568 12362 0 13618 9370 8889 6115 7114 10006 11924 9509 5248 8308 10715 7054 8971 7471 8244 8288 13955 8936 6529 11618 12461 4838 10467 11777 14947 0 8421 5923 6682 7974 7389 9969 11221 10464 13072 6010 13853 7290 7541 13553 7715 5045 4753 12758 9125 10087 6952 15449 7390 11529 11785 10731 11251 11457 13318 9761 7064 4735 9864 6391 4702 7017 8946 7445 10516 9867 3004 13762 10155 4851 8562 5223 1736 7632 13365 6232 8754 5907 15062 10931 13536 4752 7834 14955 6427 8025 11819 9822 10485 3318 10586 5359 9638 8899 14861 8362 0 7273 13137 11156 9666 1826 53327 54700 54500 58472 51504 57635 53899 56320 60849 54219 53487 56986 57295 0 56743 0 58152 47435 59843 60832 57013 62208 65535 46387
57683 56859 55325 59397 62220 55057 62269 59044 54572 54133 56441 62130 61619 52799 57418 60065 52987 0 57584 52576 61284 51987 59836 50289 55725 61214 53080 0 57784 58716 58810 61646 56083 63392 59280 59653 54520 60859 59312 63071 9418 11360 16290 10490 11828 11203 8575 7785 8552 13544 4724 12041 11667 5422 10199 16099 12408 8520 1289 5461 6941 8412 4885 13617 8290 8553 13719 7460 14853 3791 11981 7975 13719 9173 8635 8033 7281 9200 10271 11392 11456 7078 6757 7831 10506 13975 1626 2636 15054 13446 17181 4944 2410 9956 6894 7530 10195 11049 6708 9651 15777 10615 8245 11854 18109 8377 11217 7361 13537 11288 6466 9497 6242 0 7445 10542 9791 21702 7412 11629 7129 12543 8363 8204 5890 7431 6624 11507 6012 9540 6847 65535 10232 10004 12051 6106 6087 8940 7193 0 8170 11733 18161 7497 7674 14278 3994 7666 11345 10382 8628 7123 9184 13688 6933 11141 6834 1751 6621 11275 8691 15083 6763 10625 8247 7451 7084 8323 7560 8876 5413 13653 13214 6678 9978 2440 10183 7425 15598 10656 12309 8812 3345 8830 3547 6048 7986 8002 17381 6074 8511 9071 8202 11308 15034 9813 9528 6945 2668 8920 5803 8093 13458 12941 16957 13252 8099 7980 10647 10855 8374 4752 6270 9243 10911 13226 54977 60099 59173 60447 53769 56852 57743 55200 55809 62187 59529 60396 52657 54617 56926 55085 53855 57531 0 54626 54126 54862 59996 53283
58586 59256 54101 56308 53140 54442 56585 60306 59710 62304 57676 49995 55285 57843 54270 55400 54608 65344 56712 57179 59386 52249 53161 56119 57900 55860 57979 57546 52835 55939 58083 61961 57983 55322 58697 58715 61481 58675 51802 58548 12515 11443 11367 14272 13261 8332 12426 6227 13316 5737 12489 1791 3758 6060 10521 9810 8983 8728 4229 8151 7077 7361 2433 6717 7479 4420 11519 9408 8410 10724 3048 11361 12468 9059 7264 12324 65535 9027 5461 65535 6363 9424 1096 11965 10400 11482 10373 9110 12900 7303 7884 7305 4128 8449 5504 35 16797 6342 9552 10687 10113 4331 8998 13669 8963 5695 14735 8491 11680 12050 11244 7548 14373 4712 3826 6494 7175 5830 8004 2883 5477 5237 11002 13549 10236 9866 5340 7554 5573 7846 2358 5793 7256 4010 8758 7631 0 7952 4679 0 13269 9247 12568 8181 5131 9200 10096 8130 13432 703 11008 5932 6408 4445 6961 9613 12875 12256 566 4211 15473 9476 5806 8328 5611 3656 13040 8996 8382 8404 11870 12666 6333 9296 10154 16298 0 7244 14750 7115 3448 13513 10798 8270 11217 10704 14197 11540 6998 12183 7296 373 8000 11188 6269 10494 11056 15292 11387 13034 11097 10529 9499 4109 14388 16571 3735 6302 6746 9725 12079 7783 6929 4802 10454 65535 57093 57554 57272 60357 59425 52966 51297 65535 54214 60016 58381 59612 65535 60926 58023 56297 57943 58041 56988 54453 56963 57536 54367 61271
60230 57776 55970 55325 58615 57368 56415 56159 57723 53408 58204 60398 52853 59331 54232 56393 65535 52303 55454 49863 62555 51794 57939 54018 65535 56439 54426 63786 53518 59679 56081 54010 57961 55281 59576 60506 55056 56307 53234 52267 894 4042 11470 13779 8073 0 5807 9006 14392 11923 6992 12980 7632 7555 0 8423 10222 2579 3666 4246 11945 10103 12401 8541 12324 9360 6080 6324 12974 6432 10284 6249 1231 14950 9919 12443 12986 5710 10419 8868 10173 14154 10946 12232 8574 10325 13128 4637 11168 6340 8294 6266 5980 11078 3931 9010 8225 15582 12475 17367 6207 9325 6976 116 5726 11016 6148 14483 3575 9130 9809 5812 11004 12007 10886 7831 4891 10269 7790 12116 2194 6340 16183 65535 10891 10101 9130 5041 10285 5365 9223 6822 11002 7041 9434 0 9417 11817 10757 5923 6348 0 5405 16319 13202 10830 65535 8697 8208 6409 10332 7449 11817 11383 6274 13942 5779 4147 6725 9645 10116 12352 0 17281 10527 9832 0 10676 6811 11460 13709 7851 17332 7383 13125 7394 13292 14438 4090 12021 9943 7408 8498 5163 12532 12972 8134 5848 11660 11916 10736 10481 5323 11230 3085 8719 11817 11054 12155 7648 12219 7119 8617 11476 10523 5333 7018 11154 11829 10988 8666 10558 7605 7588 7338 7022 48545 59767 60654 60558 64597 53480 62760 56688 62519 48838 58049 61405 53580 51944 55503 55808 52440 60699 54430 60344 58674 55274 55067 55564
65535 54980 58801 56038 55374 51726 57805 59701 50996 53848 51530 58040 65535 57739 55248 57032 54005 53966 56856 54949 56736 55673 57768 56769 58238 55386 55901 60310 65535 62981 58854 54013 57125 53936 60585 59996 48299 51489 60218 58725 13519 4786 11925 10102 4310 12198 11970 12854 5977 7896 11960 8755 0 8280 8286 6154 6819 9848 11562 5334 11254 5961 0 6690 7827 5852 3742 10103 11392 10059 14519 11436 9444 7429 4823 10052 9136 7395 10415 12319 6191 10082 8038 7307 10139 10573 12617 9084 10492 4546 7815 14112 7965 13321 10016 5874 6545 12746 13597 4628 11097 14464 65535 12088 11003 6996 13430 8255 6797 8080 5471 9370 12389 7407 6012 11793 4432 6917 7429 11286 2542 14617 8665 8488 10642 9959 13521 3266 7132 11787 3558 4221 6808 9236 5539 0 8769 8601 11332 7717 4387 5312 5290 11844 5175 7903 11279 7271 8585 0 9019 6361 14361 7736 4135 9478 3256 9113 9625 13387 13820 12466 11509 13566 11210 1525 12719 12303 14464 14091 9720 10558 5464 5607 7612 11248 7889 17410 14317 6594 7016 7901 7186 4094 12216 6905 11717 10544 11720 3379 5119 8219 13877 4828 15199 11884 5294 7086 4423 13505 12878 12698 6934 18088 7620 11736 4716 15859 6218 9949 11886 6867 11621 3408 6531 4492 60792 51529 59812 55514 56016 58347 57523 55691 56222 56673 53614 61306 52358 54517 58684 55350 53240 49795 50965 61234 61539 61507 58017 55763
54180 49195 45052 49501 55907 49970 60482 56053 54123 56935 56570 56321 54098 56977 51225 58958 55265 56003 54962 57964 51933 56343 54164 54653 65535 51929 58258 59554 56990 52301 51689 53941 60628 55068 62532 51046 55166 55447 58677 54741 12948 9095 9322 11825 9491 10752 9964 9255 2855 7042 65535 3665 766 5001 11692 7642 9349 8314 11589 10716 4895 6757 15725 10395 11038 4576 6374 7755 8397 10699 11816 7825 8501 4851 9760 6515 11985 10765 11470 6303 8372 7199 15446 10566 11197 10367 9097 3505 9713 11439 11600 8167 7345 9566 6126 10263 11242 7861 12404 5415 6935 11417 11040 15485 1238 4770 12978 9604 14758 16740 9076 11155 9876 7954 11134 6651 11954 3688 10482 12293 11496 12349 16374 6261 12800 6873 11899 11002 12883 10877 13339 3855 12157 17159 8814 0 7374 8550 10704 9423 15866 2771 4825 9743 2706 4574 4630 9460 2095 8161 5159 3746 4664 9124 6815 10960 8068 11018 7585 10453 2258 13879 9842 11929 7201 8125 8611 6709 10038 17821 8950 14149 7094 10866 11047 10095 12120 11481 9832 8485 7797 8669 10038 14861 9976 11273 8977 4711 11366 8385 14712 11555 8596 6680 7658 11618 7918 0 6327 5912 10281 13083 9007 17457 10045 11109 10559 10812 5225 7177 5899 9150 5883 7206 10709 15348 59249 62335 54036 58476 53132 55374 56128 53439 54072 58546 55323 64360 58362 54395 58364 59457 65535 52493 55379 52597 47408 53704 54788 65535
59314 59138 59242 57528 57744 58204 0 52160 52129 55028 0 56702 52755 52373 52379 59335 0 55691 58861 58073 52907 54165 50508 55837 56957 56445 65535 51307 58623 58113 57566 55791 58873 55680 56503 60735 49766 60644 48978 0 6580 8402 5717 9513 9233 10434 14081 10517 7247 7497 5641 10199 13840 12123 11329 9955 3674 8709 65535 7248 6037 10197 5624 17466 6785 10424 8334 2344 13615 11040 6447 14456 6619 10641 9037 9782 9349 0 6175 9239 9870 5775 12663 6837 11816 8319 11691 10734 9455 6870 3347 5381 4933 2583 4445 10747 6691 10540 7306 12187 9572 4980 10260 7994 16421 8539 65535 65535 5472 12130 9014 11291 3204 8229 4895 4682 10240 5970 10907 11527 8231 8141 11534 10291 6692 0 7325 5104 5804 8839 6364 6157 10093 3576 10199 5562 6474 15506 6605 11456 6528 7987 6751 12158 10564 8309 10743 11864 9516 6381 10537 10197 13858 13591 8961 7616 7008 15798 8614 7350 9882 8866 16370 10341 11714 1389 7090 14420 6431 11073 0 9170 9594 9963 6425 9594 15278 2263 12669 7306 17556 6546 65535 65535 2877 9229 11279 15558 11112 12572 9488 4102 7618 10951 7480 10573 8937 11947 5406 7604 11484 9079 2411 0 7009 7894 12020 15998 10204 11335 8793 12467 11410 11685 0 13195 52631 57235 53240 56364 53117 55535 54163 59292 58048 61338 47787 56317 52839 60252 60542 57251 54851 54885 55303 52300 54408 59560 58963 56513
64849 56328 55680 0 58265 54662 57962 64054 53979 52937 55963 64831 56624 56853 65535 53528 63398 56334 59974 58902 55242 60010 58274 57309 59958 63280 49904 51456 63016 61978 50179 58039 48690 61612 54919 54984 51342 59024 57602 49895 59603 53378 61967 59047 57702 57912 59993 58814 60376 60413 54193 59309 59426 50196 61248 60677 6887 7571 10825 15160 9428 11586 9917 4803 5010 8426 6991 9530 10741 7750 10559 10703 12906 6797 6765 7011 10343 11472 7725 7189 10340 8822 3959 10951 10088 4855 11440 6664 6967 10691 2844 8391 6024 12712 7174 13855 6208 5076 8378 4740 5364 4384 8742 6577 11156 10719 5936 9120 6046 0 13544 16656 14362 9923 11046 7132 17042 7505 6430 7990 5107 5729 10269 11063 12962 12870 1933 12255 4952 9549 6604 9604 6464 10388 5695 15722 16043 7535 17919 6422 18758 6765 3445 9893 13728 10701 11648 10851 10902 12231 1841 8522 10363 7931 7970 14416 5847 11404 1770 9939 5428 8227 7941 10278 972 6263 8063 10501 6023 6750 8310 1925 9124 8766 4058 65535 11211 2658 6689 9488 13148 10165 8670 11696 8350 4568 10953 7417 8388 11499 7264 8577 4116 14929 11023 10431 11445 8074 9021 7346 7096 3156 9902 11717 8221 1754 3248 2541 2033 8777 65535 12324 1359 8707 13083 8235 58393 56881 52724 61597 56078 53070 57553 51959 58738 57275 52837 49238 48152 56468 57770 58714 56675 56030 54195 48339 57702 57608 50528 57338
56797 55143 58818 56935 65535 57331 53691 55926 60056 55540 56286 51255 61422 55375 60601 53476 56202 55620 53040 55158 53740 55139 47358 54128 54498 56526 51968 57834 56251 55343 56203 54845 57661 53895 56880 62364 54344 57588 56260 52956 60594 56541 55754 56941 57933 50653 56575 0 54046 58154 58437 56769 53559 56715 55303 52151 9093 9871 8933 9520 6222 17065 8376 7971 10422 12175 9226 10937 10792 12403 7444 12365 7402 9054 12003 986 14339 65535 9134 5001 8821 14250 10475 10765 9507 6346 5690 13325 14499 6381 10325 8897 3274 10104 7277 6368 12760 9080 12677 10606 12620 6928 12437 10094 6803 6458 16069 0 7357 7466 14046 3452 845 7098 12410 9327 11143 11970 5501 7065 7793 5994 6767 9172 13389 4867 13069 17390 4803 7082 12339 8523 9490 14011 9428 10972 11198 6649 7684 10154 3407 8480 1196 12839 7129 10712 8047 6388 13708 5828 3725 10660 6221 13854 10737 11062 12984 9293 8261 14597 10728 6113 12847 10887 11349 8528 12360 9025 9817 9348 11743 10679 3663 13072 13449 8174 3644 10348 9194 12411 3947 13052 8998 10053 6309 9386 10553 9190 13690 4140 11886 6527 7171 8070 12950 9166 10193 8727 7913 8486 10524 5922 7404 10004 4961 5349 7178 11269 10503 9181 10123 0 8544 65535 2274 11127 56759 58238 56212 60840 58595 53550 53544 52868 54957 56561 54472 54376 56658 58579 60625 60446 52689 53870 57816 53915 54711 59107 57921 55557
60265 52362 62349 52252 54716 54484 59090 54526 58380 58053 54514 60759 55811 56813 54530 57150 60377 58242 56118 57804 54076 53839 60439 0 58845 54364 60785 55783 55848 53665 62234 62358 65535 53830 58483 51648 56683 52523 57732 52277 59620 54183 57944 62691 60008 53950 53006 54062 56045 53591 53611 58938 56119 50225 54296 55605 5408 8604 10195 13617 10248 11188 1750 11236 7877 3202 7664 7651 11151 8154 8207 10990 6625 2290 7982 12730 12322 5782 14518 13334 7838 5023 13090 5877 5083 9654 11305 10644 7483 10890 0 8212 4991 10270 10000 8752 6594 9881 5659 8374 9953 9628 7445 10959 65535 10435 13370 12675 8585 2600 0 11201 8989 6362 5594 9022 15052 13811 17590 8214 5110 8256 5249 7842 9563 6386 3976 7745 4050 13884 2220 10063 10231 7889 9543 6003 5797 12769 6686 9886 12082 7060 5529 8312 8346 9089 13705 4234 15115 8405 7631 11438 9673 12797 5281 3560 10995 0 10196 9267 11785 4852 12698 3522 8312 11902 12821 6286 11017 5358 13613 5298 0 13119 7935 11645 14298 12778 11496 12339 6365 8218 11202 6575 4692 9338 2162 10583 11990 10538 10804 12028 6126 8601 11568 12569 5706 13648 10191 11634 3913 10488 6970 9195 7665 11364 12155 6734 6333 4915 2940 9496 5710 9974 12148 12846 57356 54603 49002 54828 57443 62016 50284 60639 51899 53990 55794 49368 65535 55937 53472 58340 57672 52180 60629 58942 55056 55278 56648 59254
50773 52670 57945 56291 58001 55635 57901 58375 53374 54520 54412 54106 57131 54624 55935 57001 53791 52460 58708 61748 61582 0 58755 53244 53817 56153 55754 59402 58740 62825 62724 56231 49956 0 57614 50481 51321 57021 52279 55537 62432 55764 59986 58130 53925 57162 63015 62591 55053 53359 53679 60361 51266 59563 60694 64767 0 6399 5801 7069 6119 16726 11706 5659 5275 8880 9863 7722 7891 9658 9151 4644 8177 12740 10332 7315 13596 7205 3648 12670 6877 6733 9678 5100 6172 8509 5180 808 7049 0 8958 15651 10928 7169 7209 10459 4913 9506 7392 9317 11117 8712 5966 3437 8837 11309 10168 10814 10182 9437 1814 4818 9940 6601 12007 9232 3968 5505 14468 15036 12418 10406 13660 5981 7488 7917 7053 8231 7114 10593 1391 7887 14150 16205 10346 12134 11664 8771 6149 9136 12950 6754 10533 6345 10606 8042 12052 7192 7858 5384 9027 6367 5766 3821 11617 4818 6163 8492 5938 6195 0 11170 10451 7989 9275 15844 5475 5257 3601 10973 6998 10564 8911 6059 6843 6615 9004 9027 13491 11281 7434 11699 6164 5060 9933 7363 15510 9853 10975 10647 10015 5526 12879 10993 11314 7818 4124 13237 7070 9186 9926 4916 11696 9771 9722 3719 9797 16627 12317 6568 10088 8447 6824 6809 6021 10618 58263 64363 50489 59003 55410 59723 63812 50885 53629 55883 56118 59514 58805 54849 56790 55418 53478 56879 57627 54750 59786 65535 60918 54586
51400 62109 52465 57219 54115 58457 52414 56664 60615 56775 56515 55864 59465 54863 61225 54238 59684 58283 58292 56233 55055 60015 59222 62815 49506 52525 56272 58828 57779 58577 58794 64293 62023 52628 58470 55112 56065 61177 62178 51024 57612 48937 65535 57600 62812 50810 57018 55752 54152 54381 55522 52828 58156 65535 57989 52759 5448 12665 10130 6839 8962 7768 9753 6999 8081 10388 6870 6942 9770 11701 11069 12176 10574 6045 3747 7025 4229 9903 5946 15737 2989 11833 12465 11389 10687 9288 11684 7181 0 9501 6941 8300 4370 7512 8022 12678 8707 20684 14924 11316 5243 0 11134 7642 9942 8290 10802 3097 2950 7864 11689 7024 6619 5167 10957 11397 7769 5141 3706 11018 11158 7084 11582 7757 10887 6750 3337 3535 65535 7217 9393 9537 6166 6210 10393 10032 11277 13381 8023 18693 13543 12683 10039 12821 12832 13314 6503 12208 8933 7876 13725 9244 12126 10616 8949 9856 4674 5478 5581 7701 12511 2979 0 6443 4926 1986 7175 4589 10527 13453 10458 5087 16648 13335 8750 18982 6044 7890 7958 7963 13676 9520 14557 11261 10062 6415 6119 8165 5361 9591 9373 9236 14629 10164 4922 3813 9663 13053 11385 10995 15270 8196 7181 8921 14764 9993 6036 4780 11056 5344 6679 9910 13856 11009 6208 7712 53874 56119 60620 56171 55939 58610 56554 53859 0 56671 58924 51687 58994 56519 65172 60436 53355 51067 56692 51403 65535 61402 58754 59950
52792 54022 56920 50895 47069 58036 55104 0 57260 65040 52187 58147 57318 61084 56403 52248 58422 56905 56683 57051 60935 58243 62862 49912 51014 50184 51327 57113 53291 57532 56825 53295 61529 51763 55329 50234 54078 56450 65535 59324 54504 56870 53747 62002 61260 65112 60716 55080 57442 58861 57700 51030 64762 60670 51782 59453 4090 5040 9166 8203 5808 11991 7470 12570 278 12027 7030 10116 4576 13085 7781 11888 9008 12548 14219 9347 6676 9457 10049 4713 8397 9984 9698 4242 13192 8222 5636 7957 12939 3001 6636 12223 7225 7667 6920 16416 9554 65535 15963 11257 1298 6492 7670 13892 10436 1952 6938 6268 8612 15555 65535 14803 6340 5480 10353 14375 10991 5597 3107 10079 12327 12217 15684 1119 11526 11590 9987 9033 1935 6112 11511 9548 7569 0 9254 9216 7730 13621 11024 10125 12595 10744 13241 6952 6773 4861 8649 6802 7434 12717 9592 6629 12206 9162 11169 7576 5341 9910 6946 5905 5095 8760 9688 17268 7094 1437 5097 12144 3848 12116 7384 10006 5703 11158 10650 4994 4645 8497 9513 11059 7946 8367 11794 9641 1777 11585 3516 6180 7143 8218 7765 7308 9519 6044 8579 12649 14117 11315 5976 13211 0 3346 8288 14500 10298 11379 8285 3345 5663 4347 6569 7851 11576 12252 10091 65535 47792 61939 61427 56307 59198 53099 54399 53841 50049 56964 55105 53506 0 55009 56495 56198 54041 52581 65535 54693 54085 57420 51374 51465
56543 55234 59856 53700 49221 63461 54164 56260 55891 60852 54612 54175 55447 54893 56714 58528 55455 52798 65535 55941 56287 56489 55837 53734 0 51467 58300 56479 59444 54367 54093 63317 57194 56578 60277 63033 55597 59802 61120 55343 56483 59960 54904 50925 52694 56446 59042 61205 50583 59092 53710 55368 57808 53469 63364 52827 9115 6836 6441 8633 14571 13146 7564 0 10496 11205 9171 8404 5083 5545 4552 3059 5343 5279 6479 8303 5601 5473 7165 7422 2414 7730 5877 6009 12972 16416 10750 9424 7347 65535 8870 5169 0 8726 14554 10188 9211 10997 13514 10300 7705 11527 5646 12696 7601 10460 4835 6684 10000 9126 10161 16892 7225 6160 9751 9006 8662 8292 12003 12245 7276 13912 2202 7414 14709 7086 9202 8831 11150 0 8534 14296 10006 13199 2928 6221 12917 8473 7394 10927 5582 12249 2144 16385 7179 12284 3844 5626 8409 14879 13376 7938 10087 16682 9438 10512 14135 6521 11441 6049 10606 9274 8899 11157 9594 12604 3042 8412 12947 11643 14244 10417 10416 13518 13035 346 6518 65535 7024 12544 4388 14515 8088 4714 3043 5907 17050 8656 8107 12525 6592 16718 17875 11608 8080 11846 7513 11009 12525 14200 7057 11457 3379 10153 6892 5694 10432 11381 10075 5572 10188 5584 8898 7910 8086 10588 55490 65535 55071 54637 51984 59107 56559 57091 49998 55537 59001 53647 65535 56295 53769 54482 55086 58071 57115 61493 56264 0 56700 60790
63955 54199 59640 48236 53573 54693 54367 54872 56095 55476 54701 56932 61573 56279 52061 62225 60757 54017 54556 51777 58779 61373 56995 61691 60259 0 60932 49595 53583 55432 56304 56399 60084 54157 61395 56609 58116 55083 54402 53883 49178 53978 56982 55198 59727 58639 53617 57793 56457 54197 57566 51831 55916 54069 57453 61310 7817 65535 5849 11387 11178 9689 9013 9234 8497 11683 5521 0 7605 4607 13059 5073 8205 12407 7757 11046 9105 19097 12122 10394 12943 5609 419 8838 6421 10273 10291 10143 7900 7973 10136 8280 13540 9119 16545 9914 10783 13423 65535 8792 8878 12154 7061 11873 13309 0 9456 5601 9089 10876 8112 10030 5403 12230 4453 7561 7840 65535 11434 7819 7544 8167 13908 16155 7121 2596 4615 8414 9648 7924 7045 11643 16037 9545 12483 12717 6711 10138 10203 5228 11701 9468 10810 7888 15510 10712 6087 7934 8292 9358 6790 1463 8600 7020 6845 2565 11033 8240 8942 14089 11774 8271 2838 6710 11572 10376 10709 13479 10113 11516 7484 13811 3189 7025 9183 11697 6575 8742 9204 8234 5574 13949 6499 8171 10633 4238 16052 6264 10254 7683 11255 14629 9984 3260 7741 8185 6456 14861 3739 15847 11661 4059 13586 9649 12492 65535 664 558 7424 3356 8224 8403 12525 11279 9035 8901 64614 58368 55070 59522 59473 51976 57278 53844 50405 59031 49906 59616 56765 62362 56222 59927 53525 56173 56692 57690 60656 51713 53958 65535
62367 0 58545 57357 56482 53542 60389 60506 55673 61892 62837 54289 60292 56469 59961 60363 53197 53719 56320 58938 57655 56141 56003 55983 57723 56479 54487 52511 59217 56818 56316 50693 62562 58018 48373 53590 65535 49126 58365 0 54772 53926 57937 62066 65535 47560 56931 48790 58259 50677 50485 53534 65070 60034 58067 53865 52750 55820 56824 55611 57799 55519 54366 57820 54038 59862 52420 65436 65535 60167 60510 57228 5596 10453 0 10224 6500 10701 11822 4726 9690 6915 7613 10975 3116 10194 11545 11737 3819 10389 11149 8649 7806 6756 2448 9705 6659 8024 8182 6884 10368 12440 13250 12147 1847 7964 10290 9268 5613 926 8292 15210 8907 10361 1714 7565 11509 12694 2623 12201 10309 65535 12554 7942 8566 12960 8189 11532 5071 11162 3720 6845 8328 8332 4948 11906 9579 12077 5987 14500 5605 11128 0 5879 9773 10315 8782 13223 9587 9366 8009 517 902 12434 8778 9431 11997 7121 4804 7349 3296 7737 8883 12178 8004 6336 14136 11662 9543 10791 7734 5050 6768 1850 11755 10866 10101 5958 13306 5355 9329 9619 3787 7590 6257 65535 7428 7463 5767 5868 10494 8595 65535 10585 13786 3460 10084 10506 9231 11783 5186 5506 10227 7751 12988 6121 6075 15478 16099 12683 13594 12211 12504 10297 8818 7837 57923 56390 54766 60268 56101 57510 54660 62015 58170 58136 61470 52013 54041 56402 49464 58742 56533 53221 53650 57250 58200 54843 50076 49974
51363 56793 55342 59176 55057 51339 54014 63472 60448 51590 60642 61658 58545 59869 58016 59655 57660 56299 56490 52349 60274 52201 47673 56567 53309 56436 58033 54746 0 53323 59427 60779 55698 53304 48439 58591 58557 62271 58779 54043 55732 54926 57671 51224 62601 59402 63072 56819 57641 53548 60669 56238 57053 48776 58677 59054 60528 53397 61860 50690 51761 53657 55262 57582 52402 55657 56655 55897 56736 56533 58324 56018 6553 6704 5085 5536 13832 8922 3859 12097 11470 15049 5312 10737 9149 13304 65535 4859 8794 2804 6842 15491 9468 10548 7443 9869 11620 2908 13652 0 13247 5427 13811 10881 16710 13223 13842 11998 3777 8928 7139 6824 1903 6559 11212 3464 9760 5995 12378 8317 11012 9649 10422 5035 6693 5040 8525 14534 9179 13046 3826 6522 11758 10169 7261 10107 11272 9418 9933 10932 6755 8133 6740 7413 10969 10311 9409 13301 65535 11653 5916 14789 13258 9532 7220 7129 12977 10225 2829 6305 11339 9804 10337 4878 2674 8157 3743 11628 5864 10379 6172 9288 9808 65535 12278 11245 9811 10300 4669 10862 7893 9228 3358 11565 9262 7581 8822 10527 9665 12713 3334 65535 6607 8931 8530 8892 9785 9898 9704 11774 16068 8671 12858 5964 14232 629 4101 7075 5210 11007 9940 14847 6878 7168 9087 1736 61198 53435 56998 65535 60364 53458 58840 56669 56597 55183 49873 56393 54303 54169 59288 63909 54904 63192 55156 60030 56636 50657 59263 53845
58025 59240 57831 46285 63236 53388 61973 47023 58428 59107 56358 61432 55690 52137 53845 49833 46017 56665 53800 55923 54921 53987 55895 51266 53310 54266 57049 60878 55296 48361 59227 61861 55244 57680 65535 57185 54521 60758 64628 55675 62615 61129 49280 57731 59771 54423 56426 57596 59100 55718 50576 49451 56004 61873 61213 58404 56095 61557 64027 54103 63471 55579 53883 65535 65535 61433 61450 62665 54921 57598 55904 56830 8763 10911 0 7376 10608 4454 13657 9485 9904 7159 4746 8635 8703 1995 9729 14144 10591 10733 11577 11632 5020 11096 6833 8544 9073 3582 10262 11543 12717 7849 5877 7082 9240 4787 11362 7521 10185 0 3546 6865 14159 7299 12492 12247 9994 7430 11259 7547 14217 0 10982 11082 5307 15401 13484 12258 8792 65535 8365 8088 14335 13480 12584 12034 9513 8629 11684 7011 7335 11320 11418 11419 13146 8361 10329 12738 12951 3429 2228 4942 9959 7697 9413 7304 11813 13789 3588 5422 65535 15525 10396 6124 9861 14334 10156 9778 1508 14736 8965 8402 9725 9562 1087 11198 12977 15128 6056 8118 15648 9003 11881 12823 8773 10117 9979 65535 13387 9199 10413 11881 9953 10406 7681 5068 6477 6997 14378 11229 8205 7760 9478 0 12466 7498 7231 1071 9461 8571 7159 6429 4723 11777 7510 10756 52830 61885 61687 59845 54867 58110 56101 52523 59137 61056 57136 54807 51557 56330 50131 56282 60663 60903 49257 56091 60440 56614 53470 53737
0 51739 53055 63100 55246 53519 51220 61233 53747 63940 53409 55729 55853 52136 61301 59109 51440 60130 61134 55700 49563 61347 56082 59283 55875 51600 55057 55600 56371 56570 56844 60740 59652 60001 58732 56257 59699 52925 57978 55144 59641 47426 57256 65535 59005 56119 62390 51467 52917 58266 55049 52740 57829 65535 60557 63524 56676 57383 59423 51977 54131 52956 52579 47225 59320 55530 61760 53339 60293 60046 49428 55644 6273 7209 8268 12154 19138 9105 9594 12908 5389 5950 5287 6641 20978 4973 5729 12058 13624 65535 12697 12589 6391 9017 12039 7672 6670 7792 11485 8544 10104 8260 6382 8681 9976 10613 17947 6321 6796 6288 0 7994 4591 9725 7587 11396 11174 9954 4666 6046 9956 11363 9649 10896 7267 8845 11358 9199 6849 7277 9244 11893 7365 14688 8993 4392 3882 9053 6551 8386 10433 8961 3617 8985 13668 8759 65535 10077 12421 7981 11220 6616 8971 10860 7343 6806 4538 3748 8774 8120 13532 7657 7435 13348 8862 16915 4448 7514 7510 12539 10427 6679 12359 8167 0 6329 14949 8188 10242 8884 7066 7416 6788 5098 8943 9349 8794 9295 3999 11021 3230 5400 2007 6187 12461 16297 15887 7053 10363 13070 12744 13655 15981 7248 5708 7932 9604 11136 3210 8149 8170 11024 13518 9875 9399 13433 54913 53325 51985 50537 54870 52148 60629 63020 51174 59045 54934 58956 60558 55401 55558 56324 57584 57502 52212 52161 56045 62834 61542 48952
52045 52568 54793 51637 57938 60994 54205 60455 59849 54620 51104 56708 60164 52933 55972 62140 55299 54005 50847 57123 55499 54938 59553 57985 58032 57842 55906 53556 58561 58349 56100 58280 54704 63436 63039 63834 59201 57988 55277 53818 61990 55592 56708 55240 62346 57670 58524 56016 51958 57846 51157 60255 57375 64534 61199 58727 54443 0 56204 55863 58126 60150 53351 64367 53408 56272 54063 60100 61591 52700 60541 56202 6863 1536 10888 13241 6254 7384 13938 14853 13573 7793 6119 8645 14829 15523 11632 8998 4892 11563 0 8535 2046 5752 11140 6480 0 9107 17341 11635 8027 3645 4391 7458 65535 12603 7227 3060 0 2698 7033 7375 7451 11845 0 11833 5959 11702 6105 12766 11120 6355 17425 6516 8550 0 9596 13465 0 9203 14185 8663 12510 4741 9943 7771 9971 7818 11013 14307 11350 9175 5558 6696 11972 3222 14067 6656 9668 65535 11885 4981 12006 65535 3855 2211 13622 3501 12176 8597 7217 9476 9422 5097 5987 6756 8347 13025 9482 65535 6499 10071 4755 8125 8242 15926 11514 10483 7001 6675 8577 8607 12286 7306 10785 11969 3164 4032 10990 9299 9341 65535 4805 11678 13427 6709 8798 2969 16169 6427 13481 9379 4885 7263 9486 11466 8493 8371 10451 9642 3247 6137 11044 3686 10541 8378 57956 61889 50763 54033 59511 61587 61840 56223 53312 53231 52061 57181 56177 59442 52207 54772 50138 55088 57469 56763 56713 57794 58381 57921
57831 58498 50897 56721 52087 59136 51499 55119 57293 53123 59082 57782 58556 61144 63095 54207 0 54927 56304 62062 51191 54098 54672 59992 59510 57230 61693 54244 54927 58024 55536 56529 55058 55063 48518 53441 61570 59368 60437 57005 54034 53607 59464 54578 65535 64470 60181 56776 50057 56282 60163 58131 52195 61435 59409 51299 55078 50545 57208 59197 56477 54763 58958 59253 61825 59138 45362 59339 53992 59217 53909 62917 65535 8686 8254 5425 4681 6270 13608 6903 4430 13471 8430 4072 3525 13473 5403 13427 9935 10423 11376 6739 8677 5054 7247 8225 10309 11975 7764 2156 12447 6908 15027 19345 11614 6625 10967 8584 6204 9292 9479 10328 8374 14626 13703 9875 11581 12473 11342 5069 11452 6532 10305 12135 4381 7554 8938 9093 7114 13254 0 9100 10094 9786 0 16835 16580 15033 12937 7065 8090 11097 0 8232 11271 5009 6855 2491 7782 7533 9101 10368 8019 12685 9374 5555 7984 14558 12255 12297 15926 13044 9737 7240 11597 5955 8147 11205 12616 12121 8884 8804 7505 13387 7923 8501 14027 5271 10025 8817 10207 4917 5056 11753 9348 9725 6228 8606 9015 9058 6631 13797 13372 12393 5968 11660 10109 14522 7212 65535 5046 17111 6142 5780 9011 3226 10408 13458 7091 10358 65535 12284 10324 0 11255 16887 57286 57237 56499 51975 58181 57149 56338 58248 57887 56565 57020 51170 61654 54650 55843 55526 52245 56906 54975 54541 59768 54046 60525 63236
59766 52431 58500 55909 61861 58140 49594 58227 48977 54896 60261 54521 55902 54448 59987 52129 49599 47505 55552 61435 58461 55553 61152 60634 62673 56661 53151 51694 52851 55001 54244 52873 54670 56079 57964 58855 56597 55420 58064 58454 59446 60669 61890 57647 54376 53462 52634 53613 61328 61264 58183 54669 61469 59111 58861 52786 58222 53577 60274 0 52207 53519 50558 57905 56105 52994 58082 56444 52139 58630 59399 53289 5827 11660 4908 9684 15409 7683 8454 14204 0 8112 12302 9727 8409 8143 5380 4776 5604 10006 7761 8050 5498 8957 6486 6357 5813 9609 15058 5083 8934 8648 7909 0 7397 8102 10178 65535 4733 5838 4025 4525 15015 10685 9463 8581 9764 6693 13093 7080 7374 11038 6711 8090 9596 4057 6799 9856 8885 9241 3010 5424 5386 14147 2683 9566 11912 7941 8392 14887 6943 6191 9959 11163 0 15306 4978 12836 11934 14431 4546 6780 3324 10237 13043 11310 10017 4554 2739 13143 5602 7463 11683 11539 3589 6526 9858 2921 8437 8355 4082 604 11426 10557 14079 12124 5423 7046 5084 13155 2480 7283 5772 9797 8521 7374 7051 8400 9899 7285 14345 9329 7829 4633 12476 5094 9729 10083 10396 5930 7714 8540 11151 8999 0 6458 9464 8004 65535 6016 13719 11610 3515 9473 10349 6856 51712 57075 59672 57456 52308 59443 0 55991 59626 52716 52751 53601 57294 54578 57258 53200 61186 59322 57951 57625 55384 60019 53688 57456
54533 58773 56428 58839 55406 57928 58644 52764 54975 53886 55364 54041 50752 55233 56254 55551 54225 53422 55616 62298 53135 56872 60088 61316 58231 63265 54779 57583 65535 57697 53402 58672 63080 56326 65535 59846 55365 54452 58209 53096 57560 0 56640 56910 47651 57500 52430 61070 61031 59257 54379 65535 65420 57214 56442 50760 58136 49803 61671 52778 49980 55114 53184 57588 65535 56601 62350 51754 61034 52259 53093 54436 4367 13814 8732 8347 11296 6283 8314 10767 10396 8439 13773 3975 9885 8494 12011 10622 5323 12452 9432 6924 5177 4648 6460 9327 10744 10587 7752 10179 11631 8614 3613 10856 12332 6256 1498 7751 9313 8986 11940 6433 5795 7152 4625 8915 6537 8538 5695 13257 12102 8365 12375 7467 14854 9921 4740 10871 14808 65535 11916 10078 12751 11086 10367 12647 9493 7898 9581 3452 2637 8623 15477 8344 13737 3389 15199 12108 10994 13180 0 5057 9553 4893 9272 13722 14551 3349 6452 10747 6812 9153 6812 10005 17875 15099 6444 6577 13036 5283 10509 5244 5017 11473 6501 8475 12015 7851 12133 10644 8768 8145 11288 13563 12060 12341 9524 7896 8279 65535 5942 7872 3600 5654 4567 5828 12096 7378 12552 6668 9827 4965 10122 11654 6827 5915 4545 15054 12298 11651 14934 6274 6104 0 13248 6588 54788 53514 60520 53836 50855 65535 56227 54852 57836 53405 55255 59416 51817 52994 50888 56612 52689 64426 60497 48715 56020 53831 54245 52186
49169 51980 53830 54772 59690 56824 63955 59126 56284 54443 57390 59581 59908 53657 65535 57555 52082 56813 57784 55445 52254 57484 56310 60574 53488 54547 61155 56285 53118 58184 58793 58056 56453 56216 55672 55914 62552 49566 48979 58103 56730 59212 63325 56592 57039 53664 53902 61878 61151 65535 56045 57721 59495 55152 57928 52262 59824 57487 56104 55861 55195 52831 54326 55706 56396 0 62116 55211 54250 59285 58771 60650 60570 61676 55746 57718 53214 57034 51839 57564 53246 51140 61076 50617 53316 60463 59847 55770 9620 5741 5280 10013 6359 5635 12030 11414 12209 8658 6765 9352 17597 8864 4737 7488 8566 8402 8706 10652 11647 9278 4398 8089 8061 3260 7974 7500 7092 8006 65535 13323 3713 9514 9320 5313 10419 8651 14285 6567 8549 16382 11022 14208 14365 9683 11098 8383 7275 15141 7654 11022 7138 9911 14830 10435 9451 3749 4198 2434 4914 9090 8280 11933 6982 17624 12196 10684 13037 4031 8526 5097 743 8916 8154 8585 16841 1258 7841 10342 9652 3235 16481 10840 6392 4058 12005 7380 4682 13628 7936 4878 6500 7750 11470 7811 5081 8949 6300 16121 6310 1861 8493 13043 8687 9103 3660 13839 7067 6992 10686 9579 6018 8123 10717 7581 13103 16303 11614 5033 14023 6628 15985 8795 6376 8645 8790 8001 6095 6862 10619 11790 12597 6831 10686 10989 55010 62219 54505 59462 49398 55627 57332 59248 53174 52411 64038 57749 56863 59755 62136 60555
53844 58542 57141 63267 53532 58794 54892 53577 61196 58459 53324 65535 57182 62756 57880 52045 58371 58609 58240 55650 59431 50433 57644 53335 58757 56371 60831 62777 56644 56513 60707 56406 61246 53245 59919 62686 56287 61276 64382 52560 61112 52346 51803 62018 54229 63506 55610 56308 54211 64315 54533 59055 58231 54258 52391 56499 60521 51978 53218 53487 64987 53408 61066 59213 52097 64757 60844 55497 51912 56016 54485 59297 57898 56788 56175 57996 55882 54846 65535 59122 56387 48056 53410 56574 58760 49961 57144 58720 6177 13453 7849 6228 16080 7094 3210 3366 8572 9263 7744 9961 8086 6439 4786 6728 4895 65535 11733 9367 10387 6411 7582 13414 1627 7413 8578 14357 10934 4204 9180 9437 8165 11583 10244 10551 4486 3027 8441 5827 8446 7481 7901 14957 10974 9925 13264 11996 4211 8121 12002 9301 10726 9087 8148 4823 13151 6096 10893 2641 7114 5158 65535 5026 12420 9323 12951 11251 6018 3808 15130 9390 15054 8961 9808 7249 13265 8838 9482 7024 11292 11920 7822 9276 11156 16209 11555 12358 13073 13983 9163 7193 10831 7832 9995 8281 7649 5126 6072 12224 9250 9342 12644 16523 11016 9467 11762 7403 12275 6670 7128 11868 8885 2196 11597 16087 8966 11016 3495 15479 11177 4465 6213 13161 13809 14231 4589 3896 8689 10259 15377 13651 11002 14153 8565 11246 56274 53978 61661 59804 56391 58492 56646 58852 58404 59026 61809 57366 54832 65535 57862 57382
53507 58005 56196 53740 60492 54683 52761 62164 54554 58664 54490 59882 59261 49928 55408 52796 55759 57895 57816 56071 52490 63204 50675 58188 56143 58199 56806 54922 50671 55513 60228 61005 52141 56750 56453 55556 50579 60795 57502 60536 55882 50567 51582 65535 53756 52857 57912 58709 59122 59005 53837 60198 62800 53335 53029 54892 61463 61820 60913 61489 65535 62898 54937 62846 54428 57353 58511 54772 61713 55642 54524 60561 58842 53194 60771 0 55298 63308 51289 62475 55443 54646 52866 58262 55324 60512 62576 52848 12019 3127 12189 9032 10966 6982 7253 5693 11440 2397 9273 10403 6328 5024 19351 12743 13627 17160 4211 10181 65535 7083 0 6110 6241 5256 8941 9770 7389 7529 8582 4500 4911 12969 18065 7691 9608 5766 6243 12927 5183 8818 10039 13699 8786 3904 6483 11498 6698 11910 4805 7577 13712 11811 7221 11363 9595 5694 6806 4090 10993 10108 65535 4508 8969 6283 65535 10128 11023 4524 9134 13277 12323 13397 2602 6323 5629 5528 6302 2716 8310 6721 12027 7841 2877 9107 0 9070 10076 14398 7607 2540 9319 7204 12376 9679 6487 8745 8436 5729 10520 6864 0 4648 11762 9805 8263 12793 9554 3327 5575 7520 10511 5191 6896 10216 10495 11919 16899 0 7575 10537 5659 2630 2145 10562 9790 11912 7092 6581 9248 13832 11505 12201 5652 9016 53961 52537 49933 52424 59292 0 62962 58253 57448 51342 53131 59493 53739 54868 0 60136
51487 55054 57450 55056 59540 57904 47042 53728 56293 58937 55489 0 59124 56155 56139 56652 58601 52435 60320 63610 51660 53021 52353 49930 55175 65535 60097 59679 47415 54841 52750 59115 62303 59983 57192 63602 59506 57721 58582 54912 0 59495 59897 55164 0 57301 59328 59418 55830 61836 54204 0 54310 55989 58705 60109 59677 58695 55533 56628 54918 53364 59354 62172 54673 56160 56603 62482 52084 58880 55790 58869 53300 59491 55897 52648 57449 55569 55530 58035 53203 54408 56070 65433 52623 62731 51711 50159 9363 3603 6891 8915 3502 6800 11740 11357 4482 11401 12090 9033 8238 8364 11812 10737 12065 11174 7507 7712 13214 9827 9162 8772 7690 14725 12932 12287 12069 12962 16285 9415 15970 8142 8033 7390 9470 7550 65535 12502 7975 9947 16693 10900 7571 8089 9316 7600 13884 8590 0 10299 2604 5890 7175 5022 9857 10652 2196 6395 14108 7570 8369 6163 8550 13820 9821 12964 0 7803 7712 7477 10587 9422 9309 18078 8257 2380 13738 7188 12656 12949 8448 65535 8924 8881 13518 7603 13520 9434 4748 6535 9654 1049 16009 9819 10630 10237 10390 8126 9576 5669 10781 7797 9717 10267 11856 10355 8427 12153 8858 9205 12483 5677 8674 9873 9920 8623 5992 8150 7148 3157 8334 5595 4257 10223 8528 65535 8698 8769 8640 5335 4974 7295 0 4832 56998 62304 52841 55285 59103 53979 53857 60223 58737 51947 51690 54664 59326 59008 61256 50202
61934 58760 55715 45790 54648 58294 49941 59516 57359 57980 50917 53786 64183 53105 58113 61958 50511 52383 55497 53393 58289 54784 55797 53678 56138 52977 65535 53239 49287 52517 60598 54052 56465 55111 61937 59013 65535 52390 57248 55467 59295 54402 49452 60432 55183 65535 50661 60281 57954 58836 50231 52763 58010 63678 0 58999 52982 55949 58040 53932 59193 59176 48906 55245 50203 61286 56980 60816 53102 57274 55960 58751 54198 57607 59947 51323 58674 62990 54056 45171 58579 56278 55222 51829 56598 52550 61304 57342 0 4286 13308 8213 8247 3644 0 13386 11872 7663 8655 9564 19401 3818 3099 10281 9007 9334 8022 10517 13804 8760 9538 11956 8960 6026 6934 11495 11362 3419 10092 9817 4894 5734 3534 8628 9524 4898 8999 11000 11131 5967 8016 16070 14324 9224 6536 7385 9972 1801 5200 12918 16546 13526 6427 7396 11282 9375 10156 2615 14096 5644 12721 13863 10270 9266 8306 11500 13377 12151 8017 9774 7600 3412 10195 5914 12532 8959 12323 2899 12755 12592 16606 17363 11262 6643 6431 876 11746 10675 13977 5574 12573 8054 11602 9229 5116 8404 12895 65535 7921 4978 8696 9275 10152 65535 9704 15893 6813 11048 10150 6840 9193 9999 4248 10307 7909 10334 8503 11242 15721 13406 9046 12092 18993 15194 7744 7762 9986 14047 9462 14166 14749 12494 13078 2391 59475 55710 55617 60457 57351 56810 53212 50598 62881 54286 58557 55934 58677 60830 57758 0
54858 56301 55571 50792 56080 57835 55282 57116 64507 58587 60698 57714 49392 58439 0 61202 57254 59416 58458 54458 56826 54911 0 54343 57817 55861 58841 0 53445 55348 61618 58702 55879 54143 57270 61215 59074 58943 58206 52685 58305 0 60446 62009 52163 49743 57895 54296 61789 60371 55721 54358 58489 59546 58876 54281 52917 53996 55759 58653 57680 59872 55032 51818 55700 52504 56642 56450 53642 55739 56415 59945 56582 54096 54095 65535 58290 59189 56352 60144 57271 57684 61424 57239 54967 62478 58217 53624 5942 13904 14462 9826 12120 10866 12115 8408 9588 10241 11662 5424 6148 11591 10951 4478 5194 9133 7309 6421 8597 10766 7244 3721 3906 8893 5425 6344 3941 8269 13233 2267 6032 4078 14581 8990 11311 10125 11317 8966 5847 5843 10034 11201 15363 4328 9845 6275 10501 8920 11819 11545 15125 5453 3304 4859 13985 12029 9678 12722 7199 8340 3587 10373 6380 4580 3950 6526 5623 10016 13891 10519 8159 10613 10989 10756 7578 10728 13297 10423 3546 9052 6367 11738 11675 12207 7055 5890 6463 9849 7331 10161 7093 7448 7571 10571 4252 9072 0 7265 11540 647 8738 7262 6935 10026 8779 2411 13602 9010 13278 10888 5831 5395 12138 11313 6698 0 9518 10121 12446 14912 6285 5672 12286 11355 7879 8987 4838 16317 11461 9888 13601 5844 4286 6181 54902 53007 54128 54030 58315 0 55719 49701 63335 55510 61701 55907 53988 58114 59625 52445
58969 55953 53832 52362 58353 59345 59169 56966 55732 56964 55607 58436 56125 59994 54530 55017 55120 54332 58073 56515 60281 56882 56951 61056 54445 58112 65535 55677 57259 56842 0 54994 53890 61154 56387 50811 54502 58289 58342 61409 56748 49051 53578 65535 54902 56069 62408 48879 65535 60435 59088 54849 60966 0 60028 59450 55663 62389 64382 61017 56444 55419 53362 61765 52919 56980 50936 56353 57604 55554 56516 57094 50395 56076 59811 56595 58606 59128 55706 61564 54753 52572 58594 55826 52778 52365 57395 57811 9605 8222 14271 6164 4217 8028 1277 8055 13130 8335 5000 8301 336 54 6517 15361 6897 8620 7453 5636 12191 10084 7975 10470 9781 11073 0 65535 14787 6190 8551 11913 14510 13040 682 13272 65535 6982 8370 7656 4143 12437 6056 10094 7094 9956 11381 8664 9436 8320 15080 0 6276 8714 11804 7390 9443 0 1306 13669 7656 10612 10797 9476 6745 12648 6193 12298 8363 8598 9785 2307 10397 10466 11084 4671 15516 3614 11962 5698 10894 6789 11069 15708 10607 9783 9508 9654 14356 8846 12601 9177 12115 10362 8697 8462 19409 10264 9318 8215 6083 8240 5584 12719 3976 4962 12252 11323 9798 6276 14388 6697 7927 6627 9408 5696 9095 8424 10743 9093 6758 18010 6095 8323 9116 13136 9834 8548 11450 10579 0 7706 11607 14731 13473 11960 55683 58821 54470 61927 56524 57671 60672 49532 59298 57517 51370 64156 57151 57574 54595 55036
55712 51522 56003 58050 53104 52106 58385 48955 52576 57814 56061 55689 62502 54156 51600 53574 59525 55049 57858 58427 59811 55270 58638 59012 57063 54917 65535 53211 63628 53444 53943 48819 55637 64736 52451 58787 54389 57732 50737 54213 58766 53997 58288 55023 59314 55944 57686 52578 61160 55495 51094 55676 58370 56732 58034 54289 60384 57395 55390 58027 57142 55468 59499 57588 61552 55525 56798 46388 59912 49444 58235 53625 55154 55500 56999 50798 58599 56310 55679 48517 65535 62046 58812 58956 54907 58812 51655 61742 7281 14718 7735 8412 12039 6263 7744 4520 7974 5637 10010 4994 6266 11692 5816 7855 9904 8775 13205 2706 9989 0 3183 8995 9023 8656 7562 7852 11925 11921 11291 9860 14215 8363 9342 6954 6110 7169 11974 10317 9933 8462 10665 9199 9092 11532 7383 2560 0 8070 4790 7795 11315 14530 6470 5735 10713 15564 5367 5367 10692 65535 12853 13468 8295 11069 11491 13446 4731 7196 7376 6264 5723 6390 0 13365 7173 13783 11579 10192 12274 13216 5702 853 6571 12038 7927 14203 9978 17039 0 10073 8382 3932 15492 13005 10344 6308 11437 4542 12151 14252 10324 12722 14654 9026 5236 8525 12309 15651 18012 4899 6551 8919 8141 2698 15574 3614 12378 12453 9848 11179 9456 7293 13831 10885 12605 15385 2711 5480 12026 8811 65535 3541 6728 10846 57609 57123 61275 56471 51322 65535 57138 56250 58413 58970 53652 52540 56112 54898 0 59639
52659 53564 57391 54979 56318 62049 63708 50585 63325 59647 55424 58432 53558 53350 52425 60424 53949 58957 56426 52639 55956 62456 56693 53286 53637 53682 60307 52281 58771 64063 57368 50746 55365 57591 50528 55705 57387 55815 50876 51356 55801 56735 58088 54139 55825 58660 58427 55875 62425 54828 55297 57451 57625 47588 57777 55192 63663 58230 65535 60649 59691 57754 51796 55908 51077 55184 57919 58671 60204 65535 56235 59290 58415 62896 56407 55966 59440 63010 60721 60287 56320 54113 53325 54582 0 49822 54812 58634 56891 60716 58438 54602 54889 54926 60701 55539 56420 51732 55728 56797 54725 56549 58240 61747 57011 48181 60801 61596 52511 61137 59008 57737 65535 60489 60029 58632 62512 61588 55974 58465 52885 61375 57486 51201 56902 59344 57596 53932 55076 51258 59525 57024 56687 53941 59205 57238 53467 59996 58166 54622 51502 55627 57788 53762 58054 55654 52579 56526 56476 55233 59140 60200 53931 57189 65535 61231 55170 54878 58774 53954 4130 4058 8868 12459 11944 10886 0 7835 14741 7693 11098 9874 4365 9639 7379 13230 9645 10413 3496 15152 6922 13365 11411 7561 7103 8963 10530 13046 9614 10822 9879 8396 10262 9583 8418 13743 16045 2848 7449 7271 9092 10181 7482 65535 16002 7640 2599 12356 3390 6270 7200 9452 14381 5693 7136 5990 9261 5825 11506 10597 9351 11656 9545 11218 53853 52767 56436 54766 65535 53930 53706 54397 57804 57191 52405 54468 54666 53378 57808 59333
55454 60485 49556 56299 57398 51826 59617 0 56465 0 53251 61234 52399 58717 56451 56924 58550 53991 52556 56621 55359 55927 59224 0 53352 53722 55708 56396 60583 54105 56550 51936 53117 54649 57773 61136 56805 56633 55029 58385 55880 55561 56599 55584 54248 56205 54242 59537 50485 52156 57701 53341 53277 55263 58168 62340 57186 54313 63051 62197 60584 65535 54056 60996 58469 53153 58973 58897 57375 0 55849 57037 57273 53258 58909 59664 59740 56647 57587 58919 53034 57855 57862 54861 49031 50618 59547 56476 50432 52655 56562 53954 57844 0 58980 58030 60676 57275 56906 56466 55823 62513 58195 57950 53998 59215 56335 56017 56423 56439 56275 55591 58377 54674 57825 65535 59282 56560 55231 55727 51542 55133 54824 56318 58734 61376 59371 61007 58057 58859 52838 60251 56787 57203 52522 49024 60523 60734 55263 56884 62353 59857 62493 52899 53880 62029 56000 59576 57920 52490 51655 60067 54418 51240 56990 56598 55208 64222 52271 59589 65535 9932 8193 5959 12443 10473 10839 12615 9229 16411 10784 11400 9509 10082 6099 8636 9948 10807 10132 0 9830 8130 10476 15034 11323 9596 3357 1765 6885 6807 4588 12093 4666 6269 8212 9222 11173 10333 7410 9121 10412 13765 13659 620 5250 10055 15380 16267 6257 11363 8653 65535 0 12589 6673 5224 7572 12186 9617 5805 7874 9515 4391 11986 61026 64300 54802 56692 55749 59165 53752 49588 60354 53556 55376 61092 62390 57347 51107 54510
51096 63475 49932 55677 54521 63557 61480 57342 53054 58892 49450 57185 51091 60259 50326 61911 49945 0 51263 62031 58612 59849 54931 50656 56407 53369 57589 56669 53773 57039 56082 58280 61885 58719 56395 59806 59065 59567 52541 59506 65535 56093 56843 53276 61825 57249 48635 52148 52617 54550 56633 48856 57825 59468 50874 61017 58257 58786 63058 61789 60421 60052 57716 53420 51645 59943 57173 57870 57496 57126 56878 62633 58802 55111 59500 54260 62266 51281 53531 50380 50577 65535 59476 59926 55903 54666 57014 61232 58305 61626 56863 53786 57562 55530 57588 59296 55300 57683 55260 58441 55114 59239 52721 52984 52800 56026 49283 59400 55045 55054 55508 57711 56946 58519 52328 51188 54061 56845 52695 61498 58772 56039 57033 55674 57264 59343 59289 57446 55707 57168 64223 51798 58074 59231 55675 58989 54475 54373 53359 59644 57812 56028 56628 63309 60865 56446 56546 58039 53434 52965 60169 59613 55161 65535 56070 57893 58430 56969 60899 59526 8226 10864 9922 8612 6378 8626 9348 2290 9670 11100 9384 4239 9604 9752 10448 13716 8085 4928 8794 6098 5382 4304 6498 16471 7069 10433 11624 7342 11035 9406 4138 9084 4242 14784 9229 6459 8254 9421 6355 11138 5278 3882 10496 10319 11427 11586 10543 3100 14605 9911 3484 3538 8326 7232 13377 10157 8282 10077 7711 9825 9627 13127 13689 9080 59755 61382 55487 53336 58847 53891 54957 60651 54298 57686 56073 56562 56825 56885 54533 57173
54899 56436 58124 65535 52667 59227 62925 55526 51408 56512 54585 56380 56400 52208 58534 59255 58057 60739 54991 57728 56121 60061 57574 51731 56109 59757 51537 60301 50245 0 56327 59832 58297 65535 53195 55552 59559 53906 65535 56983 55510 62421 65535 55417 61047 58272 60985 60622 55161 59416 0 54749 60396 57532 55901 60332 51799 57582 56616 65535 55701 52236 53688 61494 57761 58038 54624 53929 55554 58815 48545 57767 53183 61169 52478 59910 60361 56232 60588 64584 57040 57563 52574 59312 57931 51789 62342 55760 55351 55775 55453 54664 59254 57320 56591 56909 55667 56910 55623 58031 61398 65535 58267 57083 57060 48281 53479 54812 49913 54153 58490 52090 59159 51200 56320 54743 54506 55413 54498 55441 59947 54214 60135 55768 59156 55107 54193 54595 59315 54363 50465 0 56641 56849 56612 51615 57603 57249 55691 56044 50209 55990 57504 60248 55636 58605 57900 53663 50408 57315 0 55824 56187 59712 57091 60271 55908 56956 51897 54770 6033 13228 10529 14571 11449 65535 7283 9193 13435 11676 7917 1051 13184 5306 9619 5174 11643 7735 10292 9203 15913 10788 0 5405 11034 8205 14913 2304 5753 4284 6130 20673 13416 7281 9840 8378 9823 8653 4983 12273 4379 8040 5556 6830 7675 5261 13353 6376 8400 4082 5383 12179 15248 9707 7187 8248 3312 6193 9638 7625 6995 9879 8291 12561 57971 55363 60011 63948 60781 53235 56232 59484 54249 62157 51477 57733 53697 51076 0 61507
53348 63470 53468 58736 52967 55194 55595 58453 56212 52875 49574 51756 56745 58106 58425 59654 61136 53790 54710 59449 53763 50437 57080 52296 56511 56951 55986 57625 54284 62175 61357 60408 61125 56480 51510 55528 47397 54309 54168 52911 51553 58078 57993 53920 60119 62023 52432 57813 50218 58904 57476 52424 61686 58837 57734 54618 50438 52811 55033 53760 55765 56309 55973 58284 50374 55377 57454 58826 46167 63839 61837 62292 54494 50896 55478 61364 54493 52528 0 49983 59983 56015 48268 60408 49093 57824 50931 58753 61512 60541 59006 57248 58687 51020 55910 56525 51018 60140 58763 52092 60696 54913 55369 54986 62725 55134 48489 50109 57294 53686 56511 52070 55326 58017 55828 58621 56740 59972 56999 58048 55003 61832 58312 56761 55793 61503 57689 54618 54562 61102 63154 56968 54736 56600 61866 55751 64010 59976 52972 58539 53658 57691 58099 49940 49260 58458 50981 56383 61340 56094 54465 56919 60902 62871 55169 55627 56942 54923 57719 62452 7808 10346 10829 6742 2091 1936 7389 5416 5866 16073 7567 9583 14495 7892 14675 3577 9081 8583 10589 7884 9129 8095 8463 10032 8659 5008 11833 13856 13223 14996 2485 6257 12811 15880 10627 12579 10882 6712 3524 7807 4208 5910 5014 9180 7884 11910 10732 65535 12571 9300 7470 10511 7989 9151 0 8785 8894 7368 2725 590 5880 15559 3308 9722 64294 60507 57040 53248 51498 53288 58027 53303 53000 59451 63637 59954 55099 56799 58411 55612
63514 62908 50391 54467 53432 55586 61963 51593 55993 57643 59051 54654 50462 52003 56502 54617 57186 49118 57806 53079 60142 59870 56752 56713 53259 62800 58054 57238 59375 53282 56537 54023 56804 57288 60033 59565 55499 55929 52982 58878 57112 50168 60887 53279 55738 51919 51935 61450 57910 59429 54960 65535 58630 57251 53924 58927 57195 55077 58817 54619 53667 54759 54092 53392 55847 53298 51599 52621 62109 53604 60594 65535 60194 53171 58257 54740 55606 60057 57544 53644 51552 60786 49469 61729 55650 58501 52485 60805 65535 55559 55751 62203 59691 62785 58548 52927 53329 57860 57854 55250 50444 55287 55404 50908 65535 55927 58229 50552 60843 53640 53142 53770 60186 49671 60120 55068 51190 58627 0 51519 61719 53239 57828 56652 0 52505 0 58149 51217 62278 53415 55777 50555 60352 54967 53552 55417 53013 52466 49918 52358 54961 53427 57646 61447 51945 56229 53160 50637 51588 60910 59665 55180 57327 59159 50445 51247 53802 56479 55037 11128 11792 11280 9435 11175 8974 9502 7384 6883 9799 15606 8896 5740 10411 4498 13689 13738 6611 13859 2058 14119 10247 8422 9256 5879 12106 15515 11920 10913 9337 14973 10036 12781 8679 6236 8808 7025 11631 5952 13533 17762 5258 6842 5716 12212 8825 10258 9980 7038 0 9572 9283 7350 12404 11072 9656 9224 9427 11328 10394 9427 10430 7739 6824 58296 0 53163 55827 54140 50634 53542 62153 60758 55492 61064 59793 56065 59432 52393 55886
59971 47560 53365 60010 53067 57167 52551 56769 55665 55227 65359 59033 56406 60334 57459 52573 56990 57625 53755 61668 63166 55963 58088 54635 52714 51409 50496 56619 54832 52061 57273 55412 54148 57123 60507 50827 59760 53108 59451 56506 63028 52281 54462 55264 65535 51559 53921 54986 53921 58346 54282 55724 0 62357 59219 59212 53660 58632 53077 49654 56406 65535 50911 58797 62123 58480 53089 58217 65535 54387 60341 61986 53739 57734 60663 58044 57544 61205 62385 57376 50607 55376 54845 58445 55009 60582 58042 55303 54030 55238 60195 56393 54695 57267 57869 58991 54662 65535 57141 55996 50448 56303 56141 53214 58346 59046 59033 54486 58899 59598 59043 48078 56775 58721 55558 63054 60569 61166 58644 54576 54043 53048 54471 57954 53068 61386 52874 60980 61870 61157 52326 52126 60138 57361 59829 56500 55491 54725 61734 55916 57404 53924 57365 56406 53785 61865 58443 59953 55677 63845 51477 47898 60967 52102 54487 58959 60321 55475 55238 60230 2484 6252 9905 10772 5517 14856 9363 9501 11469 16171 8691 6810 10562 5729 0 7307 8932 15430 11502 11720 6178 11011 6119 7960 17415 7182 9322 8592 13029 15748 9099 4276 8664 14014 6060 8500 8546 9673 14499 5590 14429 10321 15212 11075 16514 6833 6310 7138 8828 7766 14921 10157 11712 8957 6747 11907 8898 6844 10166 5266 12594 10176 8513 11623 52289 65535 56526 53958 53000 54359 57525 57782 57911 56081 53275 51738 48345 65535 58067 54352
52073 55055 52861 50791 58128 51019 56000 52698 55340 57568 52671 55028 65006 53105 55956 58319 55178 55371 60366 51595 55409 56423 62471 55914 58796 60949 54644 48727 57588 57983 51317 51923 48594 65004 59337 49625 52450 58912 60963 60176 55329 65535 60390 55171 57865 52959 64840 0 61441 53961 55203 51498 55915 59948 58875 58353 52687 58359 57573 52206 57993 56067 62090 52981 54324 55684 53154 51577 54100 57326 62178 53113 52340 55621 58463 57840 48922 63873 54612 61358 58351 47979 55679 63756 58834 61367 50828 58944 51145 61062 53618 56872 61987 56830 59825 65535 59369 59814 62681 53465 55257 62753 60285 54645 55830 54505 52073 54554 58125 56558 52363 57493 59124 56906 55165 54377 52281 52773 58683 64403 54224 50857 50454 55835 61108 63375 57197 57023 0 62412 55357 53338 53305 55228 45381 53434 56095 49714 0 56683 56261 54962 56698 51076 57950 54196 58665 54089 54807 54160 56241 63838 55265 52003 57361 61327 58927 56234 52708 57320 8879 12676 12339 10838 6384 8627 5307 5825 10592 12067 4134 11263 2709 7708 65535 9481 14879 9424 14214 13780 1880 4331 8454 13776 13247 3482 16944 6953 8689 9864 8112 11311 4818 9282 9917 10612 5240 13748 2376 4253 17083 12396 11899 9333 8799 10634 4165 12599 5276 7331 65535 13749 8788 5140 6742 11766 12640 8437 16882 1581 9594 10854 8791 10430 57862 57298 51014 56276 50543 56309 53548 48611 53877 54219 55800 52034 61653 50579 53528 50903
58271 57797 51818 52537 52536 59239 57922 60003 55423 51661 53563 56791 56172 53867 60647 60221 58532 58051 55272 56496 45258 54035 49614 57258 58119 54013 63384 64294 53174 59052 55926 55528 57344 54429 57438 58281 58347 54482 58563 56310 57328 50590 55177 57076 65535 63298 60712 56029 54590 56140 55860 55383 0 56315 51521 65535 58008 56751 55545 59838 49486 56417 53826 58118 60480 58401 57281 63062 57960 60279 54669 51926 61733 55594 55341 52486 59342 65535 57474 55102 62145 63044 51839 61228 54822 57405 55209 56980 57529 49533 50960 62738 60547 63261 57551 57405 57394 55529 56607 56091 56674 57440 56929 56724 51727 55436 61957 55399 55618 55555 53635 57052 56286 58477 55330 48846 57702 50686 57604 56050 54868 56630 54490 55524 62926 56464 0 56616 65535 65535 57358 63076 54317 54177 60456 55318 57843 61761 58930 64133 55471 55317 54445 59755 52570 52697 50004 60212 0 46730 50166 55999 53018 52856 54365 0 55850 58048 57841 55183 50560 50384 51532 55286 50349 54857 59181 55836 7510 9820 11967 8244 12269 6357 8704 9380 8446 6333 2936 13083 7996 8547 11610 7825 11320 5336 9792 9955 65535 1060 9317 8578 6429 14705 7883 11142 10731 11927 13883 7950 4647 11403 6687 1338 10683 5456 7508 5514 12411 2740 12364 9598 9650 9637 9569 9904 5249 5664 8699 7080 9108 65535 10669 14314 54127 54910 52026 60496 56358 55305 65535 56155 53859 56101 50439 58977 65535 57930 54712 58194
58587 59499 55734 55947 55740 0 58402 51565 56355 62370 64220 52897 63305 52856 55708 58896 53836 57353 60553 52499 54522 56551 57835 51313 62873 55726 65535 51571 60004 53932 55873 56269 60395 52450 59588 54814 54036 59960 59141 57390 62293 55041 58237 58893 65535 55589 57891 56354 53895 56088 60040 59179 57384 56067 53228 58306 52213 59776 54488 59780 55533 57060 57310 53259 56833 52864 53404 55041 58365 52233 56217 57147 53853 54611 59953 62847 56817 52600 60061 50875 59136 58384 54042 61572 58949 60194 60328 54981 58957 55718 59454 63420 57354 55238 59221 58266 49860 52945 55743 52892 60390 57903 57313 59357 53358 0 54981 65535 56506 57616 58352 61775 53475 57384 58468 60660 61945 57798 56402 59084 55217 58899 59330 57627 57868 53482 54487 57054 53980 55097 58993 53012 60061 58438 62108 58642 58817 61378 54513 56814 58227 60620 53573 58768 58918 54790 59359 63755 55690 59578 53984 52241 55189 59710 53232 54195 51749 54766 52046 53900 56776 54151 58906 58122 56262 55581 53460 60395 8557 8011 10288 9810 6788 7352 8518 4498 7693 13941 13348 12526 9501 9185 8643 10507 0 6644 11933 7998 11568 6374 12882 9325 4849 9433 14883 8198 13238 5891 7376 9586 9435 1617 15226 9064 525 4476 9910 7546 4182 3053 6305 9269 3670 9308 10724 5150 9771 5684 1369 8411 9057 7486 5461 5587 55820 55010 52638 61013 50057 53610 54325 55914 53867 55028 49626 53890 52172 58159 50657 59561
59999 56040 60140 56290 54783 54589 54676 55579 63412 62694 54984 58984 58072 51986 62133 53984 56141 53940 55586 59734 56310 52189 59021 65535 56988 59266 53121 57808 53060 52299 59590 62095 55323 59660 58047 56900 54681 56546 55440 58947 58917 53806 56777 63781 57358 55572 59253 50997 62228 57784 51298 54868 53024 60888 59755 59465 51975 51063 60766 56464 58876 53567 55864 56390 52976 56909 52674 58081 55741 65535 50508 54132 57849 54000 55046 52149 57235 52913 59079 0 55987 55754 58384 65535 56731 59440 57418 58150 65535 55686 58550 58946 53510 57669 55262 47399 52805 60638 57987 61223 52704 56066 56313 60132 61565 57984 57289 57299 55565 64449 49697 59623 58673 50047 62527 60810 52303 58253 61084 60684 56448 53956 54859 59163 58387 65535 0 65535 54689 54488 63055 52515 63098 65535 55273 58661 60570 55791 61200 52833 57479 60737 61801 54051 52689 54872 57737 52778 58345 53305 59978 59609 61229 56022 58259 55057 56333 54471 58173 53768 62026 65535 58024 52578 57083 53959 60317 59840 7286 9649 4848 8644 6437 15037 13123 5714 5636 8576 12821 11068 5099 6575 10168 8300 7155 7871 8420 13119 65535 6779 4675 13534 7555 4976 10434 8860 0 12593 3254 7630 5801 12363 10093 10107 7473 6969 4301 16946 9535 7838 11825 7809 10514 9486 9637 65535 13139 7809 14745 5286 8779 3915 4798 8960 57921 64657 55365 59469 60669 60775 54417 59107 60213 58467 53775 54962 56928 55424 60124 51239
54442 58302 51757 56396 51999 58896 59745 59018 57705 56683 62534 58408 48950 52085 59216 51999 62560 53572 59051 57150 57721 0 55174 53728 64203 65177 57174 58438 53758 52010 62143 63554 56119 54255 57014 50698 53970 61577 54515 56035 58306 47771 59167 65535 53880 55383 57390 54637 57584 60792 0 51666 55969 52012 55178 65535 54072 53941 57443 53791 56803 56840 55088 56895 55510 53145 53446 50738 51775 53341 58018 60638 58046 58844 56111 53517 60796 58187 56837 56091 53618 55049 58317 54071 62177 56662 60544 65535 57988 55937 59394 53636 54625 55845 54771 56830 56672 51610 63901 59050 49886 54320 58764 57037 54553 52773 57289 52014 57654 57572 53620 54639 59329 53454 60612 58906 59931 59298 59155 54622 54411 62604 60890 60909 53975 56364 53404 51668 52140 64496 56438 57516 56943 53285 59365 53161 54743 54943 55384 60799 54859 52834 55805 55584 58239 61662 57347 59235 54376 57150 54564 63250 49616 53500 58426 49287 52472 63404 60144 62451 54802 47166 65535 56009 54402 62224 58360 56248 5578 10910 13432 8931 6106 2152 9306 4524 6940 0 13163 6567 5992 11030 1151 7652 9457 18338 12212 11419 14672 9705 5117 2231 5352 8149 15124 10521 7594 7990 10274 9490 6887 10393 9587 147 11993 9526 7537 3823 10981 10528 9216 5866 3189 15275 6528 9726 7457 6885 15519 6250 5491 10567 6490 5565 56981 62216 57111 57903 57539 58710 54574 58385 62001 55740 52919 57803 56704 54130 53587 52682
53150 54973 57541 51136 56874 60274 59541 58666 56564 61183 56553 56589 55153 54178 53698 58785 63488 55705 51386 53210 53133 59115 56702 56539 53662 55027 51601 56070 57609 57268 53845 53564 52040 59350 55573 53936 48896 53159 53125 58240 50641 57517 57298 54752 51118 54645 51519 52072 59660 56623 55604 50496 60225 54943 56130 55684 51500 64087 56282 52186 56003 57852 53118 54451 65535 61923 51964 63024 55357 58715 60521 54351 63647 61539 52937 55962 52072 62595 59549 55048 57726 58521 56723 54947 55044 58373 55358 53158 59569 50171 53675 54484 54495 53179 65535 57356 59984 56923 65535 0 59431 58601 55234 53633 55092 53957 51875 57857 59016 57397 59198 58815 0 57498 53523 56244 65535 57013 64542 54654 61778 60305 52540 56368 62351 58577 56076 53534 61216 56726 53240 60144 54275 59874 54066 63636 58812 59999 65535 52593 58418 56552 47877 62317 57919 55826 60970 55318 55966 53601 59949 53393 60782 55749 57628 54394 55775 65535 55978 57604 59828 54706 63220 61533 58290 51477 59493 65535 11583 8903 12417 8007 13288 9313 13347 21147 12667 5927 13269 11726 8384 11287 11839 4738 9781 6956 8416 7340 14163 1462 3282 8245 9570 7279 7884 10317 9649 5282 11118 11853 8577 5356 13144 0 8638 7065 13665 8145 11170 11673 0 65535 10000 16713 14179 6719 7744 7525 2661 8953 6372 2699 10206 5283 53753 57218 53832 52935 53441 54060 56317 51184 55559 59560 64173 55967 57457 49551 53609 58690
54123 58869 55417 57345 55186 58529 59097 55777 52722 61074 58623 60405 61859 55626 52768 52420 57490 0 54973 54004 54413 60028 60554 56973 56719 53354 58378 57372 54212 55156 59765 58486 63880 51124 53335 57290 51511 53892 52961 54803 56339 58858 55237 54637 55673 58281 56172 60478 60854 55796 60133 53927 54517 56830 58526 58118 54960 50906 54239 57251 55669 60642 54094 55179 56963 62286 50125 54764 54853 49376 58613 52476 56677 60570 57612 57048 0 52306 54862 55902 59333 55945 51562 55905 53396 56787 58221 56997 56115 60217 57900 57128 55680 57034 60888 53973 53841 51879 57025 55612 56388 56155 56146 52037 55853 59603 51162 63224 56517 65535 58435 49931 54992 52768 54315 52466 51725 57541 60519 59600 59001 58310 56969 57893 55757 59406 59210 60429 51349 51368 60994 55370 47965 57992 58466 52359 57793 54124 58026 56116 55193 52469 56168 53389 59515 55808 54294 59558 56470 51874 59754 60951 52849 57297 56760 60100 58196 53072 64369 61963 62897 56942 53342 52677 55067 58752 65535 55595 5798 9730 14162 7486 9614 10634 10661 8033 14064 8564 3362 7377 65535 65535 7299 9389 9090 10128 8215 11727 9351 4825 8092 7464 7421 9871 7252 6914 7765 6186 13642 12617 7629 13002 7093 13371 13849 8173 8653 6810 3152 6206 10570 19095 11183 3596 9462 7742 8329 6896 10395 8822 9943 1218 4628 7569 59060 56922 54451 61139 54629 57934 48551 62232 59896 61810 57529 54874 59644 58995 53334 61417
55888 53437 51825 50970 55378 50754 59992 65535 56913 63869 47774 56405 57163 57845 56485 57069 56826 53110 56092 49719 0 52509 57023 58186 54173 55069 55939 51603 60731 56222 53802 65535 57110 56291 47133 58516 47356 53994 62244 65535 57727 57161 53194 58285 57127 53989 55555 61675 60724 57314 55531 55188 56098 53872 57560 59685 55197 52771 53686 59313 54038 59342 52533 58493 54827 57734 58717 57896 59063 53412 56596 55952 55817 56070 56882 51027 54489 59976 54067 56425 53435 56320 57087 54069 59666 0 57769 57491 52114 57492 58004 57736 53495 59108 58207 60056 57384 54012 55708 54597 61514 65535 58803 57129 51431 57691 60112 55708 60689 60675 65032 57976 65535 55812 58408 53335 55914 59032 57250 52868 62631 53035 45313 58164 65535 54106 51624 53750 51327 56053 59718 54039 54856 53596 63088 0 58468 58036 60185 52675 54212 59256 51453 59423 56179 58379 55490 53274 52581 60902 63231 55569 57614 56789 60596 58832 53407 52064 50610 60960 57918 48622 57460 52317 49940 54866 55143 53117 9055 10381 7804 2018 12812 12438 16265 11480 9983 8110 9463 7643 6323 7247 10562 8128 8870 10901 10947 14358 15080 6374 9556 9072 3042 6400 15269 5409 6986 10437 8633 2575 8539 7351 3661 11343 8890 11299 8377 3304 6287 5069 3383 5191 9145 11449 7428 3947 10814 11271 0 12566 10502 11548 8295 7320 59120 54098 55626 56456 59924 49044 59953 57435 60697 52350 54744 0 58879 55640 57206 65252
60581 51182 56687 54952 56837 51002 55970 56291 60037 60899 56181 59058 61737 60466 53826 62852 54819 61335 54010 56856 59300 55705 55782 58290 59503 55001 57795 57374 59126 59689 60414 57944 53999 62531 58417 54431 55661 58644 55198 58287 55284 53232 57001 57257 51145 55972 61626 50197 0 0 59423 56319 58391 55229 54775 54640 58047 54790 56713 55358 59267 59690 52680 56164 62271 65535 52754 57664 59401 55042 56360 58620 58141 63937 54995 65111 56654 59145 62706 53445 61056 54541 51173 55756 56190 61900 59354 56001 55041 56171 49106 53208 51480 55681 55698 58207 58170 56774 54039 50467 52399 62519 59370 51907 56512 57444 52008 53804 51896 58808 52738 54238 47594 58378 55841 51078 55508 56793 55027 60343 57402 62119 58537 61657 49177 56012 55533 56465 61102 53696 58735 55661 62249 53747 64125 61869 55441 58117 56457 56097 56234 50799 54547 54436 53269 56865 57930 50874 58850 51943 57701 61225 59875 53515 52268 59511 53711 56512 61608 63137 51192 59557 56671 54045 60301 56966 58073 51641 9283 11458 2011 9299 11300 6596 8656 7692 3072 9906 9328 8814 9026 5031 7799 5511 12872 9470 6890 5796 10812 10877 11216 9841 9169 13195 2716 13157 8690 6582 7948 10803 4508 12669 3879 12665 6115 5285 0 13145 8885 4588 7952 6648 11021 12419 65535 8741 8030 4385 13348 12358 10018 3389 4388 6437 55941 56359 58637 59619 58066 63223 63578 60137 63503 54315 58093 55330 50753 58904 56547 54730
47722 55692 60324 57239 60172 60703 65535 56622 52289 65535 57923 56780 63380 53912 54010 55777 54343 52274 59416 61979 63371 52716 58895 57625 58954 54745 54974 58012 58867 57053 58372 54937 57933 56930 57764 56921 57158 59020 55454 54210 61280 57496 60528 58410 59669 57415 57946 53560 47195 61129 54648 64089 51048 56001 51009 53285 56852 58119 58192 51443 50881 55055 62423 56845 58529 57808 56762 58308 55796 58431 59719 54408 47739 54753 55774 56594 61013 50390 59957 58365 52552 56608 61155 59036 57907 59930 55070 0 56857 58616 63342 57327 57977 57624 59398 52890 54253 52678 56470 54902 56537 60078 48896 57279 53234 61427 58641 55713 55036 56226 52540 53589 61777 54388 55237 60960 65535 56393 53439 54121 51282 53524 50535 48056 65311 50162 57679 57941 58545 54629 53893 55989 59763 56921 54069 48079 57493 58868 54876 54900 55846 56882 56838 60437 51262 63294 53987 53028 58549 56122 57778 59151 59519 54950 58222 65535 58654 55708 60613 53310 60752 54163 58339 61403 57115 65535 57242 58849 62112 51650 60322 57503 55961 53168 56101 56964 13011 6760 6694 4527 4063 7838 8459 10387 4278 6838 10893 16385 2747 2406 8652 10832 10095 13138 8290 7230 4647 9591 11735 11396 11103 6047 6412 9782 12366 6398 13011 5828 65535 5180 0 11005 11597 65535 16510 9493 6130 5461 8904 10085 16206 7304 7406 9589 7982 10027 12565 8360 13524 13007 14623 15192 53320 58329 55776 59415 54400 55411 60718 58659
57100 48956 59451 53201 54173 61276 57309 59616 59162 59764 55720 55715 55928 63489 58293 53448 60140 52710 54409 55160 61613 55228 58616 63017 57961 56411 54509 55859 61525 50671 59923 55773 54957 55798 0 59792 56444 57800 0 61125 54691 62643 57303 59403 58199 61736 60376 61482 52671 53260 64198 47497 56539 55184 61148 55269 58720 55278 58531 58490 59313 59292 55945 55672 55186 55575 54170 59764 57236 55694 53004 55013 57203 58130 62223 59308 53823 58814 56980 58780 56445 56373 56161 46787 59299 58217 50256 54689 55452 54979 55077 56257 53722 61025 58997 54733 58593 51077 61901 52982 52007 51275 57904 57027 59243 52023 50287 59196 51816 61038 57709 50335 58388 54815 61717 54105 53196 60484 61654 51244 50690 51067 54711 59946 51762 59794 55941 57694 54489 53042 50274 51688 51739 54312 52298 55251 55666 0 54032 54165 60905 0 52739 55607 58287 55304 63221 55488 59800 54655 56855 56294 58774 55087 61486 54801 55536 55295 54638 53861 52097 55266 0 61103 55025 56318 53674 59055 58416 60112 56191 57067 51659 52950 55010 62755 7142 6232 14439 6818 13658 9262 5551 6470 11681 8599 8302 10602 6456 11818 7268 7548 11640 3183 8223 9252 14114 7993 9129 5737 9861 12677 7735 13328 8080 9209 4161 9591 8548 14226 6117 7584 11068 10144 10952 5904 12320 9458 11633 4505 5571 1084 10774 7036 10161 8703 8405 5325 12043 13276 0 3648 54405 56361 56386 53158 60899 55171 54740 58579
59308 55830 54141 59738 48450 65535 59616 59699 59327 54604 56168 57477 58741 63898 63476 53128 54140 57839 56788 54413 58284 59018 61043 52608 57875 52822 57471 60684 54838 58044 65535 57223 58686 53438 48783 54515 59746 57026 61642 56368 57598 59869 50855 51762 56161 55004 55096 61662 58686 65535 54024 54546 64620 58275 55016 65535 59680 58302 49982 56720 60412 56734 51927 63526 56263 61636 61633 65535 56949 61550 58403 62000 55268 48595 57319 58616 51266 55372 59569 55090 60342 55649 62395 53259 49552 55455 62590 59334 53344 54937 54343 55577 65535 51190 52127 59554 63798 57999 58151 56941 52775 58059 60194 0 57569 60701 55970 57463 49067 59033 65535 54857 57400 60963 58331 58559 59947 57586 56025 55321 56776 57407 54446 59608 51779 53424 54867 57804 55691 51207 64132 57290 56517 54797 55886 56680 53367 54244 49878 56905 58433 46662 58948 60684 65535 58687 58706 56504 55923 54173 59479 55610 53908 54687 60694 53766 53559 56299 59460 56041 54145 56970 51921 57736 58291 59355 49041 50384 49828 55502 58182 54436 57375 49396 54057 58356 11647 12117 10338 5919 10592 10275 10276 2550 3422 13471 8597 1864 6917 7069 5712 8145 11091 12478 8388 4119 1700 11731 6741 9868 8904 39 6194 61 8568 12671 12351 13180 9653 12812 2237 9305 10698 4684 8829 13168 10238 798 11743 8795 10570 5577 9339 4555 11024 7621 11784 9340 14348 10290 8826 11941 59463 52540 56046 56059 54588 57052 61177 58140
56374 64602 59642 55105 56861 56214 58695 53819 65535 51730 65535 58620 51625 58280 48795 56176 56367 53072 54118 57921 48416 62350 53156 54067 54431 53489 53875 54625 62826 63260 65535 56862 58139 53024 57072 58556 56386 61203 55757 65535 54472 58453 65438 63583 58007 56905 57026 56206 60130 54139 58454 55428 54489 54270 58930 53903 49097 46709 52590 54174 57932 58731 51675 61152 52360 60811 58688 53319 60207 59364 57075 59807 56155 61902 58068 60359 61914 51638 54972 57843 54646 62867 58708 57207 61645 57902 53374 50834 59512 59490 54978 54889 59761 47231 57726 54321 53608 62221 58188 55679 65535 53862 56468 53028 55628 60136 57843 57603 53340 58966 54338 57882 59858 57137 52825 54501 56864 54427 52671 57933 53974 54679 59220 54179 56249 57466 55895 0 53404 55722 57808 55757 60268 54137 51762 53349 60061 55769 55647 54991 55766 54608 56103 54142 58792 52511 57910 58148 57545 57169 52964 0 55581 55950 54009 62103 60626 61286 56667 60417 57314 57722 59925 54621 52653 56169 56675 58008 47257 57899 57824 54233 56817 60431 58415 56980 12453 11966 6890 11393 8311 65535 5772 10221 11408 12425 7411 65535 6533 12023 7866 1134 8911 8347 12244 4512 11915 6295 8777 5648 12683 6257 5470 10040 0 8571 7927 7227 11395 9722 15176 11346 6658 10102 11060 10477 8150 7727 3452 6709 8538 14540 5346 5825 11130 2809 6997 5499 11520 3615 8176 17736 54619 53029 61843 57357 61717 56982 60658 58538
65535 59288 62397 49519 57363 47108 55843 58413 49438 55548 49505 56136 64430 61260 57418 52889 60507 53989 52044 56188 52018 53350 65535 51758 57219 48509 53106 55101 56030 56285 57539 58066 51834 60106 58391 60389 65535 64770 51480 61191 60942 62322 52347 58607 59628 61570 53523 58775 51496 54962 57075 56249 56310 53643 57766 55671 56699 53201 49793 60071 57847 58136 60404 56609 50688 60212 57312 57520 62920 65535 59334 52926 54127 61796 58775 57582 56799 65535 60728 53711 51588 55593 61691 56486 55826 60195 53498 57636 0 52263 56548 51625 56381 55754 63981 59800 52738 51721 52584 61641 56480 54727 57545 55689 57100 60668 57096 56949 55509 56301 59944 59894 54683 62429 61496 63624 62728 55487 55668 55941 53541 54866 59543 56936 61003 56345 58020 60031 57745 57705 56367 50499 53421 53735 58695 59268 55531 55257 55818 57919 58776 57310 58822 54318 58008 57349 54479 63742 65535 57252 58740 59525 53973 56388 55678 53412 61084 61261 54832 55499 55873 55338 61687 52182 54519 61017 51107 65535 57306 53980 53110 53849 50845 58658 56453 57374 11317 10668 10822 65535 9438 16811 9438 6707 11903 9367 10746 9980 0 14722 10372 13444 14329 8182 10209 8496 13748 18199 16631 11112 12056 13812 5249 10446 4587 2374 4863 4607 62 10083 10051 9645 11822 4370 13822 9110 14747 3691 5011 4535 7993 2579 7007 6590 7308 8321 9699 14596 3029 7843 3530 4310 54559 58401 58839 59479 54498 58495 56705 54097
61667 53714 57452 59716 56909 57081 61173 58890 60037 53014 56236 57799 57493 61343 57299 56213 53960 59091 58537 58996 59720 61067 65535 55309 56316 55554 0 58044 59898 53620 57444 59440 57653 53551 57667 54398 57594 61556 56148 59593 53284 55632 65535 56938 58707 50475 60311 63692 59463 58279 56646 56750 59820 57423 51804 56872 60984 54925 60170 52285 53974 52971 57397 58423 57882 60386 57832 62157 48161 55269 59517 49060 57227 52027 58120 56366 55168 53398 58911 62149 54167 50849 57805 55973 53705 57694 65535 58816 55427 53627 54512 58070 56780 56941 50381 53212 52576 54325 54370 56903 56736 53849 53652 53324 54925 51508 56270 53448 49958 57285 65535 60342 56508 58725 57749 55656 51993 55098 53873 55592 57199 58382 58841 54444 59054 62276 58275 51367 52837 53813 56481 58368 49878 60233 60567 57488 61227 54777 58484 51806 54809 49664 58731 62470 61526 63334 61877 57884 61764 54502 0 52506 57186 50663 54791 55483 53464 56830 61524 58474 56967 59739 56028 60126 56747 59854 65535 55586 56082 55830 58857 56952 59746 65535 60299 0 10592 8898 9098 8746 10305 2197 7576 12131 8372 6405 4274 6353 65535 4730 12119 10374 9071 7080 8652 10461 8827 9413 8280 9115 16557 9460 10201 9719 1584 10293 9536 4368 6733 10491 7527 10507 11483 3624 9675 5943 9940 10006 7013 11737 9531 11180 10769 12913 10776 15316 1934 9747 13471 8782 5787 13458 59240 59671 56724 56622 52798 63063 61668 58479
54957 50580 65490 53820 63368 55102 55559 55352 53249 58250 65490 53123 51383 56811 51124 54581 51639 53361 53694 53591 59006 0 52331 54853 58538 50751 57454 57294 54257 52547 54418 51417 60564 59743 60896 54942 57603 59528 55348 64739 55668 57165 53683 54425 52871 57178 56475 57574 61758 56281 55679 59058 50710 64919 61187 58527 54609 55121 55729 53134 52895 57562 57531 56325 53037 55803 56563 59132 58308 54065 49780 57688 52726 55365 61161 65535 53257 51239 59776 54028 50943 54599 53494 53110 58360 52000 55769 54299 54820 56922 59042 56497 62894 53606 0 54037 56703 52716 57664 55428 57250 54279 54036 53126 50409 56155 57220 54840 56676 58780 61913 58067 57859 58439 58032 50931 58522 57821 60783 53471 59912 56207 62327 58935 63123 54455 55699 54850 50576 62605 50363 55015 58321 57766 56921 60774 64519 58328 51962 57774 58651 54637 57173 58803 63621 59750 59244 50525 52094 61922 57721 56853 61265 59640 54812 59620 54947 53234 56043 57828 57519 58931 57654 57448 60531 56446 50477 65535 59325 58774 59674 54291 54240 52805 56792 54468 65535 10155 9791 8009 0 12897 7901 9697 3660 9609 14014 7947 11872 14075 0 0 6685 1783 11460 11631 10913 6790 4518 8591 9130 3229 12225 3732 12221 4654 11323 13683 2763 2903 8650 9009 7644 7380 7690 8551 9755 11386 8903 5030 10967 11895 7917 7817 9882 10547 5435 7936 5761 7280 10619 11788 62698 54926 48951 54896 60661 55213 59455 50731
56615 55884 57044 58915 57269 50604 59047 58426 59489 65535 54396 62525 48613 53255 54004 57664 59632 58492 58077 65535 59845 60013 60687 54449 59340 59370 56100 61495 54281 56470 57341 62183 56394 52343 48888 53873 60664 51553 58276 52163 54684 62983 52799 54367 55966 59180 52184 61816 53756 56122 60060 55375 54269 58074 57455 54556 54021 59461 52194 50073 51767 56975 54321 55245 57563 52769 60797 56843 59794 53037 49348 54370 53660 62949 59418 53394 57528 58572 55365 54184 57680 63001 61373 55809 58930 59565 55098 54627 53921 55122 58652 61620 55055 59197 58971 57854 52080 53968 55258 51565 58464 52504 57107 52662 63479 53697 53567 54390 59722 49386 54084 45655 55310 54543 54351 60151 53552 56425 53838 62282 52839 57651 49072 60247 51415 58584 60561 53779 56441 60357 56163 57093 52209 61762 53588 59711 57653 49720 61481 53158 58650 59968 57864 61082 60508 65535 59157 60681 60053 57059 57097 56790 61454 54319 59206 57016 55074 61931 55200 52988 59066 61192 62008 54616 54304 53619 58712 65535 56056 49022 58946 54216 0 53338 55532 60719 10816 7933 9612 7213 8961 6916 5348 5056 12521 6227 5019 8299 8529 14045 11610 10026 9054 8028 15667 5902 17505 12283 11359 5335 12778 6795 9948 9747 0 10925 12381 10629 11141 7102 14878 13480 13923 3493 5040 5339 7892 14636 9942 9229 9937 8156 4849 8429 7822 7317 6606 8076 12720 7071 9574 6619 54525 55382 53859 52526 59071 56122 65535 57295
50474 58022 56820 56152 54181 58215 51072 55351 58379 49150 48801 54991 55531 54104 56065 61458 48420 51373 57126 54409 53418 54132 55536 58217 61848 62136 54032 57103 58131 54330 54576 53613 55598 58904 56677 50007 63676 60420 54635 48981 59831 57619 62649 56747 60727 57290 55175 57307 58077 61958 59822 61451 51339 63723 59249 56246 56266 57410 56336 58243 45542 57831 52836 59524 53485 61395 64485 54709 51787 57881 61375 58848 48897 52763 55120 63317 57186 57433 59254 57154 49581 55704 57918 58167 60668 53459 59235 0 58860 54643 55946 54736 52723 54353 58012 54705 51851 58493 58335 53091 55794 62491 55988 53009 61794 60707 60378 58800 56873 65535 0 50171 53813 52292 54847 59814 58903 61924 56655 61113 54596 53994 50104 51497 55859 58891 63727 56291 58238 51492 52940 50170 52623 56512 55370 49083 57080 59625 59826 49623 65535 59703 60962 53989 60846 58232 55493 56606 59048 61302 55146 63422 62590 59664 50019 61101 52211 65535 60301 59268 53485 55879 65535 60528 53799 57286 59350 58666 58421 59643 55052 61063 65535 55097 57129 56995 16426 7616 7204 8371 8451 8595 9196 3840 7249 8317 10064 5824 12725 13635 11283 12541 11460 9453 3884 10397 5243 8726 7484 7365 11961 6300 8331 5353 10811 5764 4596 7995 11324 12647 12636 7026 8890 9638 12541 4725 12392 10602 9081 8600 11146 11188 11584 5803 14162 11910 9715 4209 3709 7863 8660 10786 9926 7951 11655 9333 5683 12876 10117 8396
0 63080 59398 55249 59073 58486 56444 51308 54621 56142 50163 60374 53685 53864 59348 59060 59041 60119 53629 54156 59811 58782 52767 54281 57162 49002 60216 60245 52348 65535 54704 54530 50934 58271 56863 58136 56246 47336 56703 53474 53292 59723 59139 53983 57151 50164 57225 56278 54330 61549 64504 52053 62356 51966 56229 54685 56092 53922 61174 63612 51778 49697 60796 50883 59443 53616 58847 54873 65535 55660 52169 61689 59030 54977 65535 53549 54898 55838 64205 0 52476 53078 63747 51000 51619 59024 0 65535 62096 55547 52596 55402 49009 57292 53081 52212 57147 51250 58214 52164 57708 52567 57228 57822 58656 62181 63257 55253 65535 53893 57030 62471 56445 55461 58537 58576 51451 60093 53963 54621 55630 60699 57445 53263 59330 57732 54368 54429 58980 55596 59169 57079 61016 54629 61196 57077 59756 56394 61025 57670 57779 58389 59466 56601 58397 62356 65129 57182 53174 59598 61006 63463 57074 57614 53471 58910 55294 58795 53140 56329 57028 57684 53130 52690 58442 56493 55196 56891 56509 56107 56863 53317 59695 52571 60268 58320 10608 10655 7052 8639 12144 9259 2935 4838 5008 7786 8003 13011 8247 9734 6715 5840 10934 10602 4137 10817 5030 6377 8618 7337 10012 5005 2340 9988 10918 16239 7639 9935 5708 7541 16051 11079 9482 8487 8271 5141 7133 10193 8691 65535 7209 6033 8788 6798 5749 9941 11260 9166 1009 8551 7730 8941 6297 9588 6358 8060 6527 13553 5548 6762
45809 57004 55404 59094 55453 53251 57957 57527 62444 65128 54442 60501 52338 61734 54592 56167 55541 57676 58207 53238 60329 55476 56869 53803 55627 48585 59001 55716 58538 52274 49918 57014 56223 59449 59519 50309 54021 57510 56585 59344 60530 55949 59513 52145 58984 49801 47494 56127 60002 64086 54572 60505 52652 52777 59897 58676 53456 53578 57246 62065 56050 59127 57532 53842 55490 59880 60073 57233 65535 59185 54498 58865 54923 59714 56467 57629 59820 58303 53507 64476 56184 61082 52921 58268 55504 59069 58799 57426 60034 51915 59621 59190 58982 62730 61798 56916 58272 56675 0 53695 0 58155 59024 65535 56387 56796 63772 58440 54096 58141 55421 54767 55538 59314 58367 57695 52564 54909 55938 50835 59118 54882 57742 59656 54045 58435 55054 60406 58257 58067 58120 53826 59569 55828 62768 54007 0 55895 55718 58153 57057 59291 60192 56604 61871 58584 54327 63004 60992 57932 53360 57993 56915 56958 55146 57549 51510 57598 54990 54590 59034 51058 54320 63330 58630 60116 59077 54488 62252 56945 56336 58658 50913 53616 61511 63880 9787 10034 9724 13814 8883 10428 2202 8014 14257 8437 18116 3225 7990 8601 7892 14138 13847 4058 7364 13097 7436 10113 13246 6338 11508 8737 11043 4993 10061 8810 12166 5324 13584 8428 7446 10319 9121 10633 11906 10669 10363 10520 9001 8723 5095 9541 9184 13016 10576 9416 9402 7110 17505 7012 10215 7343 8129 6546 7975 6926 12995 8335 11256 6991
58401 48451 58616 53612 63693 58848 50581 53736 59180 57490 56849 64999 54777 50806 57768 58184 56580 55084 54348 48642 53117 53325 51897 65535 56865 61884 65535 59514 64182 49971 55244 48363 56820 59393 58684 58250 63995 50814 56552 53542 55259 57183 60711 58175 59860 60251 61773 57020 59933 47400 50997 57981 60507 59526 61485 54985 54477 60308 65535 55613 57200 52223 56568 47912 58647 59209 61880 58686 56589 56868 52498 60172 65535 56227 56522 60137 52050 52013 54363 55026 51476 58797 63189 55898 52343 56277 52917 55394 56865 60566 53138 58968 52654 53337 61209 57358 51246 55544 62272 65535 51321 53979 54948 59247 59757 65535 61384 50850 61346 56646 49757 55385 53628 53310 55455 57007 56740 60273 54078 60352 55273 55010 57901 60217 55137 55188 56554 62653 53108 57414 52134 58242 63386 62508 55267 57532 54929 58359 53648 58941 53540 55749 57318 60769 56673 55610 53521 51303 50342 54606 54060 58372 57625 60322 53277 56071 53856 58310 59258 58224 56758 59921 58526 50435 54812 59337 56328 57576 60841 53074 50545 58886 55173 56297 58443 56749 2527 16692 11262 9764 8718 6039 2982 9137 4359 2744 7949 11118 11711 3772 12341 10348 9516 6434 9461 15313 11401 13666 5701 6663 10569 7541 12098 7323 13655 5099 12561 65535 12922 9673 10775 8055 13890 8706 9839 0 16434 8964 12489 14524 4766 7033 4704 12382 10912 8023 7559 10830 7174 12675 9711 12326 3576 6981 13433 65535 6301 14031 17642 12618
60209 57479 53546 56970 59475 55973 52992 54664 55441 55353 55282 52350 54423 56267 52989 53011 59986 57631 47799 53904 51876 55589 52961 52299 58983 52998 53115 61580 57897 57752 48889 51678 64133 53119 57489 51792 60205 57121 55424 55275 59868 56123 61786 57847 51062 53185 52254 57613 56290 59596 57632 57882 57648 54576 54231 61955 56182 55845 62619 53651 54804 57020 0 56711 58571 52244 55863 56511 59769 56038 54918 54904 49244 55013 57335 61567 57934 65219 62110 56213 54663 58207 57198 55286 58754 52854 60731 60595 54845 52735 50236 57403 59055 55305 53840 61882 56384 55166 58864 61572 60607 54112 52215 52619 55794 56823 56556 52065 60393 53510 65535 57602 57290 56333 58493 56687 57436 56443 57376 55839 57885 53693 52209 61072 56436 55065 63967 55943 56611 0 51073 50645 57493 61055 58045 55501 56833 60072 58344 58597 58017 59580 54781 53384 55931 55820 49250 62175 57876 51608 55958 55572 60765 58757 55804 56690 55974 59024 55397 58119 53846 53812 56156 61923 55717 57321 0 62034 59816 54897 53100 51241 0 60010 53832 54595 12548 8316 11488 1745 10925 6719 6923 12053 9944 2348 10274 11661 7198 6336 7302 13233 3247 10898 8102 6004 5697 6082 5332 4679 18701 7497 10884 12218 8286 15031 12571 11566 6861 8809 10630 8123 10989 10932 3743 10918 2248 16607 10085 15346 8417 5760 17108 0 3720 7293 12240 9714 12391 6217 9030 3341 14681 8281 15882 1620 3915 6650 349 7306
56227 56442 59438 53668 52648 63104 55993 57496 59155 54048 64678 48340 48321 52454 56046 61516 54673 60464 54791 61351 0 56992 53494 57590 0 55269 49198 54064 51812 61699 54168 55429 61036 59507 51125 53897 59079 57936 54311 59509 54723 51932 58391 60491 63909 58557 55904 57248 51700 58267 60447 57539 54893 57371 48812 56929 58812 62570 58350 53370 61655 53621 54294 57836 59673 54667 51517 58826 59273 58961 57908 61006 62405 57395 59296 51281 58097 57164 61125 54680 61373 57071 53437 58588 58521 58686 55104 60713 51358 60194 61683 56696 55621 59300 55193 61024 61890 60872 51475 58990 57128 55744 65535 50710 55911 54528 64863 57013 58109 50992 52976 54380 57781 60369 60459 54877 52635 54509 54026 59652 51092 54603 55099 52064 55111 53912 62801 54196 54271 61737 54700 53241 53427 55945 59697 56604 57739 54820 61270 46914 58640 56032 56112 61513 55317 58908 51469 56978 57793 51809 61836 52530 65535 54592 63246 62992 53409 54414 54316 58912 56944 54767 59622 59080 60991 59974 60068 50355 58634 48016 56220 58293 57804 52337 55834 56381 8716 10097 17521 8860 15917 8553 6614 13506 6887 10915 9513 8928 7192 11954 2439 7167 8954 2486 6055 13258 10434 13287 9774 4341 11716 2988 65535 13373 6400 10958 10953 4593 6880 5609 8120 8937 9313 4524 8789 11656 487 13816 7940 8524 9242 6613 4806 65535 3491 10558 15000 12829 13943 11431 11738 4183 13980 9086 3270 7523 2994 4200 9200 12064
50890 60490 53878 61534 55268 55214 59767 54307 55610 63233 59047 57496 49830 51226 54450 56470 56101 58088 57453 55216 55370 57419 59577 60130 55459 58578 50783 0 58148 58026 52238 56741 60724 53010 60077 57156 58813 58603 56019 52287 53033 54079 57112 52767 55726 59813 61966 58881 58201 55775 55673 54552 55662 61925 56732 47852 60892 57630 57529 51621 57262 62174 56212 60776 54734 54312 51444 56287 56093 54263 60547 51641 52949 58984 57762 62264 64014 65535 52488 52388 53419 57788 58386 57042 53147 62176 50169 0 57069 60771 53932 50432 59193 55038 55050 54877 57411 54273 49190 54946 59544 59750 61631 55616 56468 55775 54776 54276 57696 56816 57580 59340 60261 50667 55356 55779 59060 59553 60816 60538 58785 55131 59344 59175 50063 58768 52287 53770 61802 61593 60607 59106 62024 57384 55248 57972 55763 58190 56002 58508 60135 52057 65104 55827 58278 58183 55488 54893 59369 58409 53406 55132 65535 55246 58468 58211 57950 42024 57639 59061 54670 57889 56182 57071 60431 56698 60465 55493 55092 62983 54011 55989 57470 60324 58357 54640 15789 12810 12495 7284 2300 2286 6494 7240 10224 11391 12735 10147 8314 9530 13900 4707 10070 7463 11668 7753 11099 11201 5158 7993 3386 5978 7076 11819 14331 13127 11064 7634 12746 16953 2073 10674 6702 5958 9093 9711 0 9958 12327 5811 10976 10766 8482 5646 2904 6552 8359 10151 2089 500 65535 6532 902 11920 8896 8662 8553 9441 11124 6066
57295 61303 61541 53138 59206 60344 59631 59218 58863 61992 59734 63591 59101 57380 57732 57512 52346 53130 52593 52895 60223 57103 53608 58177 61033 57334 60108 50899 56318 56473 47045 55981 58325 56133 54884 56755 65535 60975 58071 55167 55261 53010 53075 56729 57163 61910 50234 54477 0 57498 55835 51285 64514 65535 0 58121 60708 53052 56532 58231 53063 51931 55052 57804 59320 54103 58852 53440 60485 56135 55876 63913 55542 53531 55454 56943 53617 60281 58911 58300 58748 57093 52483 54260 55915 61353 52785 51258 65535 65535 60006 63993 59766 58454 64386 58569 56366 65535 59201 60489 56431 56323 55581 61241 56453 56121 59473 65214 58427 60194 49462 53506 51816 56384 58465 59154 50219 52453 55304 58188 46699 52293 59846 57617 56759 53904 53752 53085 57262 57091 58416 58100 51302 54182 53580 55050 51769 53488 51573 53374 52088 59304 55237 56730 48961 52752 59509 56264 57454 54458 0 53962 62681 60419 54290 55237 58815 55618 58843 59221 0 60273 53147 57296 58205 55975 57914 59034 58998 53765 55204 54733 0 56224 54620 57606 14123 8728 5449 4058 8708 6038 8182 5119 12952 10718 10094 8682 18824 12493 11727 3769 9877 11070 5796 4916 8213 4894 10119 12682 5394 12165 6180 13579 9044 6891 7594 4193 7270 5921 7756 9073 8563 6026 9887 11167 766 11653 12030 12859 4079 3369 2738 17381 8607 10625 6925 17375 8316 1031 2025 10903 8976 9311 7402 14014 9614 7887 6509 3846
54998 51091 47582 58501 51612 58662 53193 50820 56620 65307 52389 58042 55704 55502 57965 55064 59319 62333 65535 65535 55755 54477 60266 58065 61289 57454 51263 60601 55566 52125 55044 56609 55539 54058 52019 59745 57727 56378 54665 54404 61708 58815 53468 59008 55997 56453 50342 58567 61230 54362 59457 54238 55537 57012 62803 59731 64157 59525 56891 52448 54815 51907 58704 56081 59415 55017 51727 56830 53674 54186 58701 57165 55332 58132 57684 56516 59454 55176 55857 57905 60912 54419 65535 57922 55725 60581 61504 56063 63042 58195 55068 54702 55166 58388 58743 65535 58021 62430 0 53932 57258 61167 56131 60151 54513 54894 65535 61594 56188 55530 51514 51189 0 53697 57084 58245 53443 0 55655 59003 62700 59359 50119 60105 62660 50470 55433 61794 58741 59254 57109 54339 56474 50890 59337 54286 55718 56572 58224 60961 54158 58876 53670 59892 55070 58604 54142 54793 52906 59028 57331 59254 54977 58994 54355 50299 60419 60431 53765 57700 61540 57525 51017 48234 58730 56647 59112 55535 56583 56991 54622 52717 53795 53903 62154 55715 4886 3263 4931 10004 5742 12142 8049 7451 7226 8595 4536 9790 6988 7281 13513 17459 4329 0 9462 13057 10896 12453 9028 2695 54080 52131 60008 61595 52851 60678 56191 53566 61600 55150 59995 61828 54967 55868 56671 58039 13784 13733 10273 4749 13637 18455 7198 8247 10727 10939 0 6513 1750 13628 5785 5714 11523 3254 2719 11933 0 14982 14956 7111
62322 55584 61720 58848 53694 57032 57693 51297 53881 50821 59006 54368 58339 57086 56008 57613 60362 59800 61520 57875 64088 62598 57820 59732 59563 62429 54104 57436 54801 55313 52524 0 54607 56557 49889 50068 57317 52299 59088 54256 64742 58511 59539 59045 53198 53946 58704 59161 55741 58841 54772 60975 52445 55093 64036 58679 53381 56291 58809 56085 0 59187 56512 59056 57401 59027 59767 54931 53242 55977 57914 53986 55723 58637 52826 61205 57576 59727 56824 60054 50520 59654 56120 65190 55690 62452 55761 52781 51647 56094 62170 49431 59191 54085 59879 61194 51120 55336 55654 0 55370 60577 57659 57769 57594 59098 58866 49499 55998 51693 57307 59200 54238 55611 59280 52061 56544 55168 60207 57160 62216 56287 55675 54871 54429 48243 55198 63043 54256 56571 54404 57196 60683 50010 0 57588 59836 57691 51827 60723 53065 58506 58313 58087 0 58742 51701 55463 52774 55922 57740 59418 61427 60779 59225 55607 53285 58495 58777 55855 50505 52117 56817 58433 54379 52794 57297 55704 64337 60533 65535 50784 61983 54627 58371 52422 13442 12554 12196 12670 4860 10240 5536 13917 10814 9945 10490 9829 2268 8122 7481 10239 8275 5175 18161 12054 13704 8580 15229 11130 55152 49496 54606 61212 54906 53029 60325 60567 62539 52335 53183 56849 51969 52882 54514 59385 5773 7629 9897 17455 9017 7512 9189 16417 12973 2636 6508 8495 17282 7738 6367 3601 7324 7169 8750 6166 13507 9694 7232 10395
54209 54103 58812 55393 50571 53661 58031 53572 65535 57424 60328 56984 54501 58345 56764 54126 54182 56009 54769 61732 55267 56118 52497 61164 59002 56375 48113 65296 54482 55673 55380 58888 53046 55850 60810 60991 57191 62225 59160 55015 59744 60122 56118 59312 57137 53572 56745 55054 59961 58630 59862 55481 57295 57427 53268 58262 62841 58148 55693 60152 54877 50761 54375 60477 54967 61134 61631 61511 56131 50764 56920 53514 46851 50112 55361 60104 54069 58822 57936 53637 57562 57860 55491 57787 57389 55388 55216 64003 61222 52613 59576 51856 49819 56115 62391 48678 54055 61998 49603 52254 54903 53699 54687 50392 54538 49810 55762 60820 52380 58383 65535 55628 61486 59748 60949 52996 55793 54284 55370 59281 62343 51669 55230 55721 62820 57086 0 52731 57786 65535 58531 59766 53137 53723 52115 60974 61114 0 60687 53735 60141 61434 59608 58001 59109 58871 62894 60807 59790 61840 59539 63052 62100 56010 0 54522 58988 54474 53497 57246 59643 55941 53204 58928 54296 57925 56990 59012 55430 60528 57763 56607 59539 57151 53984 54905 15924 8654 15485 6685 6254 5097 3924 11856 10805 18395 6539 6740 10028 9967 2668 8023 6224 6031 10292 17288 8167 8388 8670 2622 53934 51790 58442 59358 56885 65535 53920 51297 54427 53591 56723 55108 53256 63062 57948 63901 10697 16073 14133 3270 11359 7256 4309 8985 11162 11923 4894 7442 8789 13834 6823 11907 14134 10764 11793 10055 15567 14395 9413 11363
53625 58367 62802 53906 52606 59289 60446 60669 58990 53613 65450 58703 58320 57940 60188 63954 53015 56267 54178 55339 59760 54288 51817 65535 53794 65535 56004 50268 57938 54484 55204 51520 60262 61289 55233 57901 52629 64325 51164 49492 54933 61965 53519 55250 56813 56854 55284 58358 52993 59463 58906 63001 54776 52455 55594 54118 52929 51347 53544 52597 62763 59285 52546 51946 56372 56822 58984 54700 56022 57110 57903 57277 57291 53301 57968 54027 54534 60193 59669 58681 60514 53788 57475 51982 58036 51202 52383 57146 64491 56441 57639 55312 61852 57553 57503 55204 55123 60945 59563 55224 57631 57038 50869 47574 55848 53104 57580 56657 50775 59233 58141 55450 58943 58148 56971 61097 56984 59409 54877 50554 49767 0 54680 63754 65535 49979 54075 53913 59256 59126 58917 54028 57092 55454 59890 59011 59409 53282 55337 0 54637 58187 60893 57100 56686 50911 56438 58496 58789 61224 65535 64403 61066 54219 55177 57218 52055 54222 60791 55110 0 55961 52468 55081 60476 58537 55098 53781 61166 56245 56627 54855 54317 58239 58284 57693 9241 5672 11388 13629 8135 5797 8776 10220 5009 0 11719 6128 9014 3083 9263 7507 11903 3006 6680 11084 9763 7954 11351 7342 54971 56615 49429 56595 54249 55121 57106 58648 60509 53086 53173 56801 50194 54448 56679 53785 12762 4290 7197 6646 65535 12986 8464 7987 4042 9834 7590 9312 6839 16784 6797 7865 3742 8864 6292 8502 6243 15141 6260 5285
56406 58325 47707 58913 58175 55952 51835 59399 59056 57560 58938 58459 51854 64674 48129 54652 54317 55275 52837 54246 58606 62056 57419 0 62878 57164 58554 58002 51489 57102 59460 60669 56872 58504 48682 60616 57844 55622 58503 57491 59295 52682 53759 62563 55146 56299 58733 56162 56379 58590 55523 51379 56108 57494 59699 49823 55208 57099 58767 56017 54039 57395 58959 56418 56359 55408 59709 56990 56242 58252 50249 62219 0 57393 60371 61952 54111 59346 61491 49399 54216 62704 53655 54432 52752 52808 59646 65535 65535 59473 56831 60384 60039 65535 54413 56064 55825 55600 56647 58512 50879 59190 59695 53224 55156 58786 48576 55787 57493 57663 53590 55431 60183 55592 56662 58128 55682 57348 56909 59885 51866 52652 49342 58517 58987 57480 54015 62032 57316 55506 53769 55076 54243 56265 60878 55577 52356 54306 53280 58245 58312 47344 55886 56832 55998 53794 52023 60002 55846 62194 54386 52191 55398 55478 59856 53008 54639 55099 57604 59772 56147 52400 53602 58684 60820 52302 55489 55742 64120 56467 57451 52165 56462 61180 49533 53978 10240 4085 6567 9201 5934 7240 0 11629 9250 11368 13079 9698 7207 4386 6358 9442 9372 10605 10969 6145 9698 8401 10948 14327 59845 55840 53111 54003 52831 54984 57463 54058 58014 56528 60453 58578 60537 53337 49507 55018 9708 9251 14318 12903 6875 7226 9217 8755 9796 9054 9899 13523 2432 4616 11872 2087 10355 3296 7631 9349 16774 14520 14616 12097
55861 0 59174 54978 50797 61078 59268 63893 52115 55768 55997 55559 57789 54778 53154 0 55366 53894 57587 57909 56800 54029 60974 57862 56135 56600 60915 53314 57597 48536 53985 56963 60057 65535 61740 59455 59755 53480 60244 51016 65404 53122 55530 57054 55048 58790 58653 61003 49434 60592 52883 61389 60465 51203 63305 62904 54802 58353 49834 53140 50337 58491 52984 58804 55824 57880 53131 58450 60863 54422 62837 56316 53808 58061 53274 65535 56721 53257 50522 59371 57911 62521 51981 58430 0 56762 54403 63635 55180 52427 57674 58344 52722 53211 56085 52674 54320 63024 60131 65535 60095 57825 54637 57273 51545 53461 52883 56698 57667 53914 51287 62653 57835 56236 61451 56136 53159 57981 57223 56527 51680 55529 56306 51181 57120 54298 56691 50730 53430 53834 58594 59813 54911 57089 60597 54843 55016 53830 53784 56629 57891 57738 61787 59085 57855 53480 64044 57896 55092 58330 55812 51676 56002 58454 55933 53656 65535 56715 55834 55704 51476 55147 0 54798 56494 58570 57751 50787 53679 62173 53679 55833 57537 62432 60143 65535 5589 3908 7093 6387 7950 2234 8602 12862 6561 11244 10926 10705 10780 10640 7569 11756 6947 7675 8062 10119 9767 9623 5773 4733 58164 59312 59866 58882 52263 51422 58658 50765 56663 57524 64367 50999 51857 52784 52356 58438 6299 9501 5341 6308 8341 9666 6985 10003 11184 6456 8507 8737 15027 6736 5945 6484 7298 3549 5797 15565 9055 18309 6108 7609
57518 62892 58686 59729 56154 57162 60500 50889 58709 56652 56888 56425 59233 50615 63566 56165 55728 58522 56376 65535 55050 59326 55862 60572 0 56938 56427 53268 53551 57389 57905 49872 61197 55559 56172 52173 56501 56978 60432 55015 56521 56831 63779 56376 52630 56568 58035 54910 53022 56490 54861 59409 49664 56925 49978 54089 53316 56989 56699 55218 56543 58167 55810 56465 51563 59041 52231 60127 51603 60934 51934 59335 54937 56518 60962 54870 58104 59844 48969 65535 54411 56106 56330 55355 56383 58907 50092 56939 56929 60324 55863 57185 57998 56264 53871 51440 48623 62429 54581 53931 58126 54455 55993 57774 53864 55907 60604 51783 61653 52556 57036 54647 59914 52811 55192 60018 57971 61386 57989 56486 59747 61491 56373 53787 52954 54988 53670 55333 46505 61017 56778 0 56822 56762 58807 64120 55268 61341 58584 53643 57225 65535 54552 0 59109 58248 65535 54682 53552 55537 63614 61989 62433 54715 58755 54251 53559 58177 57093 54285 60346 51870 57877 53824 52043 57160 55160 48909 53958 57761 54069 49772 65535 55313 65535 57749 8177 12846 11127 15 9684 6387 6653 9293 11950 8717 5808 9810 1760 7166 1768 7492 10321 12239 10433 14795 6671 9691 6575 8275 61526 55803 53067 54706 55640 55313 55676 52627 61047 62164 61699 56536 57544 57978 59759 61631 9950 9368 3087 10135 7355 7183 4550 6334 8747 11922 7154 11928 5663 6146 9432 10811 5547 9909 17100 13473 10659 3360 11551 5769
52027 52883 54668 56202 61281 53504 50469 56474 58222 60482 54138 63445 58149 60413 63608 54496 56209 57363 48588 59115 53310 61544 0 51524 65535 56732 56696 61019 58129 55945 58305 59242 52620 0 50126 56989 58612 59045 48999 59863 54740 55475 57414 54813 54254 50771 53449 54834 59455 56570 53323 61810 61655 56580 52858 0 54004 52423 55221 49387 60942 51744 65535 52311 58676 54877 55853 49751 57311 60168 62868 54535 54535 51330 61093 52446 57319 58169 58410 57123 50745 56864 62651 54768 55597 57955 54638 56161 57747 56909 56405 60052 54560 53549 59740 54128 54732 50829 61275 51155 58060 50880 59761 56131 45508 55240 59801 58768 58829 55613 52052 53234 56409 56426 55840 62073 58944 53270 55229 59255 53753 0 55271 54705 59680 58603 56235 62740 57087 57686 53605 58428 55248 52630 54654 65535 59891 57056 55816 52985 57274 58133 59105 57242 48228 58733 54114 60373 59960 56696 60323 49781 65535 56969 52841 62081 60371 61408 60659 58423 59470 63016 53718 59901 60384 51628 55822 59498 58666 55305 54146 54703 57679 0 57683 50347 65535 11491 9892 9647 9461 8032 10748 4411 7183 10194 12174 12004 0 10132 8862 11622 11636 4725 11445 5071 8855 7557 3100 9413 56816 58364 58503 53821 58700 59556 57377 65535 57350 59574 53374 59339 57403 56284 60835 54840 12457 7196 5220 6603 17903 65535 13834 9239 9060 7534 9762 10741 13701 11222 11613 17391 13908 9639 0 12105 9936 9895 7469 3523
55265 53649 56921 58158 59310 60298 54625 52801 65535 57798 55290 61668 61264 52646 56515 53421 59501 53220 53859 60422 60397 62546 61532 49454 55777 56810 55662 65535 59473 54709 54261 53415 56786 57755 60256 52821 55003 54753 59145 56698 50111 55609 60166 59040 65535 58324 57826 0 55244 55902 65535 55163 57789 60695 54801 57201 55959 54667 57212 61714 51435 56652 50743 55558 57188 52351 53474 65535 63628 51388 0 61783 58918 55708 54744 62740 55901 65535 53236 60440 57303 53090 55295 54031 58917 58180 61353 61890 50090 62959 52043 55290 57987 56094 50588 52305 57201 56525 50803 56324 65535 57704 55138 51160 54967 55901 55009 55395 61528 58079 57829 54450 52222 51312 57582 59166 56020 58549 60911 54612 58196 52813 58054 60252 61811 57654 60349 57612 53489 0 53124 51663 63964 59336 62532 56355 60633 56301 57233 61274 55748 56588 62667 57634 52048 58139 54864 65535 56851 65535 55952 61844 52962 53698 60702 54657 50601 57493 55831 48317 58221 58258 54356 48668 55545 56793 52549 57115 56688 51212 51438 54294 53644 53483 56792 55279 13871 9828 8160 14575 12436 6658 5872 13803 13405 4483 7396 10198 16958 11408 11331 11198 57326 57919 57676 65535 51469 55659 54938 52636 0 60987 53348 58414 54525 60853 56018 50652 51884 57392 53350 56033 61142 56749 55092 51476 53063 56307 58400 54336 59915 58478 50150 52332 4515 10556 12572 11748 14182 6828 11074 7112 8927 10023 6039 11054 8433 8908 8978 4755
53747 59098 63005 60594 0 56859 56667 59627 53119 57089 57574 53859 55204 54996 58476 59043 60332 62800 60790 60445 61782 56911 57413 54431 58932 57053 53316 53356 57809 49515 0 59347 58717 59033 52483 55355 52709 59788 58918 57979 57117 59668 53532 52115 49907 65535 61006 59325 60695 52587 58767 59631 59524 52384 54176 57019 0 57774 0 57730 55866 56857 50464 55078 57578 57836 53500 59118 53917 57792 56702 56128 61076 59717 52927 61794 59484 53180 57912 56369 55812 57891 54570 50584 59357 59801 52762 54521 58114 58081 55340 55323 61307 59973 56214 54480 57638 54589 57828 58612 57451 60937 58340 51664 51820 58104 60814 56118 54257 60391 56422 54287 0 54642 58068 54185 58684 52171 61981 61906 62331 58652 55257 56635 56940 63278 57627 58061 52942 52850 56884 56153 56244 62405 52745 64285 60828 57048 53582 50869 57409 56506 57326 59663 55530 56013 61532 56934 55331 0 55652 47836 54143 61016 58190 58101 54684 49966 55229 65535 56372 54398 50511 48714 65493 50314 54767 56066 51266 50893 49241 0 59525 65535 60931 54959 8548 7235 9583 12304 10750 11123 10977 11272 13315 10584 11899 9739 9120 8891 14419 18064 56307 61372 57912 57999 56056 55080 52317 53346 56038 52453 54377 50400 56865 57147 63097 56243 59673 59923 48987 54022 52137 47854 57307 56234 54099 58075 61617 54905 53864 61127 55256 56078 8960 15359 8090 13016 9552 10391 8900 0 11131 3359 1960 8001 13040 9234 9009 16430
58100 59651 56779 55449 61879 54539 57550 54636 62483 54790 59506 54918 58531 59239 62120 63763 54785 57851 65535 52950 57056 51803 55101 59311 55505 57846 53199 50902 58325 52670 55477 54216 58677 55428 62425 57754 57736 53953 53409 53927 55349 61565 52710 55888 56280 56081 56512 52762 58819 51751 56457 59778 51985 57221 53257 0 59317 52637 60584 56357 55640 55733 58028 55703 57395 0 64414 60201 62948 50486 55899 62100 61219 57380 63772 54295 58651 51087 56005 58571 52946 59229 58359 49992 53079 62732 58583 57524 57424 54921 57876 58775 50399 57135 58097 53311 58639 57571 58630 61919 55648 59932 53269 57320 55757 59297 65535 59971 54623 52042 51875 58677 58708 54571 52024 58782 60943 50004 59629 49116 51846 0 56584 56975 57896 59525 58350 59458 62171 58991 59350 60102 58142 58512 52957 58724 57350 0 57473 56667 54638 56641 57678 52110 55666 57633 59313 56742 55685 51648 56602 55269 56801 60814 56248 56902 56055 52553 57451 50972 54184 54444 56722 0 56177 52030 62170 62786 55098 58416 56583 55043 55424 55694 53245 55778 12402 65535 12469 5728 6445 9655 6722 16079 2877 5367 5335 9352 10908 11143 7404 10645 58121 52808 59655 56024 57409 52992 56219 59847 51232 51532 54014 54867 62608 54115 57136 57105 53225 50986 55562 0 50871 54565 59295 58782 60175 61636 56410 56742 57760 55609 65535 55475 5950 7166 4556 15577 10531 5601 11446 14145 9504 4530 4701 6703 9267 11874 13718 9429
65535 52546 58006 54030 57381 62716 60097 56231 53906 55481 61790 52263 53674 55795 54078 65535 56807 50802 65535 49348 57827 56676 58126 63083 54236 59049 52629 56456 0 54028 53048 56471 57491 58253 51418 60008 55256 52676 52126 60981 56322 56893 53479 54739 53708 54962 56265 54925 54911 56504 59180 56296 59329 56225 64994 57887 57757 63796 58234 50098 59448 56334 57598 51727 57367 56380 53693 57370 54565 55979 58130 54185 49941 58874 56692 56021 55973 58260 54221 55271 54772 55715 51760 57259 58233 57283 59472 59320 53237 54568 0 57159 57409 58371 58245 61429 61411 53072 56742 53822 53667 59044 55406 55300 54313 57185 55551 60291 60291 56852 50986 52697 54487 55459 56804 59123 49519 60952 55369 52710 51272 59683 54980 51885 57301 57316 53567 58295 48692 50670 58790 57110 57941 56755 57407 52254 0 60105 52966 54182 63319 54831 57733 54453 61795 58418 53115 53652 58210 57329 53724 57943 52987 55789 58453 65535 56159 61079 58564 59220 61410 57844 60871 52058 62368 0 61158 57264 50457 53309 56146 55539 55645 59091 56363 60145 9296 8224 4986 10028 7923 10729 65535 12807 12016 7310 7346 1734 13931 0 7770 14839 56378 58930 56136 60504 57175 55895 0 54239 56735 58040 60725 48360 62486 53991 55472 62955 53406 57776 54591 59276 56331 54260 55855 58812 52502 59016 57465 59233 59343 58443 52814 51729 6156 7268 11922 7084 1915 65535 8427 9128 3676 11512 4777 65535 4105 6931 8090 12269
57072 55683 61742 51264 55626 55582 55136 55945 50740 65535 57585 56392 51363 57022 59978 59524 58305 53592 52340 54211 57061 62906 52816 48622 58942 62794 60718 55178 59240 58543 55959 57314 53626 58933 55559 56593 57171 55284 59842 55786 53545 65535 55839 53624 46787 51697 61512 65535 54742 55531 49323 53769 55305 56538 54105 56821 56386 58327 58677 56932 57552 46106 54800 56487 52481 62553 53505 55927 58743 59232 53653 57237 54569 56856 53454 0 59986 61684 57600 58043 56760 54614 55309 61489 62351 52537 59594 52387 0 57510 55230 56523 58879 56965 58243 53437 53824 61840 59254 55703 58298 58079 53968 55637 55594 56815 61015 62023 58176 57956 63264 59889 58883 59590 52999 0 53124 52065 56123 54339 63123 57555 51402 52374 54409 52548 65535 57499 60149 55521 50969 58216 59313 54758 52103 56905 55871 60777 65535 52055 61341 59114 59206 54961 55836 50326 54027 57702 53410 54373 51833 51926 65226 59209 60600 58022 50703 53839 52769 58903 54913 56626 54159 53863 57522 55069 55905 57137 61553 54803 56208 53767 57575 54546 60414 56135 9568 3506 6759 9156 11588 8292 9604 9675 11657 17475 13796 1838 4598 9682 9418 10208 52947 63582 60157 54904 55728 56334 54036 52498 58216 55007 55752 59410 56156 59279 52826 54801 52878 53681 58900 52198 55012 62172 58031 52947 51354 53301 61179 60163 56746 54032 55667 52652 10558 7693 5659 11440 8941 7569 901 9109 7967 7940 13688 3677 7910 6538 12140 1107
52813 56730 51565 56195 56399 54056 53467 60516 61313 53513 58248 58591 58894 50546 51707 55317 53853 55980 50433 55520 57484 57139 57533 50462 57388 53389 57193 54704 54598 60580 54484 0 60667 55516 55646 52437 53951 59524 51147 50054 55342 62743 61301 59935 56096 52563 59969 65535 54611 59049 64645 56217 51525 53248 55570 54403 59780 58544 60101 58226 54881 59025 52134 60134 59878 55950 59010 60131 57747 56519 53839 57433 64716 55557 56175 57205 59201 54675 58258 55824 56192 54993 52847 48600 49748 57900 59260 53297 49222 60103 0 57392 51957 56769 50130 61701 60664 56304 48714 56999 56734 60318 56864 65535 56901 54542 54657 49359 53726 56718 53309 59019 51039 57328 58648 57688 59408 60028 57155 60393 63526 58984 57737 61512 54709 57956 56895 53835 55305 59443 56569 56660 58699 63379 51772 55409 55121 58719 60071 53831 56015 61259 52910 57791 54972 56781 54401 61932 58687 54768 53730 57368 54218 56901 59744 52605 58669 60570 56533 57609 65025 54416 64766 60452 51940 60894 54048 49503 65535 63065 0 54716 55187 62592 53379 51510 5631 5700 9184 13024 65535 15995 11112 8129 6125 7296 9462 6094 8501 7116 6677 3585 59323 58094 54352 54537 59537 58694 58785 56955 58079 56292 53402 59682 52103 58136 56592 59292 54328 50547 51355 64491 51092 50137 52628 55963 59892 57313 58898 54546 56966 58041 53199 54488 10621 7336 6221 6865 13839 7120 13408 8933 11129 8686 9020 12682 12748 12625 8242 8241
49833 0 55114 54627 57986 55581 56364 56208 58712 60595 59716 60511 58206 55367 55024 65535 52809 65255 55428 54912 55634 52927 55901 52995 55991 57647 59800 51607 51797 62971 58607 57741 57275 52595 54266 55063 50807 62482 58700 54236 52108 56131 51495 58243 56892 65535 57079 57800 53840 56125 56084 56824 60271 60695 53810 56470 52875 54123 58651 54374 59127 54574 55261 52841 54051 60507 55493 65535 55468 56377 55705 54983 56792 63657 59396 51728 54174 50535 54432 55246 51605 51748 60299 53014 55837 53348 56593 55154 61800 55914 54766 56524 55052 53405 58790 52879 53270 60746 64514 51877 55091 64041 60220 49972 53339 54726 53214 54439 58484 56098 54330 58833 55326 57378 56704 55154 63161 57260 56691 59202 53680 58447 57592 52440 57271 56431 64754 53549 58797 63112 58865 52874 54658 51711 55124 55715 57592 56281 63152 52113 58298 61174 62424 57422 49533 65535 53245 54697 61399 59107 60706 54172 54399 56624 55766 56851 61891 58526 58262 56601 55600 56110 62291 58858 52787 59087 53850 58872 54054 57372 54798 53985 58577 49691 58665 55044 6918 6803 8838 4273 3353 15280 5831 6351 13346 8286 10848 8585 7301 12143 7766 12602 61631 55775 55655 56913 58868 56734 57891 62597 52050 55727 59163 60533 53406 57703 57709 63341 54618 49388 55907 59582 57804 58225 53684 59646 53799 0 53031 58388 60100 54601 54743 61998 4849 10971 11040 11950 6710 10234 2734 5383 2184 8921 11414 11007 6529 5125 10969 4391
53376 54915 50080 56563 56126 57942 52543 60720 56734 58912 54341 60022 54401 56922 59872 61083 54273 57999 59556 55463 55559 0 60920 49628 59786 0 59459 57465 60037 55592 62382 61987 57518 57379 64002 54319 53928 61497 61484 55142 55952 49741 56263 55434 58353 65535 54446 56783 57439 46537 54230 53568 57207 57286 50603 60923 57242 57551 54781 50879 48656 57271 53859 53963 58533 0 58898 65514 61866 49239 52498 56379 58751 58259 54975 55812 52196 54466 58082 59651 55848 53521 61413 56295 59504 62305 62827 57801 56180 56709 58967 57111 60714 59501 53175 58203 53584 57184 57357 58253 52626 55200 50479 61616 58672 58867 58271 51630 57584 57088 55176 56966 58524 62444 57191 55785 56916 57799 53560 56682 57053 57696 56119 63882 57526 65535 59523 55914 59328 50720 57586 58771 54971 55517 65535 56865 57359 54815 61955 54741 57022 52716 53663 58231 52619 55992 59561 63643 57046 59317 53182 65535 56561 54597 63305 54090 58691 60914 55642 59404 57000 53877 59384 58615 52678 54299 48920 55268 56029 58421 62528 62815 50187 58900 53934 54261 10839 9337 6389 9031 10669 11579 5042 5658 12757 6843 65535 10540 6933 106 3100 9280 60431 60030 56286 55817 56399 58688 50072 53167 54933 58815 60325 53826 58123 53856 55529 58161 49738 58927 54584 58025 54166 53905 58941 53336 55242 57611 57280 53680 61361 56623 61456 59090 8342 3531 3901 5317 8729 5696 65535 7586 4611 9880 8084 4363 8495 12568 5764 16498
